<?xml version="1.0" encoding="UTF-8"?>
<map version="1.10" tiledversion="1.11.2" orientation="orthogonal" renderorder="right-down" width="100" height="100" tilewidth="16" tileheight="16" infinite="0" nextlayerid="7" nextobjectid="1">
 <tileset firstgid="1" source="FD_Dungeon_Free.tsx"/>
 <tileset firstgid="769" source="Tilemap Dungeon original size.tsx"/>
 <tileset firstgid="1369" source="garden.tsx"/>
 <tileset firstgid="1842" source="Houses Sprite Sheet.tsx"/>
 <layer id="1" name="Sol" width="100" height="100" opacity="0.97">
  <data encoding="csv">
2,3,4,2,3,4,2,3,4,2,3,4,2,3,4,2,3,4,2,3,4,2,3,4,2,3,4,2,3,4,2,3,4,2,3,4,2,3,4,2,3,4,2,3,4,2,3,4,2,3,4,2,3,4,2,3,4,2,3,4,2,3,4,2,3,4,2,3,4,2,3,4,2,3,4,2,3,4,2,3,4,2,3,4,2,3,4,2,3,4,2,3,4,2,3,4,2,3,4,2,
34,35,36,34,35,36,34,1004,1005,34,35,36,34,35,36,34,35,36,34,35,36,34,35,36,34,35,36,34,35,36,34,35,36,34,35,36,34,35,36,34,35,36,34,35,36,34,35,36,34,35,36,34,35,36,34,35,36,34,35,36,34,35,36,34,35,36,34,35,36,34,35,36,34,35,36,34,35,36,34,35,36,34,35,36,34,35,36,34,35,36,34,35,36,34,35,3221226743,3221226742,1201,1202,34,
66,67,67,67,67,68,66,1034,1035,66,67,68,66,67,68,66,67,68,66,67,68,66,67,68,66,67,68,66,67,68,66,67,68,66,67,68,66,67,68,66,67,68,66,67,68,66,67,68,66,67,68,66,67,68,66,67,68,66,67,68,66,67,68,66,67,68,66,67,68,66,67,68,66,67,68,66,67,68,66,67,68,66,67,68,66,67,68,66,67,68,66,67,68,66,67,3221226713,3221226712,1231,1232,66,
2,3,67,67,3,4,2,3,4,2,3,4,2,1170,1171,1172,3,4,2,3,4,2,3,4,2,3,4,2,3,4,2,3,4,2,3,4,2,3,4,2,3,4,2,3,4,2,3,4,2,3,4,2,3,4,2,3,4,2,3,4,2,3,4,2,3,4,2,3,4,2,3,4,2,3,4,2,3,4,2,3,4,2,3,4,2,3,4,2,3,4,2,3,4,2,3,1240,1241,2684355830,2684355800,2,
34,35,67,67,35,36,34,35,36,34,35,36,34,1200,1142,1170,35,36,34,35,36,34,35,36,34,35,36,34,35,36,34,35,36,34,35,36,34,35,36,34,35,36,34,35,36,34,35,36,34,35,36,34,35,36,34,35,36,34,35,36,34,35,36,34,35,36,34,35,36,34,35,36,34,35,36,34,35,36,34,35,36,34,35,36,34,35,36,34,35,36,34,35,36,34,35,1270,1271,2684355831,2684355801,34,
66,67,68,66,67,68,66,67,68,66,67,68,66,1230,1082,1082,67,68,66,67,68,66,67,68,66,67,68,66,67,68,66,67,68,66,67,68,66,67,68,66,67,68,66,67,68,66,67,68,66,67,68,66,67,68,66,67,68,66,67,68,66,67,68,66,67,68,66,67,68,66,67,68,66,67,68,66,67,68,66,67,68,66,67,68,66,67,68,66,67,68,66,67,68,66,67,68,66,1610613956,1610613986,66,
2,3,4,2,3,4,2,3,4,2,3,4,2,1205,1205,1205,3,4,2,3,4,2,3,4,2,3,4,2,3,4,2,3,4,2,3,4,2,3,4,2,3,4,2,3,4,2,3,4,2,3,4,2,3,4,2,3,4,2,3,4,2,3,4,2,3,4,2,3,4,2,3,4,2,3,4,2,3,4,2,3,4,2,3,4,2,3,4,2,3,4,2,3,4,2,3,4,2,1610613955,1610613985,2,
34,35,36,34,35,36,34,35,36,1115,35,36,34,35,36,34,35,36,34,35,36,34,35,36,34,35,36,34,35,36,34,35,36,34,35,36,34,35,36,34,35,36,34,35,36,34,35,36,34,35,36,34,35,36,34,35,36,34,35,36,34,35,36,34,35,36,34,35,36,34,35,36,34,35,36,34,35,36,34,35,36,34,35,36,34,35,36,34,35,36,34,35,36,34,35,36,34,35,36,34,
66,67,68,66,67,68,66,67,68,66,67,68,66,1115,68,1115,67,68,66,67,68,66,67,68,66,67,68,66,67,68,66,67,68,66,67,68,66,67,68,66,67,68,66,67,68,66,67,68,66,67,68,66,67,68,66,67,68,66,67,68,66,67,68,66,67,68,66,67,68,66,67,68,66,67,68,66,67,68,66,67,68,66,67,68,66,67,68,66,67,68,66,67,68,66,67,68,66,67,68,66,
2,3,4,2,3,4,2,3,4,2,3,4,2,3,4,1084,3,4,2,3,4,2,3,4,2,3,4,2,3,4,2,3,4,2,3,4,2,3,4,2,3,4,2,3,4,2,3,4,2,3,4,2,3,4,2,3,4,2,3,4,2,3,4,2,3,4,2,3,4,2,3,4,2,3,4,2,3,4,2,3,4,2,3,4,2,3,4,2,3,4,2,3,4,2,3,4,2,3,4,2,
34,35,36,34,35,36,34,35,36,34,35,0,0,35,36,34,35,36,34,35,36,34,35,36,34,35,36,34,35,36,34,35,36,34,35,36,34,35,36,34,35,36,34,35,36,34,35,36,34,35,36,34,35,36,34,35,36,34,35,36,34,35,36,34,35,36,34,35,36,34,35,36,34,35,36,34,35,36,34,35,36,34,35,36,34,35,36,34,35,36,34,35,36,34,35,36,34,35,36,34,
66,67,68,66,67,68,66,67,68,66,67,68,66,67,68,66,67,68,66,67,68,66,67,68,66,67,68,66,67,68,66,67,68,66,67,68,66,67,68,66,67,68,66,67,68,66,67,68,66,67,68,66,67,68,66,67,68,66,67,68,66,67,68,66,67,68,66,67,68,66,67,68,66,67,68,66,67,68,66,67,68,66,67,68,66,67,68,66,67,68,66,67,68,66,67,68,66,67,68,66,
2,3,4,2,3,4,2,3,4,2,3,4,2,3,4,2,3,4,2,3,4,2,3,4,2,3,4,2,3,4,2,3,4,2,3,4,2,3,4,2,3,4,2,3,4,2,3,4,2,3,4,2,3,4,2,3,4,2,3,4,2,3,4,2,3,4,2,3,4,2,3,4,2,3,4,2,3,4,2,3,4,2,3,4,2,3,4,2,3,4,2,3,4,2,3,4,2,3,4,2,
34,35,36,34,35,36,34,35,36,34,35,36,34,35,36,34,35,36,34,35,36,34,35,36,34,35,36,34,35,36,34,35,36,34,35,36,34,35,36,34,35,36,34,35,36,34,35,36,34,35,36,34,35,36,34,35,36,34,35,36,34,35,36,34,35,36,34,35,36,34,35,36,34,35,36,34,35,36,34,35,36,34,35,36,34,35,36,34,35,36,34,35,36,34,35,36,34,35,36,34,
66,67,68,66,67,68,66,67,68,66,67,68,66,67,68,66,67,68,66,67,68,66,67,68,66,67,68,66,67,68,66,67,68,66,67,68,66,67,68,66,67,68,66,67,68,66,67,68,66,67,68,66,67,68,66,67,68,66,67,68,66,67,68,66,67,68,66,67,68,66,67,68,66,67,68,66,67,68,66,67,68,66,67,68,66,67,68,66,67,68,66,67,68,66,67,68,66,67,68,66,
2,3,4,2,3,4,2,3,4,2,3,4,2,3,4,2,3,4,2,3,4,2,3,4,2,3,4,2,3,4,2,3,4,2,3,4,2,3,4,2,3,4,2,3,4,2,3,4,2,3,4,2,3,4,2,3,4,2,3,4,2,3,4,2,3,4,2,3,4,2,3,4,2,3,4,2,3,4,2,3,4,2,3,4,2,3,4,2,3,4,2,3,4,2,3,4,2,3,4,2,
34,35,36,34,35,36,34,35,36,34,35,36,34,35,36,34,35,36,34,35,36,34,35,36,34,35,36,34,35,36,34,35,36,34,35,36,34,35,36,34,35,36,34,35,36,34,35,36,34,35,36,34,35,36,34,35,36,34,35,36,34,35,36,34,35,36,34,35,36,34,35,36,34,35,36,34,35,36,34,35,36,34,35,36,34,35,36,34,35,36,34,35,36,34,35,36,34,35,36,34,
66,67,68,66,67,68,66,67,68,66,67,68,66,67,68,66,67,68,66,67,68,66,67,68,66,67,68,66,67,68,66,67,68,66,67,68,66,67,68,66,67,68,66,67,68,66,67,68,66,67,68,66,67,68,66,67,68,66,67,68,66,67,68,66,67,68,66,67,68,66,67,68,66,67,68,66,67,68,66,67,68,66,67,68,66,67,68,66,67,68,66,67,68,66,67,68,66,67,68,66,
2,3,4,2,3,4,2,3,4,2,3,4,2,3,4,2,3,4,2,3,4,2,3,4,2,3,4,2,3,4,2,3,4,2,3,4,2,3,4,2,3,4,2,3,4,2,3,4,2,3,4,2,3,4,2,3,4,2,3,4,2,3,4,2,3,4,2,3,4,2,3,4,2,3,4,2,3,4,2,3,4,2,3,4,2,3,4,2,3,4,2,3,4,2,3,4,2,3,4,2,
34,35,36,34,35,36,34,35,36,34,35,36,34,35,36,34,35,36,34,35,36,34,35,36,34,35,36,34,35,36,34,35,36,34,35,36,34,35,36,34,35,36,34,35,36,34,35,36,34,35,36,34,35,36,34,35,36,34,35,36,34,35,36,34,35,36,34,35,36,34,35,36,34,35,36,34,35,36,34,35,36,34,35,36,34,35,36,34,35,36,34,35,36,34,35,36,34,35,36,34,
66,67,68,66,67,68,66,67,68,66,67,68,66,67,68,66,67,68,66,67,68,66,67,68,66,67,68,66,67,68,66,67,68,66,67,68,66,67,68,66,67,68,66,67,68,66,67,68,66,67,68,66,67,68,66,67,68,66,67,68,66,67,68,66,67,68,66,67,68,66,67,68,66,67,68,66,67,68,66,67,68,66,67,68,66,67,68,66,67,68,66,67,68,66,67,68,66,67,68,66,
2,3,4,2,3,4,2,3,4,2,3,4,2,3,4,2,3,4,2,3,4,2,3,4,2,3,4,2,3,4,2,3,4,2,3,4,2,3,4,2,3,4,2,3,4,2,3,4,2,3,4,2,3,4,2,3,4,2,3,4,2,3,4,2,3,4,2,3,4,2,3,4,2,3,4,2,3,4,2,3,4,2,3,4,2,3,4,2,3,4,2,3,4,2,3,4,2,3,4,2,
34,35,36,34,35,36,34,35,36,34,35,36,34,35,36,34,35,36,34,35,36,34,35,36,34,35,36,34,35,36,34,35,36,34,35,36,34,35,36,34,35,36,34,35,36,34,35,36,34,35,36,34,35,36,34,35,36,34,35,36,34,35,36,34,35,36,34,35,36,34,35,36,34,35,36,34,35,36,34,35,36,34,35,36,34,35,36,34,35,36,34,35,36,34,35,36,34,35,36,34,
66,67,68,66,67,68,66,67,68,66,67,68,66,67,68,66,67,68,66,67,68,66,67,68,66,67,68,66,67,68,66,67,68,66,67,68,66,67,68,66,67,68,66,67,68,66,67,68,66,67,68,66,67,68,66,67,68,66,67,68,66,67,68,66,67,68,66,67,68,66,67,68,66,67,68,66,67,68,66,67,68,66,67,68,66,67,68,66,67,68,66,67,68,66,67,68,66,67,68,66,
2,3,4,2,3,4,2,3,4,2,3,4,2,3,4,2,3,4,2,3,4,2,3,4,2,3,4,2,3,4,2,3,4,2,3,4,2,3,4,2,3,4,2,3,4,2,3,4,2,3,4,2,3,4,2,3,4,2,3,4,2,3,4,2,3,4,2,3,4,2,3,4,2,3,4,2,3,4,2,3,4,2,3,4,2,3,4,2,3,4,2,3,4,2,3,4,2,3,4,2,
34,35,36,34,35,36,34,35,36,34,35,36,34,35,36,34,35,36,34,35,36,34,35,36,34,35,36,34,35,36,34,35,36,34,35,36,34,35,36,34,35,36,34,35,36,34,35,36,34,35,36,34,35,36,34,35,36,34,35,36,34,35,36,34,35,36,34,35,36,34,35,36,34,35,36,34,35,36,34,35,36,34,35,36,34,35,36,34,35,36,34,35,36,34,35,36,34,35,36,34,
66,67,68,66,67,68,66,67,68,66,67,68,66,67,68,66,67,68,66,67,68,66,67,68,66,67,68,66,67,68,66,67,68,66,67,68,66,67,68,66,67,68,66,67,68,66,67,68,66,67,68,66,67,68,66,67,68,66,67,68,66,67,68,66,67,68,66,67,68,66,67,68,66,67,68,66,67,68,66,67,68,66,67,68,66,67,68,66,67,68,66,67,68,66,67,68,66,67,68,66,
2,3,4,2,3,4,2,3,4,2,3,4,2,3,4,2,3,4,2,3,4,2,3,4,2,3,4,2,3,4,2,3,4,2,3,4,2,3,4,2,3,4,2,3,4,2,3,4,2,3,4,2,3,4,2,3,4,2,3,4,2,3,4,2,3,4,2,3,4,2,3,4,2,3,4,2,3,4,2,3,4,2,3,4,2,3,4,2,3,4,2,3,4,2,3,4,2,3,4,2,
34,35,36,34,35,36,34,35,36,34,35,36,34,35,36,34,35,36,34,35,36,34,35,36,34,35,36,34,35,36,34,35,36,34,35,36,34,35,36,34,35,36,34,35,36,34,35,36,34,35,36,34,35,36,34,35,36,34,35,36,34,35,36,34,35,36,34,35,36,34,35,36,34,35,36,34,35,36,34,35,36,34,35,36,34,35,36,34,35,36,34,35,36,34,35,36,34,35,36,34,
66,67,68,66,67,68,66,67,68,66,67,68,66,67,68,66,67,68,66,67,68,66,67,68,66,67,68,66,67,68,66,67,68,66,67,68,66,67,68,66,67,68,66,67,68,66,67,68,66,67,68,66,67,68,66,67,68,66,67,68,66,67,68,66,67,68,66,67,68,66,67,68,66,67,68,66,67,68,66,67,68,66,67,68,66,67,68,66,67,68,66,67,68,66,67,68,66,67,68,66,
2,3,4,2,3,4,2,3,4,2,3,4,2,3,4,2,3,4,2,3,4,2,3,4,2,3,4,2,3,4,2,3,4,2,3,4,2,3,4,2,3,4,2,3,4,2,3,4,2,3,4,2,3,4,2,3,4,2,3,4,2,3,4,2,3,4,2,3,4,2,3,4,2,3,4,2,3,4,2,3,4,2,3,4,2,3,4,2,3,4,2,3,4,2,3,4,2,3,4,2,
34,35,36,34,35,36,34,35,36,34,35,36,34,35,36,34,35,36,34,35,36,34,35,36,34,35,36,34,35,36,34,35,36,34,35,36,34,35,36,34,35,36,34,35,36,34,35,36,34,35,36,34,35,36,34,35,36,34,35,36,34,35,36,34,35,36,34,35,36,34,35,36,34,35,36,34,35,36,34,35,36,34,35,36,34,35,36,34,35,36,34,35,36,34,35,36,34,35,36,34,
66,67,68,66,67,68,66,67,68,66,67,68,66,67,68,66,67,68,66,67,68,66,67,68,66,67,68,66,67,68,66,67,68,66,67,68,66,67,68,66,67,68,66,67,68,66,67,68,66,67,68,66,67,68,66,67,68,66,67,68,66,67,68,66,67,68,66,67,68,66,67,68,66,67,68,66,67,68,66,67,68,66,67,68,66,67,68,66,67,68,66,67,68,66,67,68,66,67,68,66,
2,3,4,2,3,4,2,3,4,2,3,4,2,3,4,2,3,4,2,3,4,2,3,4,2,3,4,2,3,4,2,3,4,2,3,4,2,3,4,2,3,4,2,3,4,2,3,4,2,3,4,2,3,4,2,3,4,2,3,4,2,3,4,2,3,4,2,3,4,2,3,4,2,3,4,2,3,4,2,3,4,2,3,4,2,3,4,2,3,4,2,3,4,2,3,4,2,3,4,2,
34,35,36,34,35,36,34,35,36,34,35,36,34,35,36,34,35,36,34,35,36,34,35,36,34,35,36,34,35,36,34,35,36,34,35,36,34,35,36,34,35,36,34,35,36,34,35,36,34,35,36,34,35,36,34,35,36,34,35,36,34,35,36,34,35,36,34,35,36,34,35,36,34,35,36,34,35,36,34,35,36,34,35,36,34,35,36,34,35,36,34,35,36,34,35,36,34,35,36,34,
66,67,68,66,67,68,66,67,68,66,67,68,66,67,68,66,67,68,66,67,68,66,67,68,66,67,68,66,67,68,66,67,68,66,67,68,66,67,68,66,67,68,66,67,68,66,67,68,66,67,68,66,67,68,66,67,68,66,67,68,66,67,68,66,67,68,66,67,68,66,67,68,66,67,68,66,67,68,66,67,68,66,67,68,66,67,68,66,67,68,66,67,68,66,67,68,66,67,68,66,
2,3,4,2,3,4,2,3,4,2,3,4,2,3,4,2,3,4,2,3,4,2,3,4,2,3,4,2,3,4,2,3,4,2,3,4,2,3,4,2,3,4,2,3,4,2,3,4,2,3,4,2,3,4,2,3,4,2,3,4,2,3,4,2,3,4,2,3,4,2,3,4,2,3,4,2,3,4,2,3,4,2,3,4,2,3,4,2,3,4,2,3,4,2,3,4,2,3,4,2,
34,35,36,34,35,36,34,35,36,34,35,36,34,35,36,34,35,36,34,35,36,34,35,36,34,35,36,34,35,36,34,35,36,34,35,36,34,35,36,34,35,36,34,35,36,34,35,36,34,35,36,34,35,36,34,35,36,34,35,36,34,35,36,34,35,36,34,35,36,34,35,36,34,35,36,34,35,36,34,35,36,34,35,36,34,35,36,34,35,36,34,35,36,34,35,36,34,35,36,34,
66,67,68,66,67,68,66,67,68,66,67,68,66,67,68,66,67,68,66,67,68,66,67,68,66,67,68,66,67,68,66,67,68,66,67,68,66,67,68,66,67,68,66,67,68,66,67,68,66,67,68,66,67,68,66,67,68,66,67,68,66,67,68,66,67,68,66,67,68,66,67,68,66,67,68,66,67,68,66,67,68,66,67,68,66,67,68,66,67,68,66,67,68,66,67,68,66,67,68,66,
2,3,4,2,3,4,2,3,4,2,3,4,2,3,4,2,3,4,2,3,4,2,3,4,2,3,4,2,3,4,2,3,4,2,3,4,2,3,4,2,3,4,2,3,4,2,3,4,2,3,4,2,3,4,2,3,4,2,3,4,2,3,4,2,3,4,2,3,4,2,3,4,2,3,4,2,3,4,2,3,4,2,3,4,2,3,4,2,3,4,2,3,4,2,3,4,2,3,4,2,
34,35,36,34,35,36,34,35,36,34,35,36,34,35,36,34,35,36,34,35,36,34,35,36,34,35,36,34,35,36,34,35,36,34,35,36,34,35,36,34,35,36,34,35,36,34,35,36,34,35,36,34,35,36,34,35,36,34,35,36,34,35,36,34,35,36,34,35,36,34,35,36,34,35,36,34,35,36,34,35,36,34,35,36,34,35,36,34,35,36,34,35,36,34,35,36,34,35,36,34,
66,67,68,66,67,68,66,67,68,66,67,68,66,67,68,66,67,68,66,67,68,66,67,68,66,67,68,66,67,68,66,67,68,66,67,68,66,67,68,66,67,68,66,67,68,66,67,68,66,67,68,66,67,68,66,67,68,66,67,68,66,67,68,66,67,68,66,67,68,66,67,68,66,67,68,66,67,68,66,67,68,66,67,68,66,67,68,66,67,68,66,67,68,66,67,68,66,67,68,66,
2,3,4,2,3,4,2,3,4,2,3,4,2,3,4,2,3,4,2,3,4,2,3,4,2,3,4,2,3,4,2,3,4,2,3,4,2,3,4,2,3,4,2,3,4,2,3,4,2,3,4,2,3,4,2,3,4,2,3,4,2,3,4,2,3,4,2,3,4,2,3,4,2,3,4,2,3,4,2,3,4,2,3,4,2,3,4,2,3,4,2,3,4,2,3,4,2,3,4,2,
34,35,36,34,35,36,34,35,36,34,35,36,34,35,36,34,35,36,34,35,36,34,35,36,34,35,36,34,35,36,34,35,36,34,35,36,34,35,36,34,35,36,34,35,36,34,35,36,34,35,36,34,35,36,34,35,36,34,35,36,34,35,36,34,35,36,34,35,36,34,35,36,34,35,36,34,35,36,34,35,36,34,35,36,34,35,36,34,35,36,34,35,36,34,35,36,34,35,36,34,
66,67,68,66,67,68,66,67,68,66,67,68,66,67,68,66,67,68,66,67,68,66,67,68,66,67,68,66,67,68,66,67,68,66,67,68,66,67,68,66,67,68,66,67,68,66,67,68,66,67,68,66,67,68,66,67,68,66,67,68,66,67,68,66,67,68,66,67,68,66,67,68,66,67,68,66,67,68,66,67,68,66,67,68,66,67,68,66,67,68,66,67,68,66,67,68,66,67,68,66,
2,3,4,2,3,4,2,3,4,2,3,4,2,3,4,2,3,4,2,3,4,2,3,4,2,3,4,2,3,4,2,3,4,2,3,4,2,3,4,2,3,4,2,3,4,2,3,4,2,3,4,2,3,4,2,3,4,2,3,4,2,3,4,2,3,4,2,3,4,2,3,4,2,3,4,2,3,4,2,3,4,2,3,4,2,3,4,2,3,4,2,3,4,2,3,4,2,3,4,2,
34,35,36,34,35,36,34,35,36,34,35,36,34,35,36,34,35,36,34,35,36,34,35,36,34,35,36,34,35,36,34,35,36,34,35,36,34,35,36,34,35,36,34,35,36,34,35,36,34,35,36,34,35,36,34,35,36,34,35,36,34,35,36,34,35,36,34,35,36,34,35,36,34,35,36,34,35,36,34,35,36,34,35,36,34,35,36,34,35,36,34,35,36,34,35,36,34,35,36,34,
66,67,68,66,67,68,66,67,68,66,67,68,66,67,68,66,67,68,66,67,68,66,67,68,66,67,68,66,67,68,66,67,68,66,67,68,66,67,68,66,67,68,66,67,68,66,67,68,66,67,68,66,67,68,66,67,68,66,67,68,66,67,68,66,67,68,66,67,68,66,67,68,66,67,68,66,67,68,66,67,68,66,67,68,66,67,68,66,67,68,66,67,68,66,67,68,66,67,68,66,
2,3,4,2,3,4,2,3,4,2,3,4,2,3,4,2,3,4,2,3,4,2,3,4,2,3,4,2,3,4,2,3,4,2,3,4,2,3,4,2,3,4,2,3,4,2,3,4,2,3,4,2,3,4,2,3,4,2,3,4,2,3,4,2,3,4,2,3,4,2,3,4,2,3,4,2,3,4,2,3,4,2,3,4,2,3,4,2,3,4,2,3,4,2,3,4,2,3,4,2,
34,35,36,34,35,36,34,35,36,34,35,36,34,35,36,34,35,36,34,35,36,34,35,36,34,35,36,34,35,36,34,35,36,34,35,36,34,35,36,34,35,36,34,35,36,34,35,36,34,35,36,34,35,36,34,35,36,34,35,36,34,35,36,34,35,36,34,35,36,34,35,36,34,35,36,34,35,36,34,35,36,34,35,36,34,35,36,34,35,36,34,35,36,34,35,36,34,35,36,34,
66,67,68,66,67,68,66,67,68,66,67,68,66,67,68,66,67,68,66,67,68,66,67,68,66,67,68,66,67,68,66,67,68,66,67,68,66,67,68,66,67,68,66,67,68,66,67,68,66,67,68,66,67,68,66,67,68,66,67,68,66,67,68,66,67,68,66,67,68,66,67,68,66,67,68,66,67,68,66,67,68,66,67,68,66,67,68,66,67,68,66,67,68,66,67,68,66,67,68,66,
2,3,4,2,3,4,2,3,4,2,3,4,2,3,4,2,3,4,2,3,4,2,3,4,2,3,4,2,3,4,2,3,4,2,3,4,2,3,4,2,3,4,2,3,4,2,3,4,2,3,4,2,3,4,2,3,4,2,3,4,2,3,4,2,3,4,2,3,4,2,3,4,2,3,4,2,3,4,2,3,4,2,3,4,2,3,4,2,3,4,2,3,4,2,3,4,2,3,4,2,
34,35,36,34,35,36,34,35,36,34,35,36,34,35,36,34,35,36,34,35,36,34,35,36,34,35,36,34,35,36,34,35,36,34,35,36,34,35,36,34,35,36,34,35,36,34,35,36,34,35,36,34,35,36,34,35,36,34,35,36,34,35,36,34,35,36,34,35,36,34,35,36,34,35,36,34,35,36,34,35,36,34,35,36,34,35,36,34,35,36,34,35,36,34,35,36,34,35,36,34,
66,67,68,66,67,68,66,67,68,66,67,68,66,67,68,66,67,68,66,67,68,66,67,68,66,67,68,66,67,68,66,67,68,66,67,68,66,67,68,66,67,68,66,67,68,66,67,68,66,67,68,66,67,68,66,67,68,66,67,68,66,67,68,66,67,68,66,67,68,66,67,68,66,67,68,66,67,68,66,67,68,66,67,68,66,67,68,66,67,68,66,67,68,66,67,68,66,67,68,66,
2,3,4,2,3,4,2,3,4,2,3,4,2,3,4,2,3,4,2,3,4,2,3,4,2,3,4,2,3,4,2,3,4,2,3,4,2,3,4,2,3,4,2,3,4,2,3,4,2,3,4,2,3,4,2,3,4,2,3,4,2,3,4,2,3,4,2,3,4,2,3,4,2,3,4,2,3,4,2,3,4,2,3,4,2,3,4,2,3,4,2,3,4,2,3,4,2,3,4,2,
34,35,36,34,35,36,34,35,36,34,35,36,34,35,36,34,35,36,34,35,36,34,35,36,34,35,36,34,35,36,34,35,36,34,35,36,34,35,36,34,35,36,34,35,36,34,35,36,34,35,36,34,35,36,34,35,36,34,35,36,34,35,36,34,35,36,34,35,36,34,35,36,34,35,36,34,35,36,34,35,36,34,35,36,34,35,36,34,35,36,34,35,36,34,35,36,34,35,36,34,
66,67,68,66,67,68,66,67,68,66,67,68,66,67,68,66,67,68,66,67,68,66,67,68,66,67,68,66,67,68,66,67,68,66,67,68,66,67,68,66,67,68,66,67,68,66,67,68,66,67,68,66,67,68,66,67,68,66,67,68,66,67,68,66,67,68,66,67,68,66,67,68,66,67,68,66,67,68,66,67,68,66,67,68,66,67,68,66,67,68,66,67,68,66,67,68,66,67,68,66,
2,3,4,2,3,4,2,3,4,2,3,4,2,3,4,2,3,4,2,3,4,2,3,4,2,3,4,2,3,4,2,3,4,2,3,4,2,3,4,2,3,4,2,3,4,2,3,4,2,3,4,2,3,4,2,3,4,2,3,4,2,3,4,2,3,4,2,3,4,2,3,4,2,3,4,2,3,4,2,3,4,2,3,4,2,3,4,2,3,4,2,3,4,2,3,4,2,3,4,2,
34,35,36,34,35,36,34,35,36,34,35,36,34,35,36,34,35,36,34,35,36,34,35,36,34,35,36,34,35,36,34,35,36,34,35,36,34,35,36,34,35,36,34,35,36,34,35,36,34,35,36,34,35,36,34,35,36,34,35,36,34,35,36,34,35,36,34,35,36,34,35,36,34,35,36,34,35,36,34,35,36,34,35,36,34,35,36,34,35,36,34,35,36,34,35,36,34,35,36,34,
66,67,68,66,67,68,66,67,68,66,67,68,66,67,68,66,67,68,66,67,68,66,67,68,66,67,68,66,67,68,66,67,68,66,67,68,66,67,68,66,67,68,66,67,68,66,67,68,66,67,68,66,67,68,66,67,68,66,67,68,66,67,68,66,67,68,66,67,68,66,67,68,66,67,68,66,67,68,66,67,68,66,67,68,66,67,68,66,67,68,66,67,68,66,67,68,66,67,68,66,
2,3,4,2,3,4,2,3,4,2,3,4,2,3,4,2,3,4,2,3,4,2,3,4,2,3,4,2,3,4,2,3,4,2,3,4,2,3,4,2,3,4,2,3,4,2,3,4,2,3,4,2,3,4,2,3,4,2,3,4,2,3,4,2,3,4,2,3,4,2,3,4,2,3,4,2,3,4,2,3,4,2,3,4,2,3,4,2,3,4,2,3,4,2,3,4,2,3,4,2,
34,35,36,34,35,36,34,35,36,34,35,36,34,35,36,34,35,36,34,35,36,34,35,36,34,35,36,34,35,36,34,35,36,34,35,36,34,35,36,34,35,36,34,35,36,34,35,36,34,35,36,34,35,36,34,35,36,34,35,36,34,35,36,34,35,36,34,35,36,34,35,36,34,35,36,34,35,36,34,35,36,34,35,36,34,35,36,34,35,36,34,35,36,34,35,36,34,35,36,34,
66,67,68,66,67,68,66,67,68,66,67,68,66,67,68,66,67,68,66,67,68,66,67,68,66,67,68,66,67,68,66,67,68,66,67,68,66,67,68,66,67,68,66,67,68,66,67,68,66,67,68,66,67,68,66,67,68,66,67,68,66,67,68,66,67,68,66,67,68,66,67,68,66,67,68,66,67,68,66,67,68,66,67,68,66,67,68,66,67,68,66,67,68,66,67,68,66,67,68,66,
2,3,4,2,3,4,2,3,4,2,3,4,2,3,4,2,3,4,2,3,4,2,3,4,2,3,4,2,3,4,2,3,4,2,3,4,2,3,4,2,3,4,2,3,4,2,3,4,2,3,4,2,3,4,2,3,4,2,3,4,2,3,4,2,3,4,2,3,4,2,3,4,2,3,4,2,3,4,2,3,4,2,3,4,2,3,4,2,3,4,2,3,4,2,3,4,2,3,4,2,
34,35,36,34,35,36,34,35,36,34,35,36,34,35,36,34,35,36,34,35,36,34,35,36,34,35,36,34,35,36,34,35,36,34,35,36,34,35,36,34,35,36,34,35,36,34,35,36,34,35,36,34,35,36,34,35,36,34,35,36,34,35,36,34,35,36,34,35,36,34,35,36,34,35,36,34,35,36,34,35,36,34,35,36,34,35,36,34,35,36,34,35,36,34,35,36,34,35,36,34,
66,67,68,66,67,68,66,67,68,66,67,68,66,67,68,66,67,68,66,67,68,66,67,68,66,67,68,66,67,68,66,67,68,66,67,68,66,67,68,66,67,68,66,67,68,66,67,68,66,67,68,66,67,68,66,67,68,66,67,68,66,67,68,66,67,68,66,67,68,66,67,68,66,67,68,66,67,68,66,67,68,66,67,68,66,67,68,66,67,68,66,67,18,19,19,19,19,19,20,66,
2,3,4,2,3,4,2,3,4,2,3,4,2,3,4,2,3,4,2,3,4,2,3,4,2,3,4,2,3,4,2,3,4,2,3,4,2,3,4,2,3,4,2,3,4,2,3,4,2,3,4,2,3,4,2,3,4,2,3,4,2,3,4,2,3,4,2,3,4,2,3,4,2,3,4,2,3,4,2,3,4,2,3,4,2,3,4,2,3,4,2,3,81,421,421,421,421,421,85,2,
34,35,36,34,35,36,34,35,36,34,35,36,34,35,36,34,35,36,34,35,36,34,35,36,34,35,36,34,35,36,34,35,36,34,35,36,34,35,36,34,35,36,34,35,36,34,35,36,34,35,36,34,35,36,34,35,36,34,35,36,34,35,36,34,35,36,34,35,36,34,35,36,34,35,36,34,35,36,34,35,36,34,35,36,34,35,36,34,35,36,34,81,81,421,421,421,421,421,85,34,
66,67,68,66,67,68,66,67,68,66,67,68,66,67,68,66,67,68,66,67,68,66,67,68,66,67,68,66,67,68,66,67,68,66,67,68,66,67,68,66,67,68,66,67,68,66,67,68,66,67,68,66,67,68,66,67,68,66,67,68,66,67,68,66,67,68,66,67,68,66,67,68,66,67,68,66,67,68,66,67,68,66,67,68,66,67,68,66,67,68,66,81,81,421,421,421,421,421,85,421,
2,3,4,2,3,4,2,3,4,2,3,4,2,3,4,2,3,4,2,3,4,2,3,4,2,3,4,2,3,4,2,3,4,2,3,4,2,3,4,2,3,4,2,3,4,2,3,4,2,3,4,2,3,4,2,3,4,2,3,4,2,3,4,2,3,4,2,3,4,2,3,4,2,3,4,2,3,4,2,3,4,2,3,4,2,3,4,2,3,4,2,81,81,421,421,421,421,421,85,2,
34,35,36,34,35,36,34,35,36,34,35,36,34,35,36,34,35,17,18,19,20,21,35,36,34,35,36,34,35,36,34,35,36,34,35,36,34,35,36,34,35,36,34,35,36,34,35,36,34,35,36,34,35,36,34,35,36,34,35,36,34,35,36,34,35,36,34,35,36,34,35,36,34,35,36,34,35,36,34,35,36,34,35,36,34,35,36,34,35,36,34,35,81,421,421,421,421,421,85,34,
66,67,68,66,67,68,66,67,68,66,67,68,66,67,68,66,67,49,50,51,52,53,67,68,66,67,68,66,67,68,66,67,68,66,67,68,66,67,68,66,67,68,66,67,68,66,67,68,66,67,68,66,67,68,66,67,68,66,67,68,66,67,68,66,67,68,66,67,68,66,67,68,66,67,68,66,67,68,66,67,68,66,67,68,66,67,68,66,67,68,66,67,113,147,147,147,147,147,117,66,
2,3,4,2,3,4,2,3,4,2,3,4,2,3,4,2,3,81,82,83,84,85,3,4,2,3,4,2,3,4,2,3,4,2,3,4,2,3,4,2,3,4,2,3,4,2,3,4,2,3,4,2,3,4,2,3,4,2,3,4,2,3,4,2,3,4,2,3,4,2,3,4,2,3,4,2,3,4,2,3,4,2,3,4,2,3,4,2,3,4,2,3,4,2,3,4,2,3,4,2,
34,35,36,34,35,36,34,35,36,34,35,36,34,35,36,34,35,113,114,115,116,117,35,36,34,35,36,34,35,36,34,35,36,34,35,36,34,35,36,34,35,36,34,35,36,34,35,36,34,35,36,34,35,36,34,35,36,34,35,36,34,35,36,34,35,36,34,35,36,34,35,36,34,35,36,34,35,36,34,35,36,34,35,36,34,35,36,34,35,36,34,35,36,34,72,72,34,35,36,34,
66,67,68,66,67,68,66,67,68,66,67,68,66,67,68,66,67,145,146,147,148,149,67,68,66,67,68,66,67,68,66,67,68,66,67,68,66,67,68,66,67,68,66,67,68,66,67,68,66,67,68,66,67,68,66,67,68,66,67,68,66,67,68,66,67,68,66,67,68,66,67,68,66,67,68,66,67,68,66,67,68,66,67,68,66,67,68,66,67,68,66,67,68,72,72,72,72,67,68,66,
2,3,4,2,3,4,2,3,4,2,3,4,2,3,4,2,3,4,2,3,4,2,3,4,2,3,4,2,3,4,2,3,4,2,3,4,2,3,4,2,3,4,2,3,4,2,3,4,2,3,4,2,3,4,2,3,4,2,3,4,2,3,4,2,3,4,2,3,4,2,3,4,2,3,4,2,3,4,2,3,4,2,3,4,2,3,4,2,3,4,2,3,4,2,72,72,72,3,4,2,
34,35,36,34,35,36,34,35,36,34,35,36,34,35,36,34,35,36,34,35,36,34,35,36,34,35,36,34,35,36,34,35,36,34,35,36,34,35,36,34,35,36,34,35,36,34,35,36,34,35,36,34,35,36,34,35,36,34,35,36,34,35,36,34,35,36,34,35,36,34,35,36,34,35,36,34,35,36,34,35,36,34,35,36,34,35,36,34,35,36,34,35,36,34,35,36,34,35,36,34,
66,67,68,66,67,68,66,67,68,66,67,68,66,67,68,66,67,68,66,67,68,66,67,68,66,67,68,66,67,68,66,67,68,66,67,68,66,67,68,66,67,68,66,67,68,66,67,68,66,67,68,66,67,68,66,67,68,66,67,68,66,67,68,66,67,68,66,67,68,66,67,68,66,67,68,66,67,68,66,67,68,66,67,68,66,67,68,66,67,68,66,67,68,66,67,68,66,67,68,66,
2,3,4,2,3,4,2,3,4,2,3,4,2,3,4,2,3,4,2,3,4,2,3,4,2,3,4,2,3,4,2,3,4,2,3,4,2,3,4,2,3,4,2,3,4,2,3,4,2,3,4,2,3,4,2,3,4,2,3,4,2,3,4,2,3,4,2,3,4,2,3,4,2,3,4,2,3,4,2,3,4,2,3,4,2,3,4,2,3,4,2,3,4,2,3,4,2,3,4,2,
34,35,36,34,35,36,34,35,36,34,35,36,34,35,36,34,35,36,34,35,36,34,35,36,34,35,36,34,35,36,34,35,36,34,35,36,34,35,36,34,35,36,34,35,36,34,35,36,34,35,36,34,35,36,34,35,36,34,35,36,34,35,36,34,35,36,34,35,36,34,35,36,34,35,36,34,35,36,34,35,36,34,35,36,34,35,36,34,35,36,34,35,36,34,35,36,34,35,36,34,
66,67,68,66,67,68,66,67,68,66,67,68,66,67,68,66,67,68,66,67,68,66,67,68,66,67,68,66,67,68,66,67,68,66,67,68,66,67,68,66,67,68,66,67,68,66,67,68,66,67,68,66,67,68,66,67,68,66,67,68,66,67,68,66,67,68,66,67,68,66,67,68,66,67,68,66,67,68,66,67,68,66,67,68,66,67,68,66,67,68,66,67,68,66,67,68,66,67,68,66,
2,3,4,2,3,4,2,3,4,2,3,4,2,3,4,2,3,4,2,3,4,2,3,4,2,3,4,2,3,4,2,3,4,2,3,4,2,3,4,2,3,4,2,3,4,2,3,4,2,3,4,2,3,4,2,3,4,2,3,4,2,3,4,2,3,4,2,3,4,2,3,4,2,3,4,2,3,4,2,3,4,2,3,4,2,3,4,2,3,4,2,3,4,2,3,4,2,3,4,2,
34,35,36,34,35,36,34,35,36,34,35,36,34,35,36,34,35,36,34,35,36,34,35,36,34,35,36,34,35,36,34,35,36,34,35,36,34,35,36,34,35,36,34,35,36,34,35,36,34,35,36,34,35,36,34,35,36,34,35,36,34,35,36,34,35,36,34,35,36,34,35,36,34,35,36,34,35,36,34,35,36,34,35,36,34,35,36,34,35,36,34,35,36,34,35,36,34,35,36,34,
66,67,68,66,67,68,66,67,68,66,67,68,66,67,68,66,67,68,66,67,68,66,67,68,66,67,68,66,67,68,66,67,68,66,67,68,66,67,68,66,67,68,66,67,68,66,67,68,66,67,68,66,67,68,66,67,68,66,67,68,66,67,68,66,67,68,66,67,68,66,67,68,66,67,68,66,67,68,66,67,68,66,67,68,66,67,68,66,67,68,66,67,68,66,67,68,66,67,68,66,
2,3,4,2,3,4,2,3,4,2,3,4,2,3,4,2,3,4,2,3,4,2,3,4,2,3,4,2,3,4,2,3,4,2,3,4,2,3,4,2,3,4,2,3,4,2,3,4,2,3,4,2,3,4,2,3,4,2,3,4,2,3,4,2,3,4,2,3,4,2,3,4,2,3,4,2,3,4,2,3,4,2,3,4,2,3,4,2,3,4,2,3,4,2,3,4,2,3,4,2,
34,35,36,34,35,36,34,35,36,34,35,36,34,35,36,34,35,36,34,35,36,34,35,36,34,35,36,34,35,36,34,35,36,34,35,36,34,35,36,34,35,36,34,35,36,34,35,36,34,35,36,34,35,36,34,35,36,34,35,36,34,35,36,34,35,36,34,35,36,34,35,36,34,35,36,34,35,36,34,35,36,34,35,36,34,35,36,34,35,36,34,35,36,34,35,36,34,35,36,34,
66,67,68,66,67,68,66,67,68,66,67,68,66,67,68,66,67,68,66,67,68,66,67,68,66,67,68,66,67,68,66,67,68,66,67,68,66,67,68,66,67,68,66,67,68,66,67,68,66,67,68,66,67,68,66,67,68,66,67,68,66,67,68,66,67,68,66,67,68,66,67,68,66,67,68,66,67,68,66,67,68,66,67,68,66,67,68,66,67,68,66,67,68,66,67,68,66,67,68,66,
2,3,4,2,3,4,2,3,4,2,3,4,2,3,4,2,3,4,2,3,4,2,3,4,2,3,4,2,3,4,2,3,4,2,3,4,2,3,4,2,3,4,2,3,4,2,3,4,2,3,4,2,3,4,2,3,4,2,3,4,2,3,4,2,3,4,2,3,4,2,3,4,2,3,4,2,3,4,2,3,4,2,3,4,2,3,4,2,3,4,2,3,4,2,3,4,2,3,4,2,
34,35,36,34,35,36,34,35,36,34,35,36,34,35,36,34,35,36,34,35,36,34,35,36,34,35,36,34,35,36,34,35,36,34,35,36,34,35,36,34,35,36,34,35,36,34,35,36,34,35,36,34,35,36,34,35,36,34,35,36,34,35,36,34,35,36,34,35,36,34,35,36,34,35,36,34,35,36,34,35,36,34,35,36,34,35,36,34,35,36,34,35,36,34,35,36,34,35,36,34,
66,67,68,66,67,68,66,67,68,66,67,68,66,67,68,66,67,68,66,67,68,66,67,68,66,67,68,66,67,68,66,67,68,66,67,68,66,67,68,66,67,68,66,67,68,66,67,68,66,67,68,66,67,68,66,67,68,66,67,68,66,67,68,66,67,68,66,67,68,66,67,68,66,67,68,66,67,68,66,67,68,66,67,68,66,67,68,66,67,68,66,67,68,66,67,68,66,67,68,66,
2,3,4,2,3,4,2,3,4,2,3,4,2,3,4,2,3,4,2,3,4,2,3,4,2,3,4,2,3,4,2,3,4,2,3,4,2,3,4,2,3,4,2,3,4,2,3,4,2,3,4,2,3,4,2,3,4,2,3,4,2,3,4,2,3,4,2,3,4,2,3,4,2,3,4,2,3,4,2,3,4,2,3,4,2,3,4,2,3,4,2,3,4,2,3,4,2,3,4,2,
34,35,36,34,35,36,34,35,36,34,35,36,34,35,36,34,35,36,34,35,36,34,35,36,34,35,36,34,35,36,34,35,36,34,35,36,34,35,36,34,35,36,34,35,36,34,35,36,34,35,36,34,35,36,34,35,36,34,35,36,34,35,36,34,35,36,34,35,36,34,35,36,34,35,36,34,35,36,34,35,36,34,35,36,34,35,36,34,35,36,34,35,36,34,35,36,34,35,36,34,
66,67,68,66,67,68,66,67,68,66,67,68,66,67,68,66,67,68,66,67,68,66,67,68,66,67,68,66,67,68,66,67,68,66,67,68,66,67,68,66,67,68,66,67,68,66,67,68,66,67,68,66,67,68,66,67,68,66,67,68,66,67,68,66,67,68,66,67,68,66,67,68,66,67,68,66,67,68,66,67,68,66,67,68,66,67,68,66,67,68,66,67,68,66,67,68,66,67,68,66,
2,3,4,2,3,4,2,3,4,2,3,4,2,3,4,2,3,4,2,3,4,2,3,4,2,3,4,2,3,4,2,3,4,2,3,4,2,3,4,2,3,4,2,3,4,2,3,4,2,3,4,2,3,4,2,3,4,2,3,4,2,3,4,2,3,4,2,3,4,2,3,4,2,3,4,2,3,4,2,3,4,2,3,4,2,3,4,2,3,4,2,3,4,2,3,4,2,3,4,2,
34,35,36,34,35,36,34,35,36,34,35,36,34,35,36,34,35,36,34,35,36,34,35,36,34,35,36,34,35,36,34,35,36,34,35,36,34,35,36,34,35,36,34,35,36,34,35,36,34,35,36,34,35,36,34,35,36,34,35,36,34,35,36,34,35,36,34,35,36,34,35,36,34,35,36,34,35,36,34,35,36,34,35,36,34,35,36,34,35,36,34,35,36,34,35,36,34,35,36,34,
66,67,68,66,67,68,66,67,68,66,67,68,66,67,68,66,67,68,66,67,68,66,67,68,66,67,68,66,67,68,66,67,68,66,67,68,66,67,68,66,67,68,66,67,68,66,67,68,66,67,68,66,67,68,66,67,68,66,67,68,66,67,68,66,67,68,66,67,68,66,67,68,66,67,68,66,67,68,66,67,68,66,67,68,66,67,68,66,67,68,66,67,68,66,67,68,66,67,68,66,
2,3,4,2,3,4,2,3,4,2,3,4,2,3,4,2,3,4,2,3,4,2,3,4,2,3,4,2,3,4,2,3,4,2,3,4,2,3,4,2,3,4,2,3,4,2,3,4,2,3,4,2,3,4,2,3,4,2,3,4,2,3,4,2,3,4,2,3,4,2,3,4,2,3,4,2,3,4,2,3,4,2,3,4,2,3,4,2,3,4,2,3,4,2,3,4,2,3,4,2,
34,35,36,34,35,36,34,35,36,34,35,36,34,35,36,34,35,36,34,35,36,34,35,36,34,35,36,34,35,36,34,35,36,34,35,36,34,35,36,34,35,36,34,35,36,34,35,36,34,35,36,34,35,36,34,35,36,34,35,36,34,35,36,34,35,36,34,35,36,34,35,36,34,35,36,34,35,36,34,35,36,34,35,36,34,35,36,34,35,36,34,35,36,34,35,36,34,35,36,34,
66,67,68,66,67,68,66,67,68,66,67,68,66,67,68,66,67,68,66,67,68,66,67,68,66,67,68,66,67,68,66,67,68,66,67,68,66,67,68,66,67,68,66,67,68,66,67,68,66,67,68,66,67,68,66,67,68,66,67,68,66,67,68,66,67,68,66,67,68,66,67,68,66,67,68,66,67,68,66,67,68,66,67,68,66,67,68,66,67,68,66,67,68,66,67,68,66,67,68,66,
2,3,4,2,3,4,2,3,4,2,3,4,2,3,4,2,3,4,2,3,4,2,3,4,2,3,4,2,3,4,2,3,4,2,3,4,2,3,4,2,3,4,2,3,4,2,3,4,2,3,4,2,3,4,2,3,4,2,3,4,2,3,4,2,3,4,2,3,4,2,3,4,2,3,4,2,3,4,2,3,4,2,3,4,2,3,4,2,3,4,2,3,4,2,3,4,2,3,4,2
</data>
 </layer>
 <layer id="4" name="objet" width="100" height="100">
  <data encoding="csv">
0,0,0,0,0,0,0,0,0,0,0,0,0,0,0,0,0,0,0,0,0,0,0,0,0,0,0,0,0,0,0,0,0,0,0,0,0,0,0,0,0,0,0,0,0,0,0,0,0,0,0,0,0,0,0,0,0,0,0,0,0,0,0,0,0,0,0,0,0,0,0,0,0,0,0,0,0,0,0,0,0,0,0,0,0,0,0,0,0,0,0,0,0,0,0,0,0,0,0,0,
0,551,551,551,551,551,0,0,0,0,0,715,1139,1081,1111,1112,0,0,1549,1550,1551,1552,0,0,1549,1550,1551,1552,0,0,0,0,0,0,0,0,0,0,0,0,0,0,0,0,0,0,0,0,0,0,0,0,0,0,0,0,0,0,0,0,0,0,0,0,0,0,0,0,0,0,0,0,0,0,0,0,0,0,0,0,0,0,0,0,0,0,0,0,0,0,0,0,0,0,0,0,0,0,0,0,
0,0,0,0,0,0,0,0,0,0,0,0,1139,1140,1141,1142,0,0,1560,1561,1562,1563,0,0,1560,1561,1562,1563,0,0,0,1549,1550,1551,1552,0,0,0,0,0,0,1549,1550,1551,1552,0,0,0,0,0,0,0,0,0,0,1549,1550,1551,1552,0,0,0,0,0,0,0,0,0,0,0,0,0,0,1549,1550,1551,1552,0,0,0,0,0,0,0,0,0,0,0,0,0,0,0,0,0,0,0,0,0,0,0,
0,0,0,0,0,0,0,0,0,0,715,0,1139,0,0,0,0,0,1571,1572,1573,1574,0,0,1571,1572,1573,1574,0,0,0,1560,1561,1562,1563,0,0,0,0,0,0,1560,1561,1562,1563,0,0,0,0,0,0,0,0,0,0,1560,1561,1562,1563,0,0,0,0,0,0,0,0,0,0,0,0,0,0,1560,1561,1562,1563,0,0,0,0,0,0,0,0,0,1549,1550,1551,1552,0,0,0,0,0,0,0,0,0,0,
0,0,0,653,654,0,0,0,0,0,0,0,1139,0,0,0,1265,0,1582,1583,1584,1585,0,0,1582,1583,1584,1585,0,0,0,1571,1572,1573,1574,0,0,0,0,0,0,1571,1572,1573,1574,0,0,0,1549,1550,1551,1552,0,0,0,1571,1572,1573,1574,0,0,0,0,0,1549,1550,1551,1552,0,0,0,0,0,1571,1572,1573,1574,0,1549,1550,1551,1552,0,0,0,0,1560,1561,1562,1563,0,0,0,0,0,0,0,0,0,0,
0,0,0,685,686,0,0,0,0,0,0,715,1169,0,0,0,0,0,0,0,0,0,0,0,0,0,0,0,0,0,0,1582,1583,1584,1585,0,0,0,0,0,0,1582,1583,1584,1585,0,0,0,1560,1561,1562,1563,0,0,0,1582,1583,1584,1585,0,0,0,0,0,1560,1561,1562,1563,1549,1550,1551,1552,0,1582,1583,1584,1585,0,1560,1561,1562,1563,0,0,0,0,1571,1572,1573,1574,0,0,0,0,0,0,0,0,0,0,
0,0,0,0,0,0,0,0,0,0,0,0,1326,0,0,0,1326,0,0,0,0,1549,1550,1551,1552,0,0,0,1549,1550,1551,1593,1594,1595,1596,1549,1550,1551,1552,0,0,0,0,0,0,0,0,0,1571,1572,1573,1574,0,0,0,0,0,0,0,0,0,0,0,0,1571,1572,1573,1574,1560,1561,1562,1563,0,1593,1594,1595,1596,0,1571,1572,1573,1574,0,0,0,0,1582,1583,1584,1585,0,0,0,0,0,0,0,0,0,0,
0,1075,1076,1077,0,0,0,0,0,0,0,0,0,0,0,0,0,0,0,0,0,1560,1561,1562,1563,0,0,0,1560,1561,1562,1563,0,0,0,1560,1561,1562,1563,0,0,0,0,0,0,0,0,0,1582,1583,1584,1585,0,0,0,0,0,0,0,0,0,0,0,0,1582,1583,1584,1585,1571,1572,1573,1574,0,0,0,0,0,0,1582,1583,1584,1585,0,0,0,0,1593,1594,1595,1596,0,0,0,0,0,0,0,0,0,0,
0,1105,1106,1107,0,0,0,0,0,0,0,0,0,0,0,0,0,0,0,0,0,1571,1572,1573,1574,0,0,0,1571,1572,1573,1574,0,0,0,1571,1572,1573,1574,0,0,0,1549,1550,1551,1552,0,0,0,0,0,0,0,0,0,0,0,0,0,0,0,0,0,0,1593,1594,1595,1596,1582,1583,1584,1585,0,0,0,0,0,0,0,0,0,0,0,0,0,0,0,0,0,0,0,0,0,0,0,0,0,0,0,0,
0,1135,1136,1137,0,0,0,0,0,0,0,0,0,0,0,0,0,0,0,0,0,1582,1583,1584,1585,0,0,0,1582,1583,1584,1585,0,0,0,1582,1583,1584,1585,0,0,0,1560,1561,1562,1563,0,0,0,0,0,0,0,0,0,0,0,0,0,0,0,0,0,0,0,0,0,0,0,0,0,0,0,0,0,0,0,0,0,0,0,0,0,0,0,0,0,0,0,0,0,0,0,1075,1076,1077,0,0,0,0,
0,0,0,0,0,0,0,0,0,0,0,0,0,0,0,0,0,0,0,0,0,1593,1594,1595,1596,0,0,0,0,0,0,0,0,0,0,0,0,0,0,0,0,0,1571,1572,1573,1574,0,0,0,0,0,0,0,0,0,0,0,0,0,0,0,0,0,0,0,1549,1550,1551,1552,0,0,0,0,0,0,0,0,0,0,17,18,19,20,21,0,0,0,0,0,0,0,0,0,1105,1106,1107,0,0,0,0,
0,0,0,0,0,0,0,0,0,0,0,0,0,0,0,0,0,0,1549,1550,1551,1552,0,0,0,0,0,0,0,0,0,0,0,0,0,0,0,1549,1550,1551,1552,0,1582,1583,1584,1585,0,0,0,0,0,1549,1550,1551,1552,337,338,339,340,0,0,0,0,0,0,1560,1561,1562,1563,0,0,0,0,1549,1550,1551,1552,0,0,49,50,51,52,53,0,1549,1550,1551,1552,0,0,0,0,1135,1136,1137,0,0,0,0,
0,0,0,0,0,0,0,1549,1550,1551,1552,0,0,0,0,0,0,0,1560,1561,1562,1563,0,0,0,0,0,0,0,0,0,0,0,0,0,0,0,1560,1561,1562,1563,0,1593,1594,1595,1596,0,0,0,0,0,1560,1561,1562,1563,369,370,371,372,0,0,0,0,0,0,1571,1572,1573,1574,0,0,0,0,1560,1561,1562,1563,0,0,81,82,83,84,85,0,1560,1561,1562,1563,0,0,0,0,0,0,0,0,0,0,0,
0,0,0,0,0,0,0,1560,1561,1562,1563,0,0,0,0,0,0,0,1571,1572,1573,1574,0,0,1549,1550,1551,1552,0,1549,1550,1551,1552,0,0,0,0,1571,1572,1573,1574,0,1549,1550,1551,1552,0,0,0,0,0,1571,1572,1573,1574,401,402,403,404,0,0,1549,1550,1551,1552,1582,1583,1584,1585,0,0,0,0,1571,1572,1573,1574,0,0,113,114,115,116,117,0,1571,1572,1573,1574,0,0,0,0,0,0,0,0,0,0,0,
0,0,0,0,0,0,0,1571,1572,1573,1574,0,0,0,0,0,0,0,1582,1583,1584,1585,0,0,1560,1561,1562,1563,0,1560,1561,1562,1563,0,0,0,0,1582,1583,1584,1585,0,1560,1561,1562,1563,0,0,0,0,0,1582,1583,1584,1585,0,0,0,0,0,0,1560,1561,1562,1563,0,0,0,0,0,0,0,0,1582,1583,1584,1585,0,0,145,146,147,148,149,0,1582,1583,1584,1585,0,0,0,0,0,0,0,0,0,0,0,
0,0,1549,1550,1551,1552,0,1582,1583,1584,1585,0,0,0,0,0,0,0,0,0,0,0,0,0,1571,1572,1573,1574,0,1571,1572,1573,1574,0,0,0,0,1593,1594,1595,1596,0,1571,1572,1573,1574,0,0,0,0,0,0,0,0,0,0,0,0,0,0,0,1571,1572,1573,1574,0,0,0,0,0,0,0,0,1593,1594,1595,1596,0,0,0,0,0,0,0,0,1593,1594,1595,1596,0,0,0,0,0,0,0,0,0,0,0,
0,0,1560,1561,1562,1563,0,1593,1594,1595,1596,1550,1551,1552,0,0,0,0,0,0,0,0,0,0,1582,1583,1584,1585,0,1582,1583,1584,1585,0,0,0,0,0,0,0,0,0,1582,1583,1584,1585,0,0,0,0,0,0,0,0,0,0,0,0,0,0,0,1582,1583,1584,1585,0,0,0,0,0,0,0,0,0,0,0,0,0,0,0,1549,1550,1551,1552,0,0,0,0,0,0,0,0,0,0,0,0,0,0,0,0,
0,0,1571,1572,1573,1574,0,0,0,0,1560,1561,1562,1563,0,0,0,0,0,0,0,0,0,0,1593,1594,1595,1596,0,0,0,0,0,0,0,0,0,0,0,0,0,0,0,0,0,0,0,0,0,0,0,0,0,0,0,0,0,0,0,0,0,0,1549,1550,1551,1552,0,0,0,1549,1550,1551,1552,0,0,0,0,0,0,0,1560,1561,1562,1563,0,0,0,0,0,0,0,0,1549,1550,1551,1552,0,0,0,0,
0,0,1582,1583,1584,1585,0,0,0,0,1571,1572,1573,1574,0,0,0,0,0,0,0,0,0,0,0,0,0,0,0,0,0,0,0,0,0,0,0,0,0,1549,1550,1551,1552,0,0,0,0,0,0,0,0,0,1549,1550,1551,1552,0,0,0,0,0,0,1560,1561,1562,1563,0,0,0,1560,1561,1562,1563,0,0,0,0,0,0,0,1571,1572,1573,1574,0,0,0,0,0,0,0,0,1560,1561,1562,1563,0,0,0,0,
0,0,1593,1594,1595,1596,0,0,0,0,1582,1583,1584,1585,0,0,0,0,0,0,0,0,0,0,0,0,0,0,0,0,0,0,0,0,0,0,0,0,0,1560,1561,1562,1563,0,0,0,0,0,0,0,0,0,1560,1561,1562,1563,0,0,0,0,0,0,1571,1572,1573,1574,0,0,0,1571,1572,1573,1574,0,0,0,0,0,0,0,1582,1583,1584,1585,0,1549,1550,1551,1552,0,0,0,1571,1572,1573,1574,0,0,0,0,
0,0,0,0,0,0,0,0,0,0,0,0,0,0,0,0,0,0,0,0,0,0,0,1549,1550,1551,1552,0,0,0,0,0,0,0,0,0,0,0,0,1571,1572,1573,1574,0,1549,1550,1551,1552,0,0,0,0,1571,1572,1573,1574,0,0,0,0,0,0,1582,1583,1584,1585,0,0,0,1582,1583,1584,1585,0,0,0,0,0,0,0,0,0,0,0,0,1560,1561,1562,1563,0,0,0,1582,1583,1584,1585,0,0,0,0,
0,0,0,0,0,0,0,0,0,0,0,0,0,0,0,0,0,0,0,0,0,0,0,1560,1561,1562,1563,0,0,0,0,0,0,1549,1550,1551,1552,0,0,1582,1583,1584,1585,0,1560,1561,1562,1563,0,0,0,0,1582,1583,1584,1585,1549,1550,1551,1552,0,0,1593,1594,1595,1596,0,0,0,0,0,0,0,1549,1550,1551,1552,0,0,0,0,0,0,0,0,1571,1572,1573,1574,0,0,0,1593,1594,1595,1596,0,0,0,0,
0,0,0,0,0,337,338,339,340,0,0,0,0,0,0,0,0,0,1549,1550,1551,1552,0,1571,1572,1573,1574,0,0,0,0,0,0,1560,1561,1562,1563,0,0,1593,1594,1595,1596,0,1571,1572,1573,1574,0,0,0,0,1593,1594,1595,1596,1560,1561,1562,1563,0,0,1549,1550,1551,1552,1549,1550,1551,1552,0,0,0,1560,1561,1562,1563,0,0,0,0,0,0,0,0,1582,1583,1584,1585,0,0,0,0,0,0,0,0,0,0,0,
0,0,0,0,0,369,370,371,372,0,0,0,0,0,0,0,0,0,1560,1561,1562,1563,0,1582,1583,1584,1585,1549,1550,1551,1552,0,0,1571,1572,1573,1574,0,0,0,0,0,0,0,1582,1583,1584,1585,0,0,0,0,0,0,0,0,1571,1572,1573,1574,0,0,1560,1561,1562,1563,1560,1561,1562,1563,0,0,0,1571,1572,1573,1574,0,0,0,0,0,0,0,0,0,0,0,0,0,0,0,0,0,0,0,0,0,0,0,
0,0,0,0,0,401,402,403,404,0,0,0,0,0,0,0,0,0,1571,1572,1573,1574,0,1593,1594,1595,1596,1560,1561,1562,1563,0,0,1582,1583,1584,1585,0,0,0,0,0,0,0,1593,1594,1595,1596,0,0,0,0,0,0,0,0,1582,1583,1584,1585,0,0,1571,1572,1573,1574,1571,1572,1573,1574,0,0,0,1582,1583,1584,1585,0,0,0,0,0,0,0,0,0,0,0,0,0,0,0,0,0,0,0,0,0,0,0,
0,0,0,0,0,0,0,0,0,0,0,0,0,0,0,0,0,0,1582,1583,1584,1585,0,0,0,0,0,1571,1572,1573,1574,0,0,1593,1594,1595,1596,0,0,0,1549,1550,1551,1552,0,0,0,0,0,0,0,0,0,0,0,0,0,0,0,0,0,0,1582,1583,1584,1585,1582,1583,1584,1585,0,0,0,1593,1594,1595,1596,0,0,0,0,0,0,0,0,0,0,0,0,0,1549,1550,1551,1552,0,0,0,0,0,0,
0,0,0,0,0,0,0,0,0,0,0,0,0,0,0,0,0,0,0,0,0,0,0,0,0,0,0,1582,1583,1584,1585,0,0,0,0,0,0,0,0,0,1560,1561,1562,1563,0,0,0,0,0,1549,1550,1551,1552,0,0,0,0,0,0,0,0,0,1593,1594,1595,1596,1593,1594,1595,1596,0,1549,1550,1551,1552,0,0,0,0,0,0,0,0,0,0,0,0,0,0,0,1560,1561,1562,1563,0,0,0,0,0,0,
0,0,0,0,0,0,0,1549,1550,1551,1552,0,0,0,0,0,0,0,0,0,0,0,0,0,0,0,0,0,0,0,0,0,0,0,0,1549,1550,1551,1552,0,1571,1572,1573,1574,0,0,0,0,0,1560,1561,1562,1563,0,0,0,0,0,0,0,0,0,0,0,0,0,0,0,0,0,0,1560,1561,1562,1563,0,0,0,0,0,0,0,0,0,0,0,0,0,0,0,1571,1572,1573,1574,0,0,0,0,0,0,
0,0,0,0,0,0,0,1560,1561,1562,1563,0,0,1549,1550,1551,1552,0,0,0,0,0,0,0,0,0,0,0,0,0,0,0,0,0,0,1560,1561,1562,1563,0,1582,1583,1584,1585,0,0,0,0,0,1571,1572,1573,1574,0,0,0,0,0,0,0,0,1549,1550,1551,1552,0,0,0,0,0,0,1571,1572,1573,1574,0,0,0,0,0,0,0,0,0,0,0,0,0,0,0,1582,1583,1584,1585,0,0,0,0,0,0,
0,0,0,0,0,0,0,1571,1572,1573,1574,0,0,1560,1561,1562,1563,0,0,0,0,0,0,0,0,0,0,160,0,0,0,0,0,0,0,1571,1572,1573,1574,0,0,0,0,0,0,0,0,0,0,1582,1583,1584,1585,0,0,0,0,0,0,0,0,1560,1561,1562,1563,0,0,0,0,0,0,1582,1583,1584,1585,0,0,0,0,0,0,0,0,0,0,0,0,0,0,0,0,0,0,0,0,0,0,0,0,0,
0,0,0,0,0,0,0,1582,1583,1584,1585,0,0,1571,1572,1573,1574,0,0,0,0,0,0,0,0,0,0,0,0,0,0,0,0,0,0,1582,1583,1584,1585,0,0,0,0,0,0,0,0,0,0,0,0,0,0,0,0,0,0,0,0,0,0,1571,1572,1573,1574,0,0,0,0,0,0,0,0,0,0,0,0,0,0,0,0,0,0,0,0,0,0,0,0,0,0,0,0,0,0,0,0,0,0,0,
0,0,0,0,0,0,0,0,0,0,0,0,0,1582,1583,1584,1585,0,0,0,0,0,0,0,0,0,0,0,0,0,0,599,0,0,0,1593,1594,1595,1596,0,0,0,0,0,0,0,0,0,0,0,0,0,0,0,337,338,339,340,0,0,0,1582,1583,1584,1585,0,0,0,0,0,0,0,0,0,0,0,0,0,0,0,0,0,0,0,0,0,0,0,0,0,0,0,0,0,1549,1550,1551,1552,0,0,
0,0,0,0,0,0,0,0,0,0,0,0,0,0,0,0,0,0,1549,1550,1551,1552,0,0,0,0,0,0,0,0,0,631,0,0,0,0,0,0,0,0,0,0,1549,1550,1551,1552,0,0,0,0,0,0,0,0,369,370,371,372,0,0,0,0,0,0,0,0,0,0,0,0,0,0,0,0,0,0,0,0,0,0,0,0,0,0,0,0,0,0,0,0,0,0,0,0,1560,1561,1562,1563,0,0,
0,0,0,0,0,0,160,0,0,0,0,0,0,0,0,0,0,0,1560,1561,1562,1563,0,0,0,0,0,0,0,0,0,0,0,0,0,0,0,0,0,0,0,0,1560,1561,1562,1563,0,0,0,0,0,0,0,0,401,402,403,404,0,0,0,0,0,0,0,0,0,0,0,0,0,0,0,0,0,0,0,0,0,0,0,0,0,0,0,0,0,0,1549,1550,1551,1552,0,0,1571,1572,1573,1574,0,0,
0,0,0,0,0,0,0,0,0,0,0,0,0,0,0,0,0,0,1571,1572,1573,1574,0,0,0,0,0,1549,1550,1551,1552,0,0,0,0,1549,1550,1551,1552,0,0,0,1571,1572,1573,1574,0,0,0,0,0,0,0,0,0,0,0,0,0,0,0,0,0,0,0,0,0,0,0,0,0,0,0,0,0,0,0,0,0,0,0,0,0,0,0,0,0,0,1560,1561,1562,1563,0,0,1582,1583,1584,1585,0,0,
0,0,0,0,0,0,0,0,0,0,0,0,0,1549,1550,1551,1552,0,1582,1583,1584,1585,0,0,0,0,0,1560,1561,1562,1563,0,0,0,0,1560,1561,1562,1563,0,0,1582,1582,1583,1584,1585,0,0,0,0,0,0,1549,1550,1551,1552,0,0,0,0,0,0,0,0,0,0,0,0,0,0,0,0,0,0,0,0,0,0,0,0,0,0,0,0,0,0,0,0,1571,1572,1573,1574,0,0,1593,1594,1595,1596,0,0,
0,0,0,0,0,0,0,0,0,0,0,0,0,1560,1561,1562,1563,0,1582,1583,1584,1585,0,0,0,0,0,1571,1572,1573,1574,0,0,0,0,1571,1572,1573,1574,0,0,0,0,0,0,0,0,0,0,0,0,0,1560,1561,1562,1563,0,0,0,0,0,0,0,0,0,0,0,0,0,0,0,0,0,0,0,0,0,0,0,0,0,0,0,0,0,0,0,0,1582,1583,1584,1585,0,0,0,0,0,0,0,0,
0,0,0,0,0,0,0,0,1549,1550,1551,1552,0,1571,1572,1573,1574,0,0,0,0,0,0,0,0,0,0,1582,1583,1584,1585,0,0,0,0,1582,1583,1584,1585,0,0,0,0,0,0,0,0,0,0,0,0,0,1571,1572,1573,1574,0,0,0,0,0,0,0,0,0,0,0,0,0,0,0,0,0,0,0,0,0,0,0,0,0,1549,1550,1551,1552,0,0,0,0,0,0,0,0,0,0,0,0,0,0,0,
0,0,0,0,0,0,0,0,1560,1561,1562,1563,0,1582,1583,1584,1585,0,0,0,0,1549,1550,1551,1552,0,0,0,0,0,0,0,0,0,0,1593,1594,1595,1596,1549,1550,1551,1552,0,0,0,0,0,1549,1550,1551,1552,1582,1583,1584,1585,0,0,0,0,0,0,0,1549,1550,1551,1552,0,0,0,0,0,0,0,0,0,0,0,0,0,0,1560,1561,1562,1563,0,0,0,0,0,0,0,0,0,160,0,0,0,0,0,
0,0,0,0,0,0,0,0,1571,1572,1573,1574,0,1593,1594,1595,1596,0,0,0,0,1560,1561,1562,1563,0,0,0,0,0,0,0,0,0,1549,1550,1551,1552,0,1560,1561,1562,1563,0,0,0,0,0,1560,1561,1562,1563,1593,1594,1595,1596,1549,1550,1551,1552,0,0,0,1560,1561,1562,1563,0,0,0,1549,1550,1551,1552,0,0,0,0,0,0,0,1571,1572,1573,1574,0,0,0,0,0,0,0,0,0,0,0,0,0,0,0,
0,0,0,0,0,0,0,0,1582,1583,1584,1585,0,0,0,0,0,0,0,0,0,1571,1572,1573,1574,0,0,0,0,0,0,0,0,0,1560,1561,1562,1563,0,1571,1572,1573,1574,0,0,0,0,0,1571,1572,1573,1574,0,0,0,0,1560,1561,1562,1563,0,0,0,1571,1572,1573,1574,0,0,0,1560,1561,1562,1563,0,0,0,0,0,0,0,1582,1583,1584,1585,0,0,0,0,0,0,0,0,0,0,0,0,0,0,0,
0,0,0,0,0,0,0,0,0,0,0,0,0,0,0,1549,1550,1551,1552,0,0,1582,1583,1584,1585,0,0,0,0,0,0,0,0,0,1571,1572,1573,1574,0,1582,1583,1584,1585,0,0,0,0,0,1582,1583,1584,1585,0,0,0,0,1571,1572,1573,1574,0,0,0,1582,1583,1584,1585,0,0,0,1571,1572,1573,1574,0,0,0,0,0,0,0,0,0,0,0,0,0,0,0,0,0,0,0,0,0,0,0,0,0,0,
0,0,0,1549,1550,1551,1552,0,0,0,0,0,0,0,0,1560,1561,1562,1563,0,0,1593,1594,1595,1596,0,0,0,0,0,0,0,0,0,1582,1583,1584,1585,0,1593,1594,1595,1596,0,0,0,0,0,1593,1594,1595,1596,0,0,0,0,1582,1583,1584,1585,0,0,0,0,0,0,0,0,0,0,1582,1583,1584,1585,0,0,0,0,0,0,0,0,0,0,0,0,0,0,0,0,0,0,0,0,0,0,0,0,0,0,
0,0,0,1560,1561,1562,1563,0,0,0,0,0,0,0,0,1571,1572,1573,1574,1549,1550,1551,1552,0,0,0,0,0,0,0,0,0,0,0,1593,1594,1595,1596,0,0,0,0,0,0,0,0,0,0,0,0,0,0,0,0,0,0,1593,1594,1595,1596,0,0,0,0,0,0,0,0,0,0,1593,1594,1595,1596,0,0,0,0,0,0,0,17,18,19,20,21,0,0,0,0,0,0,0,0,0,0,0,0,0,0,
0,0,0,1571,1572,1573,1574,0,0,0,0,0,0,0,0,1582,1583,1584,1585,1560,1561,1562,1563,0,0,0,0,0,0,0,0,0,0,0,0,0,0,0,0,0,0,0,0,0,0,0,0,0,0,0,0,0,0,0,0,0,0,0,0,0,0,0,0,0,0,0,0,0,0,0,0,0,1549,0,0,1552,0,0,0,0,0,49,50,51,52,53,0,0,0,0,0,0,0,0,0,0,0,0,0,0,
0,0,0,1582,1583,1584,1585,0,0,0,0,0,0,0,0,1593,1594,1595,1596,1571,1572,1573,1574,0,0,0,0,0,0,0,0,0,0,0,0,0,0,0,0,0,0,0,0,0,0,0,0,0,0,0,0,0,0,0,0,0,0,0,0,0,0,0,0,0,0,0,0,0,0,0,0,0,1549,1550,1551,1552,0,0,0,0,0,81,82,83,84,85,0,0,1549,1550,1551,1552,0,0,0,0,0,0,0,0,
0,0,0,0,0,0,0,0,0,0,1549,1550,1551,1552,0,0,0,0,0,1582,1583,1584,1585,0,0,0,0,0,0,0,0,0,0,0,0,0,0,0,0,0,0,0,0,0,0,0,0,0,0,0,0,0,0,0,0,0,0,0,1549,1550,1551,1552,0,0,0,0,0,0,0,0,0,0,1560,1561,1562,1563,0,0,0,0,0,113,114,115,116,117,0,0,1560,1561,1562,1563,0,0,0,0,0,0,0,0,
0,0,0,0,0,0,0,0,0,0,1560,1561,1562,1563,0,0,0,0,0,0,0,0,0,0,0,0,0,0,0,0,0,0,0,0,0,0,0,0,0,0,0,0,0,0,0,0,0,0,0,0,0,0,0,0,0,0,0,0,1560,1561,1562,1563,0,0,0,0,0,0,0,0,0,0,1571,1572,1573,1574,0,0,0,0,0,145,146,147,148,149,0,0,1571,1572,1573,1574,0,0,0,0,0,0,0,0,
0,0,0,0,1549,1550,1551,1552,0,0,1571,1572,1573,1574,0,0,0,0,0,0,0,0,0,0,0,0,0,0,0,0,0,0,0,0,0,0,0,0,0,0,0,0,0,0,0,0,0,0,0,0,0,0,0,0,0,0,0,0,1571,1572,1573,1574,0,0,0,0,160,0,0,0,0,0,1582,1583,1584,1585,0,0,0,0,0,0,0,0,0,0,0,0,1582,1583,1584,1585,0,0,0,0,0,0,0,0,
0,0,0,0,1560,1561,1562,1563,0,0,1582,1583,1584,1585,0,0,0,0,0,0,0,0,0,0,0,0,0,0,0,0,0,0,0,0,0,0,0,0,0,0,0,0,0,0,0,0,0,0,0,0,0,0,0,0,0,0,0,0,1582,1583,1584,1585,0,0,0,0,0,0,0,0,0,0,0,0,0,0,0,0,0,0,0,0,0,0,0,0,0,0,0,0,0,0,0,0,0,0,0,0,0,0,
0,0,0,0,1571,1572,1573,1574,0,0,0,0,0,0,0,0,0,0,0,0,0,0,0,0,0,0,0,0,0,0,0,0,0,0,0,0,0,0,0,0,0,0,0,0,0,0,0,0,0,0,0,0,0,0,0,0,0,0,1593,1594,1595,1596,0,0,0,0,0,0,0,599,0,0,0,0,0,0,0,0,0,0,0,0,0,0,0,0,0,0,0,0,0,0,0,0,0,0,0,0,0,0,
0,0,0,0,1582,1583,1584,1585,0,0,0,0,0,0,0,0,0,0,0,0,0,0,0,0,0,0,0,0,0,0,0,0,0,0,0,0,0,0,0,0,0,0,0,0,0,0,0,0,0,0,0,0,0,0,0,0,0,0,0,0,0,0,0,0,0,0,0,0,0,631,0,0,0,0,0,0,0,0,0,0,0,0,0,0,0,0,0,0,0,0,0,0,0,0,0,0,0,0,0,0,
0,0,0,0,0,0,0,0,0,0,0,0,1549,1550,1551,1552,0,0,1549,1550,1551,1552,0,0,160,0,0,0,0,0,0,1075,1076,1077,0,0,0,0,0,0,0,0,0,0,0,0,0,0,0,0,0,0,0,0,0,0,0,0,0,0,0,0,0,0,0,0,0,0,0,0,0,0,0,0,0,0,0,0,0,0,0,0,0,0,0,0,0,0,0,0,0,0,0,0,0,0,0,0,0,0,
0,0,0,0,0,0,0,0,0,599,0,0,1560,1561,1562,1563,0,0,1560,1561,1562,1563,0,0,0,0,0,0,0,0,0,1105,1106,1107,0,0,0,0,0,0,0,0,0,0,0,0,0,0,0,0,0,0,0,0,0,0,0,0,0,0,0,0,0,0,0,0,0,0,0,0,0,0,0,0,0,0,0,0,0,0,0,0,0,0,0,0,0,0,0,0,0,0,0,0,0,0,0,0,0,0,
0,0,0,0,0,0,0,0,0,631,0,0,1571,1572,1573,1574,0,0,1571,1572,1573,1574,0,0,0,0,0,0,0,0,0,1135,1136,1137,0,0,0,0,0,0,0,0,0,0,0,0,0,0,0,0,0,0,0,0,0,0,0,0,0,0,0,0,0,0,0,0,0,0,0,0,0,0,0,1549,1550,1551,1552,0,0,0,0,0,0,0,0,0,0,0,0,0,1549,1550,1551,1552,0,0,0,0,0,0,
0,0,0,0,0,0,0,0,0,0,0,0,1582,1583,1584,1585,0,0,1582,1583,1584,1585,0,0,0,0,0,0,0,0,0,0,0,0,0,0,0,0,0,0,0,0,0,0,0,0,0,0,0,0,0,0,0,0,0,0,0,0,0,0,0,0,0,0,0,0,0,0,0,0,0,0,0,1560,1561,1562,1563,0,0,0,0,0,0,0,0,0,0,0,0,0,1560,1561,1562,1563,0,0,0,0,0,0,
0,0,0,0,1549,1550,1551,1552,0,0,0,0,0,0,0,0,0,0,1593,1594,1595,1596,0,0,0,0,0,0,0,0,0,0,0,0,0,0,0,0,0,0,0,0,0,0,0,0,0,0,0,0,0,0,0,0,0,0,0,0,0,0,0,0,0,0,0,1549,1550,1551,1552,0,0,0,0,1571,1572,1573,1574,0,0,0,0,0,0,0,0,0,0,0,0,0,1571,1572,1573,1574,0,0,0,0,0,0,
0,0,0,0,1560,1561,1562,1563,0,0,0,0,0,0,0,0,0,0,0,0,0,0,0,0,0,1549,1550,1551,1552,0,0,0,0,0,0,0,0,0,0,0,0,0,0,0,0,0,0,0,0,0,0,0,0,0,0,0,0,0,0,0,0,0,0,0,0,1560,1561,1562,1563,0,0,0,0,1582,1583,1584,1585,0,0,0,0,0,0,0,0,0,0,0,0,0,1582,1583,1584,1585,0,0,0,0,0,0,
0,0,0,0,1571,1572,1573,1574,0,0,0,0,0,1549,1550,1551,1552,0,0,0,0,0,160,0,0,1560,1561,1562,1563,0,0,0,0,0,0,0,0,0,0,0,0,0,0,0,0,0,0,0,0,0,0,0,0,0,0,0,0,0,0,0,0,0,0,0,0,1571,1572,1573,1574,0,0,0,0,0,0,0,0,0,0,0,0,0,0,0,0,0,0,0,0,0,0,0,0,0,0,0,0,0,0,0,
0,0,0,0,1582,1583,1584,1585,1549,1550,1551,1552,0,1560,1561,1562,1563,0,0,0,0,0,0,0,0,1571,1572,1573,1574,0,0,0,0,0,0,0,0,0,0,0,0,0,0,0,0,0,0,0,0,0,0,0,0,0,0,0,0,0,1549,1550,1551,1552,0,0,0,1582,1583,1584,1585,0,0,0,0,0,0,0,0,0,0,0,0,0,0,160,0,0,0,0,0,0,0,0,0,0,0,0,0,0,0,0,
0,0,0,0,0,0,0,0,1560,1561,1562,1563,0,1571,1572,1573,1574,0,0,0,0,0,0,0,0,1582,1583,1584,1585,0,0,0,0,0,0,0,0,0,0,0,0,0,0,0,0,0,0,0,0,0,0,0,0,0,0,0,0,0,1560,1561,1562,1563,0,0,0,1593,1594,1595,1596,0,0,0,1549,1550,1551,1552,0,0,0,0,0,0,0,0,0,0,1549,1550,1551,1552,0,0,0,0,0,0,0,0,0,0,
0,0,0,0,0,0,0,0,1571,1572,1573,1574,0,1582,1583,1584,1585,0,0,0,0,0,0,0,0,1593,1594,1595,1596,0,0,0,0,0,0,0,0,0,0,0,0,0,0,0,0,0,0,0,0,0,0,0,0,0,0,0,0,0,1571,1572,1573,1574,0,0,0,0,0,0,0,0,0,0,1560,1561,1562,1563,0,0,0,0,0,0,0,0,0,0,1560,1561,1562,1563,0,0,0,0,0,0,0,0,0,0,
0,0,0,0,0,0,0,0,1582,1583,1584,1585,0,0,0,0,0,0,0,0,0,0,0,0,0,0,0,0,0,0,0,0,0,0,0,0,0,0,0,0,0,0,0,0,0,0,0,0,0,0,0,0,0,1075,1076,1077,0,0,1582,1583,1584,1585,0,0,0,0,0,0,0,0,0,0,1571,1572,1573,1574,0,0,0,0,0,0,0,0,0,0,1571,1572,1573,1574,0,0,0,0,0,0,0,0,0,0,
0,0,0,0,0,0,0,0,1593,1594,1595,1596,0,0,0,0,0,0,0,0,0,0,0,0,0,0,0,0,0,0,0,0,0,0,0,0,0,0,0,0,0,0,0,0,0,0,0,0,0,0,0,0,0,1105,1106,1107,0,0,1593,1594,1595,1596,0,0,0,0,0,0,0,0,0,0,1582,1583,1584,1585,0,0,0,0,0,0,0,0,0,0,1582,1583,1584,1585,0,0,0,0,0,0,0,0,0,0,
0,0,0,0,0,0,0,0,0,0,0,0,0,1549,1550,1551,1552,0,0,0,0,0,0,0,0,0,0,0,0,0,0,0,0,0,0,0,0,0,0,0,0,0,0,0,0,0,0,0,0,0,0,0,0,1135,1136,1137,0,0,0,0,0,0,0,0,0,0,0,0,0,0,0,0,1593,1594,1595,1596,1549,1550,1551,1552,1549,1550,1551,1552,0,0,0,0,0,0,0,2684355055,493,493,493,493,493,493,493,0,
0,0,0,0,0,0,0,0,0,0,0,0,0,1560,1561,1562,1563,0,0,337,338,339,340,0,0,0,0,0,0,0,0,0,0,0,0,0,0,0,0,0,0,0,0,0,0,0,0,0,0,0,0,0,0,0,0,0,0,0,0,0,0,0,0,0,0,0,0,0,0,0,0,0,0,0,0,0,1560,1561,1562,1563,1560,1561,1562,1563,0,0,0,0,0,0,0,1610613229,0,0,0,0,0,0,0,0,
0,0,0,0,0,0,0,1549,1550,1551,1552,0,0,1571,1572,1573,1574,0,0,369,370,371,372,0,0,0,0,0,0,0,0,0,0,0,0,0,0,0,0,0,0,0,0,0,0,0,0,0,0,0,0,0,0,0,0,0,0,1549,1550,1551,1552,0,0,0,0,0,0,0,0,0,0,0,0,0,0,0,1571,1572,1573,1574,1571,1572,1573,1574,0,0,0,0,0,0,0,1610613229,0,0,0,0,0,0,0,0,
0,0,0,0,0,0,0,1560,1561,1562,1563,0,0,1582,1583,1584,1585,0,0,401,402,403,404,0,0,0,0,0,0,0,0,0,0,0,0,0,0,0,0,0,0,0,0,0,0,0,0,0,0,0,0,0,0,0,0,0,0,1560,1561,1562,1563,0,0,0,0,0,0,0,0,0,0,0,0,0,0,0,1582,1583,1584,1585,1582,1583,1584,1585,0,0,0,0,0,0,0,1610613229,0,0,0,0,0,0,0,0,
0,0,1549,1550,1551,1552,0,1571,1572,1573,1574,0,0,0,0,0,0,0,0,0,0,0,0,0,0,0,0,0,0,0,0,0,0,0,0,0,0,0,0,0,0,0,0,0,0,0,0,0,0,0,0,0,0,0,0,0,0,1571,1572,1573,1574,0,0,0,0,0,0,1549,1550,1551,1552,1549,1550,1551,1552,0,0,0,0,0,1593,1594,1595,1596,0,0,0,0,0,0,0,1610613229,0,0,0,0,0,0,0,0,
0,0,1560,1561,1562,1563,0,1582,1583,1584,1585,0,0,0,0,0,0,0,0,0,0,0,0,0,0,0,0,0,0,0,0,0,0,0,0,0,0,0,0,0,0,0,0,0,0,0,0,0,0,0,0,0,0,0,0,0,0,1582,1583,1584,1585,0,0,0,0,0,0,1560,1561,1562,1563,1560,1561,1562,1563,0,0,0,0,0,0,0,0,0,0,0,0,0,0,0,0,1610613229,0,0,0,0,0,0,0,0,
0,0,1571,1572,1573,1574,0,1593,1594,1595,1596,0,0,0,0,0,0,0,0,0,0,0,0,0,0,0,0,0,0,0,0,0,0,0,0,0,0,0,0,0,0,0,0,0,0,0,0,1549,1550,1551,1552,0,0,0,0,0,0,1593,1594,1595,1596,0,0,0,0,0,0,1571,1572,1573,1574,1571,1572,1573,1574,0,0,0,0,0,0,0,0,0,0,0,0,0,0,0,0,1610613229,0,0,0,0,0,0,0,0,
0,0,1582,1583,1584,1585,0,0,0,0,0,0,0,0,0,0,0,0,0,0,0,0,0,0,0,0,0,0,0,0,0,0,0,0,0,0,0,0,0,0,0,0,0,0,0,0,0,1560,1561,1562,1563,0,0,0,0,0,0,0,0,0,0,0,0,0,0,0,0,1582,1583,1584,1585,1582,1583,1584,1585,0,0,0,0,0,0,0,0,0,0,0,0,1549,1550,1551,1552,1610613229,0,0,669,670,0,0,0,0,
0,0,0,0,0,0,0,0,0,0,0,0,0,0,0,0,0,0,0,0,0,0,0,0,0,0,0,0,0,0,0,0,0,0,0,0,0,0,0,0,0,0,0,0,0,0,0,1571,1572,1573,1574,0,0,0,0,0,0,0,0,0,0,0,0,0,0,0,0,1593,1594,1595,1596,1593,1594,1595,1596,0,0,0,0,0,0,0,0,0,0,0,0,1560,1561,1562,1563,2684355056,493,493,701,702,493,493,493,0,
0,0,0,0,0,0,0,0,0,0,0,0,1549,1550,1551,1552,0,0,0,0,0,0,0,0,0,0,0,0,0,0,0,0,0,0,0,0,0,0,0,0,0,0,0,0,0,0,0,1582,1583,1584,1585,0,0,0,0,0,0,0,0,0,0,0,0,0,0,0,0,0,0,0,0,0,0,1549,1550,1551,1552,0,0,0,0,0,0,0,0,0,0,1571,1572,1573,1574,0,0,0,0,0,0,0,0,0,
0,0,0,0,0,0,0,0,0,0,0,0,1560,1561,1562,1563,0,0,0,0,0,0,0,0,0,0,0,0,0,0,0,0,0,0,0,0,0,0,0,0,0,0,0,0,0,0,0,1593,1594,1595,1596,0,0,0,0,337,338,339,340,0,0,0,0,0,0,0,0,0,0,0,0,0,0,1560,1561,1562,1563,0,0,0,0,0,0,0,0,0,0,1582,1583,1584,1585,0,0,0,0,0,0,0,0,0,
0,0,0,0,0,0,0,0,0,0,0,0,1571,1572,1573,1574,0,0,0,0,0,0,0,0,0,0,0,0,0,0,0,0,0,0,0,0,0,0,0,0,0,0,0,0,0,0,0,0,0,0,0,0,0,0,0,369,370,371,372,0,0,0,0,0,0,0,0,0,0,0,0,0,0,1571,1572,1573,1574,0,0,0,0,0,0,0,0,0,0,0,0,0,0,0,0,0,0,0,0,0,0,0,
0,0,0,0,0,0,0,0,599,0,0,0,1582,1583,1584,1585,0,0,0,0,0,0,0,0,0,0,0,0,0,0,0,0,0,0,0,0,0,0,0,0,0,0,0,0,0,0,0,0,0,0,1549,1550,1551,1552,0,401,402,403,404,0,0,0,0,0,0,0,160,0,0,0,0,0,0,1582,1583,1584,1585,0,0,0,0,0,0,0,0,0,0,0,0,0,0,0,0,0,0,0,0,0,0,0,
0,0,0,1549,1550,1551,1552,0,631,0,0,0,0,0,0,0,0,0,0,0,0,0,0,0,0,0,0,0,0,0,0,0,0,0,0,0,0,0,0,0,0,0,0,0,0,0,0,0,0,0,1560,1561,1562,1563,0,0,0,0,0,0,0,0,0,0,0,0,0,0,0,0,0,0,0,0,0,0,0,0,0,0,0,0,0,0,0,0,0,0,0,0,0,0,0,0,0,0,0,0,0,0,
0,0,0,1560,1561,1562,1563,0,0,0,0,0,0,0,0,0,0,0,0,0,0,0,0,0,0,0,0,0,0,0,0,0,0,0,0,0,0,0,0,0,0,0,0,0,0,0,0,0,0,0,1571,1572,1573,1574,0,0,0,0,0,0,0,0,0,0,0,0,0,0,0,0,0,0,0,0,0,0,0,0,0,0,0,0,0,0,0,0,0,0,0,0,0,0,0,0,0,0,0,0,0,0,
0,0,0,1571,1572,1573,1574,0,0,0,0,0,0,0,0,0,0,0,0,0,0,0,0,0,0,0,0,0,0,0,0,0,0,0,0,0,0,0,1549,1550,1551,1552,0,0,0,0,0,0,0,0,1582,1583,1584,1585,0,0,0,0,0,0,0,0,0,0,0,0,0,0,0,0,0,0,0,0,0,0,0,0,0,0,0,0,0,0,0,0,0,0,0,0,0,0,0,0,0,0,0,0,0,0,
0,0,0,1582,1583,1584,1585,0,0,0,0,0,0,0,0,0,0,0,0,0,0,0,0,0,0,0,0,0,0,0,0,0,0,0,0,0,0,0,1560,1561,1562,1563,0,0,0,0,0,0,0,0,1593,1594,1595,1596,0,0,0,0,0,0,0,0,0,0,0,1549,1550,1551,1552,0,0,0,0,0,0,0,0,0,0,1549,1550,1551,1552,0,0,0,0,0,0,0,0,0,0,0,0,0,0,0,0,0,
0,0,0,0,0,0,0,0,0,0,1549,1550,1551,1552,0,1549,1550,1551,1552,0,0,0,0,0,0,0,0,0,0,0,0,1549,1550,1551,1552,0,0,0,1571,1572,1573,1574,0,0,0,0,0,0,0,0,0,0,0,1549,1550,1551,1552,0,0,0,0,0,0,0,0,1560,1561,1562,1563,0,0,0,0,0,0,0,0,0,0,1560,1561,1562,1563,0,0,0,0,0,0,0,0,0,0,0,0,0,0,0,0,0,
0,0,0,0,0,0,0,0,0,0,1560,1561,1562,1563,0,1560,1561,1562,1563,0,0,0,0,0,0,0,0,0,0,0,0,1560,1561,1562,1563,0,0,0,1582,1583,1584,1585,0,0,0,0,0,0,0,0,0,0,0,1560,1561,1562,1563,0,0,0,0,0,0,0,0,1571,1572,1573,1574,0,0,0,0,0,0,0,0,0,0,1571,1572,1573,1574,0,0,0,0,1549,1550,1551,1552,0,0,0,0,0,0,0,0,0,
0,0,0,0,0,0,0,0,0,0,1571,1572,1573,1574,0,1571,1572,1573,1574,0,0,0,0,0,0,0,0,0,0,0,0,1571,1572,1573,1574,0,160,0,1593,1594,1595,1596,0,0,0,0,0,0,0,0,0,0,0,1571,1572,1573,1574,0,0,0,1549,1550,1551,1552,0,1582,1583,1584,1585,0,0,0,0,0,0,0,0,0,0,1582,1583,1584,1585,0,0,0,0,1560,1561,1562,1563,0,0,0,0,0,0,0,0,0,
0,0,0,0,0,0,0,0,0,0,1582,1583,1584,1585,0,1582,1583,1584,1585,0,0,0,0,0,0,0,0,0,0,0,0,1582,1583,1584,1585,0,0,0,0,0,0,0,0,0,0,0,0,0,1549,1550,1551,1552,0,1582,1583,1584,1585,0,0,0,1560,1561,1562,1563,0,0,0,0,0,0,0,0,0,0,0,0,0,0,0,0,0,0,0,0,0,0,0,1571,1572,1573,1574,0,0,0,0,0,0,0,0,0,
0,0,0,0,0,0,0,0,0,0,0,0,0,0,0,1593,1594,1595,1596,0,0,0,0,0,0,0,0,0,0,0,0,1593,1594,1595,1596,0,0,0,0,0,0,0,0,0,0,0,0,0,1560,1561,1562,1563,0,1593,1594,1595,1596,0,0,0,1571,1572,1573,1574,0,0,0,0,0,0,0,0,0,0,0,0,0,0,0,0,0,0,0,0,0,0,0,1582,1583,1584,1585,0,337,338,339,340,0,0,0,0,
0,0,0,1549,1550,1551,1552,0,0,0,0,0,0,0,0,0,0,0,0,0,0,0,0,0,0,0,0,0,1549,1550,1551,1552,0,0,0,0,0,1549,1550,1551,1552,0,0,0,0,0,0,0,1571,1572,1573,1574,0,0,0,0,0,0,0,0,1582,1583,1584,1585,0,0,0,0,0,0,0,0,0,0,0,0,0,0,0,0,0,0,0,0,0,0,0,0,0,0,0,0,369,370,371,372,0,0,0,0,
0,0,0,1560,1561,1562,1563,0,0,0,0,0,0,0,0,0,1549,1550,1551,1552,0,0,0,0,0,0,0,0,1560,1561,1562,1563,0,0,0,0,0,1560,1561,1562,1563,0,0,0,0,0,0,0,1582,1583,1584,1585,0,0,0,0,0,0,0,0,0,0,0,0,0,0,0,0,0,0,0,0,0,0,0,0,0,0,0,0,0,0,0,0,0,0,0,0,0,0,0,0,401,402,403,404,0,0,0,0,
0,0,0,1571,1572,1573,1574,0,0,0,0,0,0,0,0,0,1560,1561,1562,1563,0,0,0,0,0,0,0,0,1571,1572,1573,1574,0,0,0,0,0,1571,1572,1573,1574,0,0,0,0,0,0,0,0,0,0,0,0,0,0,0,0,0,0,0,0,0,0,0,0,0,0,0,1549,1550,1551,1552,0,0,0,1549,1550,1551,1552,0,0,0,0,0,0,0,0,0,0,0,0,0,0,0,0,0,0,0,0,0,
0,0,0,1582,1583,1584,1585,0,0,0,0,0,0,0,0,0,1571,1572,1573,1574,0,0,0,0,0,0,0,0,1582,1583,1584,1585,0,0,0,0,0,1582,1583,1584,1585,0,0,0,0,0,0,0,0,0,0,0,0,0,0,0,0,0,0,0,0,0,0,0,0,0,0,0,1560,1561,1562,1563,0,0,0,1560,1561,1562,1563,0,0,0,0,0,0,0,0,0,0,0,0,0,0,0,0,0,0,0,0,0,
0,0,0,0,0,0,0,0,0,0,0,0,0,0,0,0,1582,1583,1584,1585,0,0,0,1549,1550,1551,1552,0,0,0,0,0,0,0,0,0,0,0,0,0,0,0,0,0,0,0,0,0,0,0,0,0,0,0,0,0,0,0,0,0,0,0,0,0,0,0,0,0,1571,1572,1573,1574,0,0,0,1571,1572,1573,1574,0,0,0,0,0,0,0,0,0,1549,1550,1551,1552,0,0,0,0,0,0,0,0,
0,0,0,0,0,0,0,0,0,0,0,0,0,0,0,0,0,0,0,0,0,0,0,1560,1561,1562,1563,0,0,0,0,0,0,0,0,0,0,0,0,0,0,0,0,0,0,0,0,0,0,0,0,0,1549,1550,1551,1552,0,0,0,0,0,0,0,0,0,0,0,0,1582,1583,1584,1585,0,0,0,1582,1583,1584,1585,0,0,0,0,0,0,0,0,0,1560,1561,1562,1563,0,0,0,0,0,0,0,0,
0,0,0,0,0,0,0,0,0,0,0,0,0,0,0,0,0,0,0,0,0,0,0,1571,1572,1573,1574,0,0,0,0,0,0,0,0,0,0,1549,1550,1551,1552,0,0,0,0,1549,1550,1551,1552,0,0,0,1560,1561,1562,1563,0,0,0,1549,1550,1551,1552,0,0,0,0,0,0,0,0,0,0,0,0,0,0,0,0,0,0,0,0,0,0,0,0,0,1571,1572,1573,1574,0,0,0,0,0,0,0,0,
0,0,0,0,0,0,1549,1550,1551,1552,0,0,0,1549,1550,1551,1552,0,0,0,0,0,0,1582,1583,1584,1585,0,0,0,0,0,0,0,0,0,0,1560,1561,1562,1563,0,0,0,0,1560,1561,1562,1563,0,0,0,1571,1572,1573,1574,0,0,0,1560,1561,1562,1563,0,0,0,0,0,0,0,0,0,0,0,0,0,0,0,0,0,0,0,0,0,0,0,0,0,1582,1583,1584,1585,0,0,0,0,0,0,0,0,
0,0,0,0,0,0,1560,1561,1562,1563,0,0,0,1560,1561,1562,1563,0,0,1549,1550,1551,1552,0,0,0,0,0,0,0,1549,1550,1551,1552,0,0,0,1571,1572,1573,1574,0,0,0,0,1571,1572,1573,1574,0,0,0,1582,1583,1584,1585,0,0,0,1571,1572,1573,1574,0,0,0,0,0,0,0,0,0,0,0,0,0,0,0,0,0,0,0,0,0,0,0,0,0,0,0,0,0,0,0,0,0,0,0,0,0,
0,0,0,0,0,0,1571,1572,1573,1574,0,0,0,1571,1572,1573,1574,0,0,1560,1561,1562,1563,0,0,0,0,0,0,0,1560,1561,1562,1563,0,0,0,1582,1583,1584,1585,0,0,0,0,1582,1583,1584,1585,0,0,0,0,0,0,0,0,0,0,1582,1583,1584,1585,0,0,0,0,0,1549,1550,1551,1552,0,0,0,0,0,0,0,0,0,0,0,0,0,0,0,0,0,0,0,0,0,0,0,0,0,0,0,0,
0,0,0,0,0,0,1582,1583,1584,1585,0,0,0,1582,1583,1584,1585,0,0,1571,1572,1573,1574,0,0,0,0,0,0,0,1571,1572,1573,1574,0,0,0,0,0,0,0,0,0,0,0,0,0,0,0,0,0,0,0,0,0,0,0,0,0,0,0,0,0,0,0,0,0,0,1560,1561,1562,1563,0,0,0,0,0,0,0,0,0,0,0,0,0,0,0,0,0,0,0,0,0,0,0,0,0,0,0,0,
0,0,0,0,0,0,0,0,0,0,0,0,0,0,0,0,0,0,0,1582,1583,1584,1585,0,0,0,0,0,0,0,1582,1583,1584,1585,0,0,0,0,0,0,0,0,0,0,0,0,0,0,0,0,0,0,0,0,0,0,0,0,0,0,0,0,0,0,0,0,0,0,1571,1572,1573,1574,0,0,0,0,0,0,0,0,0,0,0,0,0,0,0,0,0,0,0,0,0,0,0,0,0,0,0,0,
0,0,0,0,0,0,0,0,0,0,0,0,0,0,0,0,0,0,0,0,0,0,0,0,0,0,0,0,0,0,0,0,0,0,0,0,0,0,0,0,0,0,0,0,0,0,0,0,0,0,0,0,0,0,0,0,0,0,0,0,0,0,0,0,0,0,0,0,1582,1583,1584,1585,0,0,0,0,0,0,0,0,0,0,0,0,0,0,0,0,0,0,0,0,0,0,0,0,0,0,0,0,
0,0,0,0,0,0,0,0,0,0,0,0,0,0,0,0,0,0,0,0,0,0,0,0,0,0,0,0,0,0,0,0,0,0,0,0,0,0,0,0,0,0,0,0,0,0,0,0,0,0,0,0,0,0,0,0,0,0,0,0,0,0,0,0,0,0,0,0,0,0,0,0,0,0,0,0,0,0,0,0,0,0,0,0,0,0,0,0,0,0,0,0,0,0,0,0,0,0,0,0
</data>
 </layer>
 <layer id="5" name="eau" width="100" height="100">
  <data encoding="csv">
0,0,0,0,0,0,0,0,0,0,0,0,0,0,0,0,0,0,0,0,0,0,0,0,0,0,0,0,0,0,0,0,0,0,0,0,0,0,0,0,0,0,0,0,0,0,0,0,0,0,0,0,0,0,0,0,0,0,0,0,0,0,0,0,0,0,0,0,0,0,0,0,0,0,0,0,0,0,0,0,0,0,0,0,0,0,0,0,0,0,0,0,0,0,0,0,0,0,0,0,
0,0,0,0,0,0,0,0,0,0,0,0,0,0,0,0,0,0,0,0,0,0,0,0,0,0,0,0,0,0,0,0,0,0,0,0,0,0,0,0,0,0,0,0,0,0,0,0,0,0,0,0,0,0,0,0,0,0,0,0,0,0,0,0,0,0,0,0,0,0,0,0,0,0,0,0,0,0,0,0,0,0,0,0,0,0,0,0,0,0,0,0,0,0,0,0,0,0,0,0,
0,0,0,0,0,0,0,0,0,0,0,0,0,0,0,0,0,0,0,0,0,0,0,0,0,0,0,0,0,0,0,0,0,0,0,0,0,0,0,0,0,0,0,0,0,0,0,0,0,0,0,0,0,0,0,0,0,0,0,0,0,0,0,0,0,0,0,0,0,0,0,0,0,0,0,0,0,0,0,0,0,0,0,0,0,0,0,0,0,0,0,0,0,0,0,0,0,0,0,0,
0,0,0,0,0,0,0,0,0,0,0,0,0,0,0,0,0,0,0,0,0,0,0,0,0,0,0,0,0,0,0,0,0,0,0,0,0,0,0,0,0,0,0,0,0,0,0,0,0,0,0,0,0,0,0,0,0,0,0,0,0,0,0,0,0,0,0,0,0,0,0,0,0,0,0,0,0,0,0,0,0,0,0,0,0,0,0,0,0,0,0,0,0,0,0,0,0,0,0,0,
0,0,0,0,0,0,0,0,0,0,0,0,0,0,0,0,0,0,0,0,0,0,0,0,0,0,0,0,0,0,0,0,0,0,0,0,0,0,0,0,0,0,0,0,0,0,0,0,0,0,0,0,0,0,0,0,0,0,0,0,0,0,0,0,0,0,0,0,0,0,0,0,0,0,0,0,0,0,0,0,0,0,0,0,0,0,0,0,0,0,0,0,0,0,0,0,0,0,0,0,
0,0,0,0,0,0,0,0,0,0,0,0,0,0,0,0,0,0,0,0,0,0,0,0,0,0,0,0,0,0,0,0,0,0,0,0,0,0,0,0,0,0,0,0,0,0,0,0,0,0,0,0,0,0,0,0,0,0,0,0,0,0,0,0,0,0,0,0,0,0,0,0,0,0,0,0,0,0,0,0,0,0,0,0,0,0,0,0,0,0,0,0,0,0,0,0,0,0,0,0,
0,0,0,0,0,0,0,0,0,0,0,0,0,0,0,0,0,0,0,0,0,0,0,0,0,0,0,0,0,0,0,0,0,0,0,0,0,0,0,0,0,0,0,0,0,0,0,0,0,0,0,0,0,0,0,0,0,0,0,0,0,0,0,0,0,0,0,0,0,0,0,0,0,0,0,0,0,0,0,0,0,0,0,0,0,0,0,0,0,0,0,0,0,0,0,0,0,0,0,0,
0,0,0,0,0,0,0,0,0,0,0,0,0,0,0,0,0,0,0,0,0,0,0,0,0,0,0,0,0,0,0,0,0,0,0,0,0,0,0,0,0,0,0,0,0,0,0,0,0,0,0,0,0,0,0,0,0,0,0,0,0,0,0,0,0,0,0,0,0,0,0,0,0,0,0,0,0,0,0,0,0,0,0,0,0,0,0,0,0,0,0,0,0,0,0,0,0,0,0,0,
0,0,0,0,0,0,0,0,0,0,0,0,0,0,0,0,0,0,0,0,0,0,0,0,0,0,0,0,0,0,0,0,0,0,0,0,0,0,0,0,0,0,0,0,0,0,0,0,0,0,0,0,0,0,0,0,0,0,0,0,0,0,0,0,0,0,0,0,0,0,0,0,0,0,0,0,0,0,0,0,0,0,0,0,0,0,0,0,0,0,0,0,0,0,0,0,0,0,0,0,
0,0,0,0,0,0,0,0,0,0,0,0,0,0,0,0,0,0,0,0,0,0,0,0,0,0,0,0,0,0,0,0,0,0,0,0,0,0,0,0,0,0,0,0,0,0,0,0,0,0,0,0,0,0,0,0,0,0,0,0,0,0,0,0,0,0,0,0,0,0,0,0,0,0,0,0,0,0,0,0,0,0,0,0,0,0,0,0,0,0,0,0,0,0,0,0,0,0,0,0,
0,0,0,0,0,0,0,0,0,0,0,0,0,0,0,0,0,0,0,0,0,0,0,0,0,0,0,0,0,0,0,0,0,0,0,0,0,0,0,0,0,0,0,0,0,0,0,0,0,0,0,0,0,0,0,0,0,0,0,0,0,0,0,0,0,0,0,0,0,0,0,0,0,0,0,0,0,0,0,0,0,0,0,0,0,0,0,0,0,0,0,0,0,0,0,0,0,0,0,0,
0,0,0,0,0,0,0,0,0,0,0,0,0,0,0,0,0,0,0,0,0,0,0,0,0,0,0,0,0,0,0,0,0,0,0,0,0,0,0,0,0,0,0,0,0,0,0,0,0,0,0,0,0,0,0,0,0,0,0,0,0,0,0,0,0,0,0,0,0,0,0,0,0,0,0,0,0,0,0,0,0,0,0,0,0,0,0,0,0,0,0,0,0,0,0,0,0,0,0,0,
0,0,0,0,0,0,0,0,0,0,0,0,0,0,0,0,0,0,0,0,0,0,0,0,0,0,0,0,0,0,0,0,0,0,0,0,0,0,0,0,0,0,0,0,0,0,0,0,0,0,0,0,0,0,0,0,0,0,0,0,0,0,0,0,0,0,0,0,0,0,0,0,0,0,0,0,0,0,0,0,0,0,0,0,0,0,0,0,0,0,0,0,0,0,0,0,0,0,0,0,
0,0,0,0,0,0,0,0,0,0,0,0,0,0,0,0,0,0,0,0,0,0,0,0,0,0,0,0,0,0,0,0,0,0,0,0,0,0,0,0,0,0,0,0,0,0,0,0,0,0,0,0,0,0,0,0,0,0,0,0,0,0,0,0,0,0,0,0,0,0,0,0,0,0,0,0,0,0,0,0,0,0,0,0,0,0,0,0,0,0,0,0,0,0,0,0,0,0,0,0,
0,0,0,0,0,0,0,0,0,0,0,0,0,0,0,0,0,0,0,0,0,0,0,0,0,0,0,0,0,0,0,0,0,0,0,0,0,0,0,0,0,0,0,0,0,0,0,0,0,0,0,0,0,0,0,0,0,0,0,0,0,0,0,0,0,0,0,0,0,0,0,0,0,0,0,0,0,0,0,0,0,0,0,0,0,0,0,0,0,0,0,0,0,0,0,0,0,0,0,0,
0,0,0,0,0,0,0,0,0,0,0,0,0,0,0,0,0,0,0,0,0,0,0,0,0,0,0,0,0,0,0,0,0,0,0,0,0,0,0,0,0,0,0,0,0,0,0,0,0,0,0,0,0,0,0,0,0,0,0,0,0,0,0,0,0,0,0,0,0,0,0,0,0,0,0,0,0,0,0,0,0,0,0,0,0,0,0,0,0,0,0,0,0,0,0,0,0,0,0,0,
0,0,0,0,0,0,0,0,0,0,0,0,0,0,0,0,0,0,0,0,0,0,0,0,0,0,0,0,0,0,0,0,0,0,0,0,0,0,0,0,0,0,0,0,0,0,0,0,0,0,0,0,0,0,0,0,0,0,0,0,0,0,0,0,0,0,0,0,0,0,0,0,0,0,0,0,0,0,0,0,0,0,0,0,0,0,0,0,0,0,0,0,0,0,0,0,0,0,0,0,
0,0,0,0,0,0,0,0,0,0,0,0,0,0,0,0,0,0,0,0,0,0,0,0,0,0,0,0,0,0,0,0,0,0,0,0,0,0,0,0,0,0,0,0,0,0,0,0,0,0,0,0,0,0,0,0,0,0,0,0,0,0,0,0,0,0,0,0,0,0,0,0,0,0,0,0,0,0,0,0,0,0,0,0,0,0,0,0,0,0,0,0,0,0,0,0,0,0,0,0,
0,0,0,0,0,0,0,0,0,0,0,0,0,0,0,0,0,0,0,0,0,0,0,0,0,0,0,0,0,0,0,0,0,0,0,0,0,0,0,0,0,0,0,0,0,0,0,0,0,0,0,0,0,0,0,0,0,0,0,0,0,0,0,0,0,0,0,0,0,0,0,0,0,0,0,0,0,0,0,0,0,0,0,0,0,0,0,0,0,0,0,0,0,0,0,0,0,0,0,0,
0,0,0,0,0,0,0,0,0,0,0,0,0,0,0,0,0,0,0,0,0,0,0,0,0,0,0,0,0,0,0,0,0,0,0,0,0,0,0,0,0,0,0,0,0,0,0,0,0,0,0,0,0,0,0,0,0,0,0,0,0,0,0,0,0,0,0,0,0,0,0,0,0,0,0,0,0,0,0,0,0,0,0,0,0,0,0,0,0,0,0,0,0,0,0,0,0,0,0,0,
0,0,0,0,0,0,0,0,0,0,0,0,0,0,0,0,0,0,0,0,0,0,0,0,0,0,0,0,0,0,0,0,0,0,0,0,0,0,0,0,0,0,0,0,0,0,0,0,0,0,0,0,0,0,0,0,0,0,0,0,0,0,0,0,0,0,0,0,0,0,0,0,0,0,0,0,0,0,0,0,0,0,0,0,0,0,0,0,0,0,0,0,0,0,0,0,0,0,0,0,
0,0,0,0,0,0,0,0,0,0,0,0,0,0,0,0,0,0,0,0,0,0,0,0,0,0,0,0,0,0,0,0,0,0,0,0,0,0,0,0,0,0,0,0,0,0,0,0,0,0,0,0,0,0,0,0,0,0,0,0,0,0,0,0,0,0,0,0,0,0,0,0,0,0,0,0,0,0,0,0,0,0,0,0,0,0,0,0,0,0,0,0,0,0,0,0,0,0,0,0,
0,0,0,0,0,0,0,0,0,0,0,0,0,0,0,0,0,0,0,0,0,0,0,0,0,0,0,0,0,0,0,0,0,0,0,0,0,0,0,0,0,0,0,0,0,0,0,0,0,0,0,0,0,0,0,0,0,0,0,0,0,0,0,0,0,0,0,0,0,0,0,0,0,0,0,0,0,0,0,0,0,0,0,0,0,0,0,0,0,0,0,0,0,0,0,0,0,0,0,0,
0,0,0,0,0,0,0,0,0,0,0,0,0,0,0,0,0,0,0,0,0,0,0,0,0,0,0,0,0,0,0,0,0,0,0,0,0,0,0,0,0,0,0,0,0,0,0,0,0,0,0,0,0,0,0,0,0,0,0,0,0,0,0,0,0,0,0,0,0,0,0,0,0,0,0,0,0,0,0,0,0,0,0,0,0,0,0,0,0,0,0,0,0,0,0,0,0,0,0,0,
0,0,0,0,0,0,0,0,0,0,0,0,0,0,0,0,0,0,0,0,0,0,0,0,0,0,0,0,0,0,0,0,0,0,0,0,0,0,0,0,0,0,0,0,0,0,0,0,0,0,0,0,0,0,0,0,0,0,0,0,0,0,0,0,0,0,0,0,0,0,0,0,0,0,0,0,0,0,0,0,0,0,0,0,0,0,0,0,0,0,0,0,0,0,0,0,0,0,0,0,
0,0,0,0,0,0,0,0,0,0,0,0,0,0,0,0,0,0,0,0,0,0,0,0,0,0,0,0,0,0,0,0,0,0,0,0,0,0,0,0,0,0,0,0,0,0,0,0,0,0,0,0,0,0,0,0,0,0,0,0,0,0,0,0,0,0,0,0,0,0,0,0,0,0,0,0,0,0,0,0,0,0,0,0,0,0,0,0,0,0,0,0,0,0,0,0,0,0,0,0,
0,0,0,0,0,0,0,0,0,0,0,0,0,0,0,0,0,0,0,0,0,0,0,0,0,0,0,0,0,0,0,0,0,0,0,0,0,0,0,0,0,0,0,0,0,0,0,0,0,0,0,0,0,0,0,0,0,0,0,0,0,0,0,0,0,0,0,0,0,0,0,0,0,0,0,0,0,0,0,0,0,0,0,0,0,0,0,0,0,0,0,0,0,0,0,0,0,0,0,0,
0,0,0,0,0,0,0,0,0,0,0,0,0,0,0,0,0,0,0,0,0,0,0,0,0,0,0,0,0,0,0,0,0,0,0,0,0,0,0,0,0,0,0,0,0,0,0,0,0,0,0,0,0,0,0,0,0,0,0,0,0,0,0,0,0,0,0,0,0,0,0,0,0,0,0,0,0,0,0,0,0,0,0,0,0,0,0,0,0,0,0,0,0,0,0,0,0,0,0,0,
0,0,0,0,0,0,0,0,0,0,0,0,0,0,0,0,0,0,0,0,0,0,0,0,0,0,0,0,0,0,0,0,0,0,0,0,0,0,0,0,0,0,0,0,0,0,0,0,0,0,0,0,0,0,0,0,0,0,0,0,0,0,0,0,0,0,0,0,0,0,0,0,0,0,0,0,0,0,0,0,0,0,0,0,0,0,0,0,0,0,0,0,0,0,0,0,0,0,0,0,
0,0,0,0,0,0,0,0,0,0,0,0,0,0,0,0,0,0,0,0,0,0,0,0,0,0,0,0,0,0,0,0,0,0,0,0,0,0,0,0,0,0,0,0,0,0,0,0,0,0,0,0,0,0,0,0,0,0,0,0,0,0,0,0,0,0,0,0,0,0,0,0,0,0,0,0,0,0,0,0,0,0,0,0,0,0,0,0,0,0,0,0,0,0,0,0,0,0,0,0,
0,0,0,0,0,0,0,0,0,0,0,0,0,0,0,0,0,0,0,0,0,0,0,0,0,0,0,0,0,0,0,0,0,0,0,0,0,0,0,0,0,0,0,0,0,0,0,0,0,0,0,0,0,0,0,0,0,0,0,0,0,0,0,0,0,0,0,0,0,0,0,0,0,0,0,0,0,0,0,0,0,0,0,0,0,0,0,0,0,0,0,0,0,0,0,0,0,0,0,0,
0,0,0,0,0,0,0,0,0,0,0,0,0,0,0,0,0,0,0,0,0,0,0,0,0,0,0,0,0,0,0,0,0,0,0,0,0,0,0,0,0,0,0,0,0,0,0,0,0,0,0,0,0,0,0,0,0,0,0,0,0,0,0,0,0,0,0,0,0,0,0,0,0,0,0,0,0,0,0,0,0,0,0,0,0,0,0,0,0,0,0,0,0,0,0,0,0,0,0,0,
0,0,0,0,0,0,0,0,0,0,0,0,0,0,0,0,0,0,0,0,0,0,0,0,0,0,0,0,0,0,0,0,0,0,0,0,0,0,0,0,0,0,0,0,0,0,0,0,0,0,0,0,0,0,0,0,0,0,0,0,0,0,0,0,0,0,0,0,0,0,0,0,0,0,0,0,0,0,0,0,0,0,0,0,0,0,0,0,0,0,0,0,0,0,0,0,0,0,0,0,
0,0,0,0,0,0,0,0,0,0,0,0,0,0,0,0,0,0,0,0,0,0,0,0,0,0,0,0,0,0,0,0,0,0,0,0,0,0,0,0,0,0,0,0,0,0,0,0,0,0,0,0,0,0,0,0,0,0,0,0,0,0,0,0,0,0,0,0,0,0,0,0,0,0,0,0,0,0,0,0,0,0,0,0,0,0,0,0,0,0,0,0,0,0,0,0,0,0,0,0,
0,0,0,0,0,0,0,0,0,0,0,0,0,0,0,0,0,0,0,0,0,0,0,0,0,0,0,0,0,0,0,0,0,0,0,0,0,0,0,0,0,0,0,0,0,0,0,0,0,0,0,0,0,0,0,0,0,0,0,0,0,0,0,0,0,0,0,0,0,0,0,0,0,0,0,0,0,0,0,0,0,0,0,0,0,0,0,0,0,0,0,0,0,0,0,0,0,0,0,0,
0,0,0,0,0,0,0,0,0,0,0,0,0,0,0,0,0,0,0,0,0,0,0,0,0,0,0,0,0,0,0,0,0,0,0,0,0,0,0,0,0,0,0,0,0,0,0,0,0,0,0,0,0,0,0,0,0,0,0,0,0,0,0,0,0,0,0,0,0,0,0,0,0,0,0,0,0,0,0,0,0,0,0,0,0,0,0,0,0,0,0,0,0,0,0,0,0,0,0,0,
0,0,0,0,0,0,0,0,0,0,0,0,0,0,0,0,0,0,0,0,0,0,0,0,0,0,0,0,0,0,0,0,0,0,0,0,0,0,0,0,0,0,0,0,0,0,0,0,0,0,0,0,0,0,0,0,0,0,0,0,0,0,0,0,0,0,0,0,0,0,0,0,0,0,0,0,0,0,0,0,0,0,0,0,0,0,0,0,0,0,0,0,0,0,0,0,0,0,0,0,
0,0,0,0,0,0,0,0,0,0,0,0,0,0,0,0,0,0,0,0,0,0,0,0,0,0,0,0,0,0,0,0,0,0,0,0,0,0,0,0,0,0,0,0,0,0,0,0,0,0,0,0,0,0,0,0,0,0,0,0,0,0,0,0,0,0,0,0,0,0,0,0,0,0,0,0,0,0,0,0,0,0,0,0,0,0,0,0,0,0,0,0,0,0,0,0,0,0,0,0,
0,0,0,0,0,0,0,0,0,0,0,0,0,0,0,0,0,0,0,0,0,0,0,0,0,0,0,0,0,0,0,0,0,0,0,0,0,0,0,0,0,0,0,0,0,0,0,0,0,0,0,0,0,0,0,0,0,0,0,0,0,0,0,0,0,0,0,0,0,0,0,0,0,0,0,0,0,0,0,0,0,0,0,0,0,0,0,0,0,0,0,0,0,0,0,0,0,0,0,0,
0,0,0,0,0,0,0,0,0,0,0,0,0,0,0,0,0,0,0,0,0,0,0,0,0,0,0,0,0,0,0,0,0,0,0,0,0,0,0,0,0,0,0,0,0,0,0,0,0,0,0,0,0,0,0,0,0,0,0,0,0,0,0,0,0,0,0,0,0,0,0,0,0,0,0,0,0,0,0,0,0,0,0,0,0,0,0,0,0,0,0,0,0,0,0,0,0,0,0,0,
0,0,0,0,0,0,0,0,0,0,0,0,0,0,0,0,0,0,0,0,0,0,0,0,0,0,0,0,0,0,0,0,0,0,0,0,0,0,0,0,0,0,0,0,0,0,0,0,0,0,0,0,0,0,0,0,0,0,0,0,0,0,0,0,0,0,0,0,0,0,0,0,0,0,0,0,0,0,0,0,0,0,0,0,0,0,0,0,0,0,0,0,0,0,0,0,0,0,0,0,
0,0,0,0,0,0,0,0,0,0,0,0,0,0,0,0,0,0,0,0,0,0,0,0,0,0,0,0,0,0,0,0,0,0,0,0,0,0,0,0,0,0,0,0,0,0,0,0,0,0,0,0,0,0,0,0,0,0,0,0,0,0,0,0,0,0,0,0,0,0,0,0,0,0,0,0,0,0,0,0,0,0,0,0,0,0,0,0,0,0,0,0,0,0,0,0,0,0,0,0,
0,0,0,0,0,0,0,0,0,0,0,0,0,0,0,0,0,0,0,0,0,0,0,0,0,0,0,0,0,0,0,0,0,0,0,0,0,0,0,0,0,0,0,0,0,0,0,0,0,0,0,0,0,0,0,0,0,0,0,0,0,0,0,0,0,0,0,0,0,0,0,0,0,0,0,0,0,0,0,0,0,0,0,0,0,0,0,0,0,0,0,0,0,0,0,0,0,0,0,0,
0,0,0,0,0,0,0,0,0,0,0,0,0,0,0,0,0,0,0,0,0,0,0,0,0,0,0,0,0,0,0,0,0,0,0,0,0,0,0,0,0,0,0,0,0,0,0,0,0,0,1376,0,0,0,0,0,0,0,0,0,0,0,0,0,0,0,0,0,0,0,0,0,0,0,0,0,0,0,0,0,0,0,0,0,0,0,0,0,0,0,0,0,0,0,0,0,0,0,0,0,
0,0,0,0,0,0,0,0,0,0,0,0,0,0,0,0,0,0,0,0,0,0,0,0,0,0,0,0,0,0,0,0,0,0,0,0,0,0,0,0,0,0,1376,1376,1376,1376,1376,1376,0,1406,1407,0,0,0,0,0,0,0,0,0,0,0,0,0,0,0,0,0,0,0,0,0,0,0,0,0,0,0,0,0,0,0,0,0,0,0,0,0,0,0,0,0,0,0,0,0,0,0,0,0,
0,0,0,0,0,0,0,0,0,0,0,0,0,0,0,0,0,0,0,0,0,0,0,0,0,0,0,0,0,0,0,0,0,0,0,0,0,0,0,0,1376,1376,1376,1376,1376,1180,1180,1376,1376,1417,1418,0,0,0,0,0,0,0,0,0,0,0,0,0,0,0,0,0,0,0,0,0,0,0,0,0,0,0,0,0,0,0,0,0,0,0,0,0,0,0,0,0,0,0,0,0,0,0,0,0,
0,0,0,0,0,0,0,0,0,0,0,0,0,0,0,0,0,0,0,0,0,0,0,0,0,0,0,0,0,0,0,0,0,0,0,0,0,0,0,1376,1376,1376,1376,1180,1180,1180,1180,1180,1180,1376,1376,0,0,0,0,0,0,0,0,0,0,0,0,0,0,0,0,0,0,0,0,0,0,0,0,0,0,0,0,0,0,0,0,0,0,0,0,0,0,0,0,0,0,0,0,0,0,0,0,0,
0,0,0,0,0,0,0,0,0,0,0,0,0,0,0,0,0,0,0,0,0,0,0,0,0,0,0,0,0,0,0,0,0,0,0,0,0,0,1376,1376,1376,1376,1180,1180,1180,1180,1180,1180,1180,1376,1376,0,0,0,0,0,0,0,0,0,0,0,0,0,0,0,0,0,0,0,0,0,0,0,0,0,0,0,0,0,0,0,0,0,0,0,0,0,0,0,0,0,0,0,0,0,0,0,0,0,
0,0,0,0,0,0,0,0,0,0,0,0,0,0,0,0,0,0,0,0,0,0,0,0,0,0,0,0,0,0,0,0,0,0,0,0,0,0,1376,1376,1376,1376,1376,1180,1180,1180,1180,1180,1180,1376,1376,0,0,0,0,0,0,0,0,0,0,0,0,0,0,0,0,0,0,0,0,0,0,0,0,0,0,0,0,0,0,0,0,0,0,0,0,0,0,0,0,0,0,0,0,0,0,0,0,0,
0,0,0,0,0,0,0,0,0,0,0,0,0,0,0,0,0,0,0,0,0,0,0,0,0,0,0,0,0,0,0,0,0,0,0,0,0,0,1376,1376,1376,1180,1180,1180,1180,1180,1180,1180,1376,1376,1376,1376,0,0,0,0,0,0,0,0,0,0,0,0,0,0,0,0,0,0,0,0,0,0,0,0,0,0,0,0,0,0,0,0,0,0,0,0,0,0,0,0,0,0,0,0,0,0,0,0,
0,0,0,0,0,0,0,0,0,0,0,0,0,0,0,0,0,0,0,0,0,0,0,0,0,0,0,0,0,0,0,0,0,0,0,0,0,1406,1407,1376,1180,1180,1180,1180,1180,1180,1180,1180,1376,1376,1406,1407,0,0,0,0,0,0,0,0,0,0,0,0,0,0,0,0,0,0,0,0,0,0,0,0,0,0,0,0,0,0,0,0,0,0,0,0,0,0,0,0,0,0,0,0,0,0,0,0,
0,0,0,0,0,0,0,0,0,0,0,0,0,0,0,0,0,0,0,0,0,0,0,0,0,0,0,0,0,0,0,0,0,0,0,0,0,1417,1418,1376,1180,1180,1180,1180,1180,1180,1180,1180,1376,1376,1417,1418,1376,0,0,0,0,0,0,0,0,0,0,0,0,0,0,0,0,0,0,0,0,0,0,0,0,0,0,0,0,0,0,0,0,0,0,0,0,0,0,0,0,0,0,0,0,0,0,0,
0,0,0,0,0,0,0,0,0,0,0,0,0,0,0,0,0,0,0,0,0,0,0,0,0,0,0,0,0,0,0,0,0,0,0,0,0,0,1376,1376,1376,1180,1180,1180,1180,1180,1180,1180,1180,1376,1376,1376,1376,0,0,0,0,0,0,0,0,0,0,0,0,0,0,0,0,0,0,0,0,0,0,0,0,0,0,0,0,0,0,0,0,0,0,0,0,0,0,0,0,0,0,0,0,0,0,0,
0,0,0,0,0,0,0,0,0,0,0,0,0,0,0,0,0,0,0,0,0,0,0,0,0,0,0,0,0,0,0,0,0,0,0,0,0,0,1376,1376,1376,1180,1180,1180,1441,1442,1443,1180,1180,1376,1376,1376,1376,0,0,0,0,0,0,0,0,0,0,0,0,0,0,0,0,0,0,0,0,0,0,0,0,0,0,0,0,0,0,0,0,0,0,0,0,0,0,0,0,0,0,0,0,0,0,0,
0,0,0,0,0,0,0,0,0,0,0,0,0,0,0,0,0,0,0,0,0,0,0,0,0,0,0,0,0,0,0,0,0,0,0,0,0,0,1376,1376,1376,1180,1180,1180,1452,1453,1454,1180,1180,1180,1180,1376,1376,0,0,0,0,0,0,0,0,0,0,0,0,0,0,0,0,0,0,0,0,0,0,0,0,0,0,0,0,0,0,0,0,0,0,0,0,0,0,0,0,0,0,0,0,0,0,0,
0,0,0,0,0,0,0,0,0,0,0,0,0,0,0,0,0,0,0,0,0,0,0,0,0,0,0,0,0,0,0,0,0,0,0,0,0,0,1376,1376,1180,1180,1180,1180,1463,1464,1465,1180,1180,1180,1180,1376,1376,0,0,0,0,0,0,0,0,0,0,0,0,0,0,0,0,0,0,0,0,0,0,0,0,0,0,0,0,0,0,0,0,0,0,0,0,0,0,0,0,0,0,0,0,0,0,0,
0,0,0,0,0,0,0,0,0,0,0,0,0,0,0,0,0,0,0,0,0,0,0,0,0,0,0,0,0,0,0,0,0,0,0,0,0,0,1376,1376,1180,1180,1180,1180,1180,1180,1180,1180,1180,1180,1180,1376,1376,0,0,0,0,0,0,0,0,0,0,0,0,0,0,0,0,0,0,0,0,0,0,0,0,0,0,0,0,0,0,0,0,0,0,0,0,0,0,0,0,0,0,0,0,0,0,0,
0,0,0,0,0,0,0,0,0,0,0,0,0,0,0,0,0,0,0,0,0,0,0,0,0,0,0,0,0,0,0,0,0,0,0,1406,1407,1376,1376,1376,1180,1180,1180,1180,1180,1180,1180,1180,1376,1376,1376,1376,1376,1376,0,0,0,0,0,0,0,0,0,0,0,0,0,0,0,0,0,0,0,0,0,0,0,0,0,0,0,0,0,0,0,0,0,0,0,0,0,0,0,0,0,0,0,0,0,0,
0,0,0,0,0,0,0,0,0,0,0,0,0,0,0,0,0,0,0,0,0,0,0,0,0,0,0,0,0,0,0,0,0,0,0,1417,1418,1376,1376,1180,1180,1180,1180,1180,1180,1180,1180,1376,1376,1376,1376,1376,1376,1376,0,0,0,0,0,0,0,0,0,0,0,0,0,0,0,0,0,0,0,0,0,0,0,0,0,0,0,0,0,0,0,0,0,0,0,0,0,0,0,0,0,0,0,0,0,0,
0,0,0,0,0,0,0,0,0,0,0,0,0,0,0,0,0,0,0,0,0,0,0,0,0,0,0,0,0,0,0,0,0,0,0,0,1376,1376,1376,1180,1180,1180,1180,1180,1180,1180,1376,1376,1376,1376,1376,1376,1376,1376,0,0,0,0,0,0,0,0,0,0,0,0,0,0,0,0,0,0,0,0,0,0,0,0,0,0,0,0,0,0,0,0,0,0,0,0,0,0,0,0,0,0,0,0,0,0,
0,0,0,0,0,0,0,0,0,0,0,0,0,0,0,0,0,0,0,0,0,0,0,0,0,0,0,0,0,0,0,0,0,0,0,1376,1376,1376,1376,1180,1180,1180,1180,1180,1180,1180,1376,1376,1376,1376,1376,1376,1376,0,0,0,0,0,0,0,0,0,0,0,0,0,0,0,0,0,0,0,0,0,0,0,0,0,0,0,0,0,0,0,0,0,0,0,0,0,0,0,0,0,0,0,0,0,0,0,
0,0,0,0,0,0,0,0,0,0,0,0,0,0,0,0,0,0,0,0,0,0,0,0,0,0,0,0,0,0,0,0,0,0,0,1376,1376,1376,1180,1180,1180,1180,1180,1180,1180,1180,1376,1376,1376,1376,1376,1376,0,0,0,0,0,0,0,0,0,0,0,0,0,0,0,0,0,0,0,0,0,0,0,0,0,0,0,0,0,0,0,0,0,0,0,0,0,0,0,0,0,0,0,0,0,0,0,0,
0,0,0,0,0,0,0,0,0,0,0,0,0,0,0,0,0,0,0,0,0,0,0,0,0,0,0,0,0,0,0,0,0,1376,1376,1376,1376,1376,1180,1180,1180,1180,1180,1180,1180,1376,1376,1376,1376,1376,1376,0,0,0,0,0,0,0,0,0,0,0,0,0,0,0,0,0,0,0,0,0,0,0,0,0,0,0,0,0,0,0,0,0,0,0,0,0,0,0,0,0,0,0,0,0,0,0,0,0,
0,0,0,0,0,0,0,0,0,0,0,0,0,0,0,0,0,0,0,0,0,0,0,0,0,0,0,0,0,0,0,1376,1376,1376,1376,1376,1376,1180,1180,1180,1180,1180,1180,1376,1376,1376,1376,1376,1376,1376,1376,0,0,0,0,0,0,0,0,0,0,0,0,0,0,0,0,0,0,0,0,0,0,0,0,0,0,0,0,0,0,0,0,0,0,0,0,0,0,0,0,0,0,0,0,0,0,0,0,0,
0,0,0,0,0,0,0,0,0,0,0,0,0,0,0,0,0,0,0,0,0,0,0,0,0,0,0,0,0,0,1376,1376,1376,1376,1376,1376,1180,1180,1180,1180,1180,1180,1376,1376,1376,1376,1376,1376,1376,1376,0,0,0,0,0,0,0,0,0,0,0,0,0,0,0,0,0,0,0,0,0,0,0,0,0,0,0,0,0,0,0,0,0,0,0,0,0,0,0,0,0,0,0,0,0,0,0,0,0,0,
0,0,0,0,0,0,0,0,0,0,0,0,0,0,0,0,0,0,0,0,0,0,0,0,0,0,0,0,0,1376,1376,1376,1376,1180,1180,1180,1180,1180,1180,1180,1180,1180,1180,1376,1376,1376,1376,1376,1376,1376,0,0,0,0,0,0,0,0,0,0,0,0,0,0,0,0,0,0,0,0,0,0,0,0,0,0,0,0,0,0,0,0,0,0,0,0,0,0,0,0,0,0,0,0,0,0,0,0,0,0,
0,0,0,0,0,0,0,0,0,0,0,0,0,0,0,0,0,0,0,0,0,0,0,0,0,0,1406,1407,1376,1376,1376,1376,1180,1180,1180,1180,1180,1180,1180,1180,1180,1376,1376,1406,1407,1376,1376,1376,1376,0,0,0,0,0,0,0,0,0,0,0,0,0,0,0,0,0,0,0,0,0,0,0,0,0,0,0,0,0,0,0,0,0,0,0,0,0,0,0,0,0,0,0,0,0,0,0,0,0,0,0,
0,0,0,0,0,0,0,0,0,0,0,0,0,0,0,0,0,0,0,0,0,0,0,0,0,0,1417,1418,1376,1376,1376,1376,1180,1180,1180,1180,1180,1180,1180,1180,1376,1376,1376,1417,1418,1376,1376,1376,0,0,0,0,0,0,0,0,0,0,0,0,0,0,0,0,0,0,0,0,0,0,0,0,0,0,0,0,0,0,0,0,0,0,0,0,0,0,0,0,0,0,0,0,0,0,0,0,0,0,0,0,
0,0,0,0,0,0,0,0,0,0,0,0,0,0,0,0,0,0,0,0,0,0,0,0,0,0,1376,1376,1376,1376,1376,1376,1180,1180,1180,1180,1180,1180,1180,1180,1376,1376,1376,1376,1376,1376,1376,1376,0,0,0,0,0,0,0,0,0,0,0,0,0,0,0,0,0,0,0,0,0,0,0,0,0,0,0,0,0,0,0,0,0,0,0,0,0,0,0,0,0,0,0,0,0,0,0,0,0,0,0,0,
0,0,0,0,0,0,0,0,0,0,0,0,0,0,0,0,0,0,0,0,0,0,0,0,0,0,1376,1376,1376,1180,1376,1180,1441,1442,1443,1180,1180,1180,1376,1376,1376,1376,1376,1376,1376,1376,1376,0,0,0,0,0,0,0,0,0,0,0,0,0,0,0,0,0,0,0,0,0,0,0,0,0,0,0,0,0,0,0,0,0,0,0,0,0,0,0,0,0,0,0,0,0,0,0,0,0,0,0,0,0,
0,0,0,0,0,0,0,0,0,0,0,0,0,0,0,0,0,0,0,0,0,0,0,0,0,1376,1376,1376,1376,1180,1180,1180,1452,1453,1454,1180,1180,1180,1376,1376,1406,1407,1376,1376,1376,0,1376,0,0,0,0,0,0,0,0,0,0,0,0,0,0,0,0,0,0,0,0,0,0,0,0,0,0,0,0,0,0,0,0,0,0,0,0,0,0,0,0,0,0,0,0,0,0,0,0,0,0,0,0,0,
0,0,0,0,0,0,0,0,0,0,0,0,0,0,0,0,0,0,0,0,0,0,0,0,0,1376,1376,1376,1180,1180,1180,1180,1463,1464,1465,1180,1180,1376,1376,1376,1417,1418,1376,1376,0,0,0,0,0,0,0,0,0,0,0,0,0,0,0,0,0,0,0,0,0,0,0,0,0,0,0,0,0,0,0,0,0,0,0,0,0,0,0,0,0,0,0,0,0,0,0,0,0,0,0,0,0,0,0,0,
0,0,0,0,0,0,0,0,0,0,0,0,0,0,0,0,0,0,0,0,0,0,0,0,0,1376,1376,1376,1180,1180,1180,1180,1180,1180,1180,1180,1376,1376,1376,1376,1376,1376,1376,0,0,0,0,0,0,0,0,0,0,0,0,0,0,0,0,0,0,0,0,0,0,0,0,0,0,0,0,0,0,0,0,0,0,0,0,0,0,0,0,0,0,0,0,0,0,0,0,0,0,0,0,0,0,0,0,0,
0,0,0,0,0,0,0,0,0,0,0,0,0,0,0,0,0,0,0,0,0,0,0,0,0,1376,1376,1180,1180,1180,1180,1180,1180,1180,1180,1180,1376,1376,1376,1376,1376,1376,0,0,0,0,0,0,0,0,0,0,0,0,0,0,0,0,0,0,0,0,0,0,0,0,0,0,0,0,0,0,0,0,0,0,0,0,0,0,0,0,0,0,0,0,0,0,0,0,0,0,0,0,0,0,0,0,0,0,
0,0,0,0,0,0,0,0,0,0,0,0,0,0,0,0,0,0,0,0,0,0,0,0,1376,1376,1376,1180,1180,1180,1180,1180,1180,1180,1180,1376,1376,1376,1376,1376,0,0,0,0,0,0,0,0,0,0,0,0,0,0,0,0,0,0,0,0,0,0,0,0,0,0,0,0,0,0,0,0,0,0,0,0,0,0,0,0,0,0,0,0,0,0,0,0,0,0,0,0,0,0,0,0,0,0,0,0,
0,0,0,0,0,0,0,0,0,0,0,0,0,0,0,0,0,0,0,0,0,0,0,0,1376,1376,1376,1180,1180,1180,1180,1180,1180,1180,1376,1376,1376,1376,1376,1376,0,0,0,0,0,0,0,0,0,0,0,0,0,0,0,0,0,0,0,0,0,0,0,0,0,0,0,0,0,0,0,0,0,0,0,0,0,0,0,0,0,0,0,0,0,0,0,0,0,0,0,0,0,0,0,0,0,0,0,0,
0,0,0,0,0,0,0,0,0,0,0,0,0,0,0,0,0,0,0,0,0,0,1406,1407,1376,1376,1376,1180,1180,1180,1180,1180,1180,1376,1376,1376,1376,1376,0,0,0,0,0,0,0,0,0,0,0,0,0,0,0,0,0,0,0,0,0,0,0,0,0,0,0,0,0,0,0,0,0,0,0,0,0,0,0,0,0,0,0,0,0,0,0,0,0,0,0,0,0,0,0,0,0,0,0,0,0,0,
0,0,0,0,0,0,0,0,0,0,0,0,0,0,0,0,0,0,0,0,0,1376,1417,1418,1376,1376,1180,1180,1180,1180,1180,1180,1376,1376,1376,1376,0,0,0,0,0,0,0,0,0,0,0,0,0,0,0,0,0,0,0,0,0,0,0,0,0,0,0,0,0,0,0,0,0,0,0,0,0,0,0,0,0,0,0,0,0,0,0,0,0,0,0,0,0,0,0,0,0,0,0,0,0,0,0,0,
0,0,0,0,0,0,0,0,0,0,0,0,0,0,0,0,0,0,0,0,0,1376,1376,1376,1376,1180,1180,1180,1180,1180,1376,1376,1376,1376,1376,0,0,0,0,0,0,0,0,0,0,0,0,0,0,0,0,0,0,0,0,0,0,0,0,0,0,0,0,0,0,0,0,0,0,0,0,0,0,0,0,0,0,0,0,0,0,0,0,0,0,0,0,0,0,0,0,0,0,0,0,0,0,0,0,0,
0,0,0,0,0,0,0,0,0,0,0,0,0,0,0,0,0,0,0,0,0,1376,1376,1376,1180,1180,1180,1180,1376,1376,1376,1376,1376,0,0,0,0,0,0,0,0,0,0,0,0,0,0,0,0,0,0,0,0,0,0,0,0,0,0,0,0,0,0,0,0,0,0,0,0,0,0,0,0,0,0,0,0,0,0,0,0,0,0,0,0,0,0,0,0,0,0,0,0,0,0,0,0,0,0,0,
0,0,0,0,0,0,0,0,0,0,0,0,0,0,0,0,0,0,0,0,1376,1376,1376,1180,1180,1180,1180,1376,1376,1376,1376,0,0,0,0,0,0,0,0,0,0,0,0,0,0,0,0,0,0,0,0,0,0,0,0,0,0,0,0,0,0,0,0,0,0,0,0,0,0,0,0,0,0,0,0,0,0,0,0,0,0,0,0,0,0,0,0,0,0,0,0,0,0,0,0,0,0,0,0,0,
0,0,0,0,0,0,0,0,0,0,0,0,0,0,0,0,0,0,0,0,1376,1376,1376,1180,1180,1180,1376,1376,1376,1376,0,0,0,0,0,0,0,0,0,0,0,0,0,0,0,0,0,0,0,0,0,0,0,0,0,0,0,0,0,0,0,0,0,0,0,0,0,0,0,0,0,0,0,0,0,0,0,0,0,0,0,0,0,0,0,0,0,0,0,0,0,0,0,0,0,0,0,0,0,0,
0,0,0,0,0,0,0,0,0,0,0,0,0,0,0,0,0,0,0,0,1376,1376,1376,1180,1180,1376,1376,1376,1376,0,0,0,0,0,0,0,0,0,0,0,0,0,0,0,0,0,0,0,0,0,0,0,0,0,0,0,0,0,0,0,0,0,0,0,0,0,0,0,0,0,0,0,0,0,0,0,0,0,0,0,0,0,0,0,0,0,0,0,0,0,0,0,0,0,0,0,0,0,0,0,
0,0,0,0,0,0,0,0,0,0,0,0,0,0,0,0,0,0,0,1376,1406,1407,1376,1376,1376,1376,1376,1376,0,0,0,0,0,0,0,0,0,0,0,0,0,0,0,0,0,0,0,0,0,0,0,0,0,0,0,0,0,0,0,0,0,0,0,0,0,0,0,0,0,0,0,0,0,0,0,0,0,0,0,0,0,0,0,0,0,0,0,0,0,0,0,0,0,0,0,0,0,0,0,0,
0,0,0,0,0,0,0,0,0,0,0,0,0,0,0,0,0,0,0,1376,1417,1418,1376,1376,1376,1376,0,0,0,0,0,0,0,0,0,0,0,0,0,0,0,0,0,0,0,0,0,0,0,0,0,0,0,0,0,0,0,0,0,0,0,0,0,0,0,0,0,0,0,0,0,0,0,0,0,0,0,0,0,0,0,0,0,0,0,0,0,0,0,0,0,0,0,0,0,0,0,0,0,0,
0,0,0,0,0,0,0,0,0,0,0,0,0,0,0,0,0,0,0,0,0,1376,1376,0,0,0,0,0,0,0,0,0,0,0,0,0,0,0,0,0,0,0,0,0,0,0,0,0,0,0,0,0,0,0,0,0,0,0,0,0,0,0,0,0,0,0,0,0,0,0,0,0,0,0,0,0,0,0,0,0,0,0,0,0,0,0,0,0,0,0,0,0,0,0,0,0,0,0,0,0,
0,0,0,0,0,0,0,0,0,0,0,0,0,0,0,0,0,0,0,0,0,0,0,0,0,0,0,0,0,0,0,0,0,0,0,0,0,0,0,0,0,0,0,0,0,0,0,0,0,0,0,0,0,0,0,0,0,0,0,0,0,0,0,0,0,0,0,0,0,0,0,0,0,0,0,0,0,0,0,0,0,0,0,0,0,0,0,0,0,0,0,0,0,0,0,0,0,0,0,0,
0,0,0,0,0,0,0,0,0,0,0,0,0,0,0,0,0,0,0,0,0,0,0,0,0,0,0,0,0,0,0,0,0,0,0,0,0,0,0,0,0,0,0,0,0,0,0,0,0,0,0,0,0,0,0,0,0,0,0,0,0,0,0,0,0,0,0,0,0,0,0,0,0,0,0,0,0,0,0,0,0,0,0,0,0,0,0,0,0,0,0,0,0,0,0,0,0,0,0,0,
0,0,0,0,0,0,0,0,0,0,0,0,0,0,0,0,0,0,0,0,0,0,0,0,0,0,0,0,0,0,0,0,0,0,0,0,0,0,0,0,0,0,0,0,0,0,0,0,0,0,0,0,0,0,0,0,0,0,0,0,0,0,0,0,0,0,0,0,0,0,0,0,0,0,0,0,0,0,0,0,0,0,0,0,0,0,0,0,0,0,0,0,0,0,0,0,0,0,0,0,
0,0,0,0,0,0,0,0,0,0,0,0,0,0,0,0,0,0,0,0,0,0,0,0,0,0,0,0,0,0,0,0,0,0,0,0,0,0,0,0,0,0,0,0,0,0,0,0,0,0,0,0,0,0,0,0,0,0,0,0,0,0,0,0,0,0,0,0,0,0,0,0,0,0,0,0,0,0,0,0,0,0,0,0,0,0,0,0,0,0,0,0,0,0,0,0,0,0,0,0,
0,0,0,0,0,0,0,0,0,0,0,0,0,0,0,0,0,0,0,0,0,0,0,0,0,0,0,0,0,0,0,0,0,0,0,0,0,0,0,0,0,0,0,0,0,0,0,0,0,0,0,0,0,0,0,0,0,0,0,0,0,0,0,0,0,0,0,0,0,0,0,0,0,0,0,0,0,0,0,0,0,0,0,0,0,0,0,0,0,0,0,0,0,0,0,0,0,0,0,0,
0,0,0,0,0,0,0,0,0,0,0,0,0,0,0,0,0,0,0,0,0,0,0,0,0,0,0,0,0,0,0,0,0,0,0,0,0,0,0,0,0,0,0,0,0,0,0,0,0,0,0,0,0,0,0,0,0,0,0,0,0,0,0,0,0,0,0,0,0,0,0,0,0,0,0,0,0,0,0,0,0,0,0,0,0,0,0,0,0,0,0,0,0,0,0,0,0,0,0,0,
0,0,0,0,0,0,0,0,0,0,0,0,0,0,0,0,0,0,0,0,0,0,0,0,0,0,0,0,0,0,0,0,0,0,0,0,0,0,0,0,0,0,0,0,0,0,0,0,0,0,0,0,0,0,0,0,0,0,0,0,0,0,0,0,0,0,0,0,0,0,0,0,0,0,0,0,0,0,0,0,0,0,0,0,0,0,0,0,0,0,0,0,0,0,0,0,0,0,0,0,
0,0,0,0,0,0,0,0,0,0,0,0,0,0,0,0,0,0,0,0,0,0,0,0,0,0,0,0,0,0,0,0,0,0,0,0,0,0,0,0,0,0,0,0,0,0,0,0,0,0,0,0,0,0,0,0,0,0,0,0,0,0,0,0,0,0,0,0,0,0,0,0,0,0,0,0,0,0,0,0,0,0,0,0,0,0,0,0,0,0,0,0,0,0,0,0,0,0,0,0,
0,0,0,0,0,0,0,0,0,0,0,0,0,0,0,0,0,0,0,0,0,0,0,0,0,0,0,0,0,0,0,0,0,0,0,0,0,0,0,0,0,0,0,0,0,0,0,0,0,0,0,0,0,0,0,0,0,0,0,0,0,0,0,0,0,0,0,0,0,0,0,0,0,0,0,0,0,0,0,0,0,0,0,0,0,0,0,0,0,0,0,0,0,0,0,0,0,0,0,0,
0,0,0,0,0,0,0,0,0,0,0,0,0,0,0,0,0,0,0,0,0,0,0,0,0,0,0,0,0,0,0,0,0,0,0,0,0,0,0,0,0,0,0,0,0,0,0,0,0,0,0,0,0,0,0,0,0,0,0,0,0,0,0,0,0,0,0,0,0,0,0,0,0,0,0,0,0,0,0,0,0,0,0,0,0,0,0,0,0,0,0,0,0,0,0,0,0,0,0,0,
0,0,0,0,0,0,0,0,0,0,0,0,0,0,0,0,0,0,0,0,0,0,0,0,0,0,0,0,0,0,0,0,0,0,0,0,0,0,0,0,0,0,0,0,0,0,0,0,0,0,0,0,0,0,0,0,0,0,0,0,0,0,0,0,0,0,0,0,0,0,0,0,0,0,0,0,0,0,0,0,0,0,0,0,0,0,0,0,0,0,0,0,0,0,0,0,0,0,0,0,
0,0,0,0,0,0,0,0,0,0,0,0,0,0,0,0,0,0,0,0,0,0,0,0,0,0,0,0,0,0,0,0,0,0,0,0,0,0,0,0,0,0,0,0,0,0,0,0,0,0,0,0,0,0,0,0,0,0,0,0,0,0,0,0,0,0,0,0,0,0,0,0,0,0,0,0,0,0,0,0,0,0,0,0,0,0,0,0,0,0,0,0,0,0,0,0,0,0,0,0,
0,0,0,0,0,0,0,0,0,0,0,0,0,0,0,0,0,0,0,0,0,0,0,0,0,0,0,0,0,0,0,0,0,0,0,0,0,0,0,0,0,0,0,0,0,0,0,0,0,0,0,0,0,0,0,0,0,0,0,0,0,0,0,0,0,0,0,0,0,0,0,0,0,0,0,0,0,0,0,0,0,0,0,0,0,0,0,0,0,0,0,0,0,0,0,0,0,0,0,0,
0,0,0,0,0,0,0,0,0,0,0,0,0,0,0,0,0,0,0,0,0,0,0,0,0,0,0,0,0,0,0,0,0,0,0,0,0,0,0,0,0,0,0,0,0,0,0,0,0,0,0,0,0,0,0,0,0,0,0,0,0,0,0,0,0,0,0,0,0,0,0,0,0,0,0,0,0,0,0,0,0,0,0,0,0,0,0,0,0,0,0,0,0,0,0,0,0,0,0,0
</data>
 </layer>
 <layer id="3" name="Mur" width="100" height="100">
  <data encoding="csv">
3221225968,3221225965,3221225965,3221225965,3221225965,3221225965,3221225965,3221225965,3221225965,3221225965,3221225965,3221225965,3221225965,3221225965,3221225965,3221225965,3221225965,3221225965,3221225965,3221225965,3221225965,3221225965,3221225965,3221225965,3221225965,3221225965,3221225965,3221225965,3221225965,3221225965,3221225965,3221225965,3221225965,3221225965,3221225965,3221225965,3221225965,3221225965,3221225965,3221225965,3221225965,3221225965,3221225965,3221225965,3221225965,3221225965,3221225965,3221225965,3221225965,3221225965,3221225965,3221225965,3221225965,3221225965,3221225965,3221225965,3221225965,3221225965,3221225965,3221225965,3221225965,3221225965,3221225965,3221225965,3221225965,3221225965,3221225965,3221225965,3221225965,3221225965,3221225965,3221225965,3221225965,3221225965,3221225965,3221225965,3221225965,3221225965,3221225965,3221225965,3221225965,3221225965,3221225965,3221225965,3221225965,3221225965,3221225965,3221225965,3221225965,3221225965,3221225965,3221225965,3221225965,3221225965,3221225965,3221225965,3221225965,3221225965,3221225965,1610613232,
2684355053,0,0,0,0,0,0,0,0,0,0,0,0,0,0,0,1610613029,0,0,0,0,0,0,0,0,0,0,0,0,0,0,0,0,0,0,0,0,0,0,0,0,0,0,0,0,0,0,0,0,0,0,0,0,0,0,0,0,0,0,0,0,0,0,0,0,0,0,0,0,0,0,0,0,0,0,0,0,0,0,0,0,0,0,0,0,0,0,0,0,0,0,0,0,0,0,0,0,0,0,1610613229,
2684355053,0,0,0,0,0,0,0,0,0,0,0,0,0,0,0,1610613029,0,0,0,0,0,0,0,0,0,0,0,0,0,0,0,0,0,0,0,0,0,0,0,0,0,0,0,0,0,0,0,0,0,0,0,0,0,0,0,0,0,0,0,0,0,0,0,0,0,0,0,0,0,0,0,0,0,0,0,0,0,0,0,0,0,0,0,0,0,0,0,0,0,0,0,0,0,0,0,0,0,0,1610613229,
2684355053,0,0,0,0,0,0,0,0,0,0,0,0,0,0,0,1610613029,0,0,0,0,0,0,0,0,0,0,0,0,0,0,0,0,0,0,0,0,0,0,0,0,0,0,0,0,0,0,0,0,0,0,0,0,0,0,0,0,0,0,0,0,0,0,0,0,0,0,0,0,0,0,0,0,0,0,0,0,0,0,0,0,0,0,0,0,0,0,0,0,0,0,0,0,0,0,0,0,0,0,1610613229,
2684355053,0,0,0,0,0,0,0,0,0,0,0,0,1200,0,0,1610613029,0,0,0,0,0,0,0,0,0,0,0,0,0,0,0,0,0,0,0,0,0,0,0,0,0,0,0,0,0,0,0,0,0,0,0,0,0,0,0,0,0,0,0,0,0,0,0,0,0,0,0,0,0,0,0,0,0,0,0,0,0,0,0,0,0,0,0,0,0,0,0,0,0,0,0,0,0,0,0,0,0,0,1610613229,
2684355053,0,0,0,0,0,0,0,0,0,0,0,0,1230,0,0,1610613029,0,0,0,0,0,0,0,0,0,0,0,0,0,0,0,0,0,0,0,0,0,0,0,0,0,0,0,0,0,0,0,0,0,0,0,0,0,0,0,0,0,0,0,0,0,0,0,0,0,0,0,0,0,0,0,0,0,0,0,0,0,0,0,0,0,0,0,0,0,0,0,0,0,0,0,0,0,0,0,0,0,0,1610613229,
2684355053,0,0,0,0,0,0,0,0,0,0,0,0,0,0,0,1610613029,0,0,0,0,0,0,0,0,0,0,0,0,0,0,0,0,0,0,0,0,0,0,0,0,0,0,0,0,0,0,0,0,0,0,0,0,0,0,0,0,0,0,0,0,0,0,0,0,0,0,0,0,0,0,0,0,0,0,0,0,0,0,0,0,0,0,0,0,0,0,0,0,0,0,0,0,0,0,0,0,0,0,1610613229,
2684355053,0,0,0,0,0,0,0,0,0,0,0,0,0,0,0,1610613029,0,0,0,0,0,0,0,0,0,0,0,0,0,0,0,0,0,0,0,0,0,0,0,0,0,0,0,0,0,0,0,0,0,0,0,0,0,0,0,0,0,0,0,0,0,0,0,0,0,0,0,0,0,0,0,0,0,0,0,0,0,0,0,0,0,0,0,0,0,0,0,0,0,0,0,0,0,0,0,0,0,0,1610613229,
2684355053,0,0,0,0,0,0,0,0,0,0,0,0,0,0,0,1610613029,0,0,0,0,0,0,0,0,0,0,0,0,0,0,0,0,0,0,0,0,0,0,0,0,0,0,0,0,0,0,0,0,0,0,0,0,0,0,0,0,0,0,0,0,0,0,0,0,0,0,0,0,0,0,0,0,0,0,0,0,0,0,0,0,0,0,0,0,0,0,0,0,0,0,0,0,0,0,0,0,0,0,1610613229,
2684355053,0,0,0,0,0,0,0,0,0,0,669,670,0,0,0,1610613029,0,0,0,0,0,0,0,0,0,0,0,0,0,0,0,0,0,0,0,0,0,0,0,0,0,0,0,0,0,0,0,0,0,0,0,0,0,0,0,0,0,0,0,0,0,0,0,0,0,0,0,0,0,0,0,0,0,0,0,0,0,0,0,0,0,0,0,0,0,0,0,0,0,0,0,0,0,0,0,0,0,0,1610613229,
2684355053,293,293,293,293,293,293,293,293,293,293,701,702,293,293,293,296,0,0,0,0,0,0,0,0,0,0,0,0,0,0,0,0,0,0,0,0,0,0,0,0,0,0,0,0,0,0,0,0,0,0,0,0,0,0,0,0,0,0,0,0,0,0,0,0,0,0,0,0,0,0,0,0,0,0,0,0,0,0,0,0,0,0,0,0,0,0,0,0,0,0,0,0,0,0,0,0,0,0,1610613229,
2684355053,0,0,0,0,0,0,0,0,0,0,0,0,0,0,0,0,0,0,0,0,0,0,0,0,0,0,0,0,0,0,0,0,0,0,0,0,0,0,0,0,0,0,0,0,0,0,0,0,0,0,0,0,0,0,0,0,0,0,0,0,0,0,0,0,0,0,0,0,0,0,0,0,0,0,0,0,0,0,0,0,0,0,0,0,0,0,0,0,0,0,0,0,0,0,0,0,0,0,1610613229,
2684355053,0,0,0,0,0,0,0,0,0,0,0,0,0,0,0,0,0,0,0,0,0,0,0,0,0,0,0,0,0,0,0,0,0,0,0,0,0,0,0,0,0,0,0,0,0,0,0,0,0,0,0,0,0,0,0,0,0,0,0,0,0,0,0,0,0,0,0,0,0,0,0,0,0,0,0,0,0,0,0,0,0,0,0,0,0,0,0,0,0,0,0,0,0,0,0,0,0,0,1610613229,
2684355053,0,0,0,0,0,0,0,0,0,0,0,0,0,0,0,0,0,0,0,0,0,0,0,0,0,0,0,0,0,0,0,0,0,0,0,0,0,0,0,0,0,0,0,0,0,0,0,0,0,0,0,0,0,0,0,0,0,0,0,0,0,0,0,0,0,0,0,0,0,0,0,0,0,0,0,0,0,0,0,0,0,0,0,0,0,0,0,0,0,0,0,0,0,0,0,0,0,0,1610613229,
2684355053,0,0,0,0,0,0,0,0,0,0,0,0,0,0,0,0,0,0,0,0,0,0,0,0,0,0,0,0,0,0,0,0,0,0,0,0,0,0,0,0,0,0,0,0,0,0,0,0,0,0,0,0,0,0,0,0,0,0,0,0,0,0,0,0,0,0,0,0,0,0,0,0,0,0,0,0,0,0,0,0,0,0,0,0,0,0,0,0,0,0,0,0,0,0,0,0,0,0,1610613229,
2684355053,0,0,0,0,0,0,0,0,0,0,0,0,0,0,0,0,0,0,0,0,0,0,0,0,0,0,0,0,0,0,0,0,0,0,0,0,0,0,0,0,0,0,0,0,0,0,0,0,0,0,0,0,0,0,0,0,0,0,0,0,0,0,0,0,0,0,0,0,0,0,0,0,0,0,0,0,0,0,0,0,0,0,0,0,0,0,0,0,0,0,0,0,0,0,0,0,0,0,1610613229,
2684355053,0,0,0,0,0,0,0,0,0,0,0,0,0,0,0,0,0,0,0,0,0,0,0,0,0,0,0,0,0,0,0,0,0,0,0,709,710,0,0,0,0,0,0,0,0,0,0,0,0,0,0,0,0,0,0,0,0,0,0,0,0,0,0,0,0,0,0,0,0,0,0,0,0,0,0,0,0,0,0,0,0,0,0,0,0,0,0,0,0,0,0,0,0,0,0,0,0,0,1610613229,
2684355053,0,0,0,0,0,0,0,0,0,0,0,0,0,0,0,0,0,0,0,0,0,0,0,0,0,0,0,0,0,0,0,0,0,0,0,741,742,0,0,0,0,0,0,0,0,0,0,0,0,0,0,0,0,0,0,0,0,0,0,0,0,0,0,0,0,0,0,0,0,0,0,0,0,0,0,0,0,0,0,0,0,0,0,0,0,0,0,0,0,0,0,0,0,0,0,0,0,0,1610613229,
2684355053,0,0,0,0,0,0,0,0,0,0,0,0,0,0,0,0,0,0,0,0,0,0,0,0,0,0,0,0,0,0,0,0,0,0,0,0,0,0,0,0,0,0,0,0,0,0,0,0,0,0,0,0,0,0,0,0,0,0,0,0,0,0,0,0,0,0,0,0,0,0,0,0,0,0,0,0,0,0,0,0,0,0,0,0,0,0,0,0,0,0,0,0,0,0,0,0,0,0,1610613229,
2684355053,0,0,0,0,0,0,0,0,0,0,0,0,0,0,0,0,0,0,0,0,0,0,0,0,0,0,0,0,0,0,0,0,0,0,0,0,0,0,0,0,0,0,0,0,0,0,0,0,0,0,0,0,0,0,0,0,0,0,0,0,0,0,0,0,0,0,0,0,0,0,0,0,0,0,0,0,0,0,0,0,0,0,0,0,0,0,0,0,0,0,0,0,0,0,0,0,0,0,1610613229,
2684355053,0,0,0,0,0,0,0,0,0,0,0,0,0,0,0,0,0,0,0,0,0,0,0,0,0,0,0,0,0,0,0,0,0,0,0,0,0,0,0,0,0,0,0,0,0,0,0,0,0,0,0,0,0,0,0,0,0,0,0,0,0,0,0,0,0,0,0,0,0,0,0,0,0,0,0,0,0,0,0,0,0,0,0,0,0,0,0,0,0,0,0,0,0,0,0,0,0,0,1610613229,
2684355053,0,0,0,0,0,0,0,0,0,0,0,0,0,0,0,0,0,0,0,0,0,0,0,0,0,0,0,0,0,0,0,0,0,0,0,0,0,0,0,0,0,0,0,0,0,0,0,0,0,0,0,0,0,0,0,0,0,0,0,0,0,0,0,0,0,0,0,0,0,0,0,0,0,0,0,0,0,0,0,0,0,0,0,0,0,0,0,0,0,0,0,0,0,0,0,0,0,0,1610613229,
2684355053,0,0,0,0,0,0,0,0,0,0,0,0,0,0,0,0,0,0,0,0,0,0,0,0,0,0,0,0,0,0,0,0,0,0,0,0,0,0,0,0,0,0,0,0,0,0,0,0,0,0,0,0,0,0,0,0,0,0,0,0,0,0,0,0,0,0,0,0,0,0,0,0,0,0,0,0,0,0,0,0,0,0,0,0,0,0,0,0,0,0,0,0,0,0,0,0,0,0,1610613229,
2684355053,0,0,0,0,0,0,0,0,0,0,0,0,0,0,0,0,0,0,0,0,0,0,0,0,0,0,0,0,0,0,0,0,0,0,0,0,0,0,0,0,0,0,0,0,0,0,0,0,0,0,0,0,0,0,0,0,0,0,0,0,0,0,0,0,0,0,0,0,0,0,0,0,0,0,0,0,0,0,0,0,0,0,0,0,0,0,0,0,0,0,0,0,0,0,0,0,0,0,1610613229,
2684355053,0,0,0,0,0,0,0,0,0,0,0,0,0,0,0,0,0,0,0,0,0,0,0,0,0,0,0,0,0,0,0,0,0,0,0,0,0,0,0,0,0,0,0,0,0,0,0,0,0,0,0,0,0,0,0,0,0,0,0,0,0,0,0,0,0,0,0,0,0,0,0,0,0,0,0,0,0,0,0,0,0,0,0,0,0,0,0,0,0,0,0,0,0,0,0,0,0,0,1610613229,
2684355053,0,0,0,0,0,0,0,0,0,0,0,0,0,0,0,0,0,0,0,0,0,0,0,0,0,0,0,0,0,0,0,0,0,0,0,0,0,0,0,0,0,0,0,0,0,0,0,0,0,0,0,0,0,0,0,0,0,0,0,0,0,0,0,0,0,0,0,0,0,0,0,0,0,0,0,0,0,0,0,0,0,0,0,0,0,0,0,0,0,0,0,0,0,0,0,0,0,0,1610613229,
2684355053,0,0,0,0,0,0,0,0,0,0,0,0,0,0,0,0,0,0,0,0,0,0,0,0,0,0,0,0,0,0,0,0,0,0,0,0,0,0,0,0,0,0,0,0,0,0,0,0,0,0,0,0,0,0,0,0,0,0,0,0,0,0,0,0,0,0,0,0,0,0,0,0,0,0,0,0,0,0,0,0,0,0,0,0,0,0,0,0,0,0,0,0,0,0,0,0,0,0,1610613229,
2684355053,0,0,0,0,0,0,0,0,0,0,0,0,0,0,0,0,0,0,0,0,0,0,0,0,0,0,0,0,0,0,0,0,0,0,0,0,0,0,0,0,0,0,0,0,0,0,0,0,0,0,0,0,0,0,0,0,0,0,0,0,0,0,0,0,0,0,0,0,0,0,0,0,0,0,0,0,0,0,0,0,0,0,0,0,0,0,0,0,0,0,0,0,0,0,0,0,0,0,1610613229,
2684355053,0,0,0,0,0,0,0,0,0,0,0,0,0,0,0,0,0,0,0,0,0,0,0,0,0,0,0,0,0,0,0,0,0,0,0,0,0,0,0,0,0,0,0,0,0,0,0,0,0,0,0,0,0,0,0,0,0,0,0,0,0,0,0,0,0,0,0,0,0,0,0,0,0,0,0,0,0,0,0,0,0,0,0,0,0,0,0,0,0,0,0,0,0,0,0,0,0,0,1610613229,
2684355053,0,0,0,0,0,0,0,0,0,0,0,0,0,0,0,0,0,0,0,0,0,0,0,0,0,0,0,0,0,0,0,0,0,0,0,0,0,0,0,0,0,0,0,0,0,0,0,0,0,0,0,0,0,0,0,0,0,0,0,0,0,0,0,0,0,0,0,0,0,0,0,0,0,0,0,0,0,0,0,0,0,0,0,0,0,0,0,0,0,0,0,0,0,0,0,0,0,0,1610613229,
2684355053,0,0,0,0,0,0,0,0,0,0,0,0,0,0,0,0,0,0,0,0,0,0,0,0,0,0,0,0,0,0,0,0,0,0,0,0,0,0,0,0,0,0,0,0,0,0,0,0,0,0,0,0,0,0,0,0,0,0,0,0,0,0,0,0,0,0,0,0,0,0,0,0,0,0,0,0,0,0,0,0,0,0,0,709,710,0,0,0,0,0,0,0,0,0,0,0,0,0,1610613229,
2684355053,0,0,0,0,0,0,0,0,0,0,0,0,0,0,0,0,0,0,0,0,0,0,0,0,0,0,0,0,0,0,0,0,0,0,0,0,0,0,0,0,0,0,0,0,0,0,0,0,0,0,0,0,0,0,0,0,0,0,0,0,0,0,0,0,0,0,0,0,0,0,0,0,0,0,0,0,0,0,0,0,0,0,0,741,742,0,0,0,0,0,0,0,0,0,0,0,0,0,1610613229,
2684355053,0,0,0,0,0,0,0,0,0,0,0,0,0,0,0,0,0,0,0,0,0,0,0,0,0,0,0,0,0,0,0,0,0,709,710,0,0,0,0,0,0,0,0,0,0,0,0,0,0,0,0,0,0,0,0,0,0,0,0,0,0,0,0,0,0,0,709,710,0,0,0,0,0,0,0,0,0,0,0,0,0,0,0,0,0,0,0,0,0,0,0,0,0,0,0,0,0,0,1610613229,
2684355053,0,0,0,0,0,0,0,0,0,0,0,0,0,0,0,0,0,0,0,0,0,0,0,0,0,0,0,0,0,0,0,0,0,741,742,0,0,0,0,0,0,0,0,0,0,0,0,0,0,0,0,0,0,0,0,0,0,0,0,0,0,0,0,0,0,0,741,742,0,0,0,0,0,0,0,0,0,0,0,0,0,0,0,0,0,0,0,0,0,0,0,0,0,0,0,0,0,0,1610613229,
2684355053,0,0,0,0,0,0,0,0,0,0,0,0,0,0,0,0,0,0,0,0,0,0,0,0,0,0,0,0,0,0,0,0,0,0,0,0,0,0,0,0,0,0,0,0,0,0,0,0,0,0,0,0,0,0,0,0,0,0,0,0,0,0,0,0,0,0,0,0,0,0,0,0,0,0,0,0,0,0,0,0,0,0,0,0,0,0,0,0,0,0,0,0,0,0,0,0,0,0,1610613229,
2684355053,0,0,0,0,0,0,0,0,0,0,0,0,0,0,0,0,0,0,0,0,0,0,0,0,0,0,0,0,0,0,0,0,0,0,0,0,0,0,0,0,0,0,0,0,0,0,709,710,0,0,0,0,0,0,0,0,0,0,0,0,0,0,0,0,0,0,0,0,0,0,0,0,0,0,0,0,0,0,0,0,0,0,0,0,0,0,0,0,0,0,0,0,0,0,0,0,0,0,1610613229,
2684355053,0,0,0,0,0,0,0,0,0,0,0,0,0,0,0,0,0,0,0,0,0,0,0,0,0,0,0,0,0,0,0,0,0,0,0,0,0,0,0,0,0,0,0,0,0,0,741,742,0,0,0,0,0,0,0,0,0,0,0,0,0,0,0,0,0,0,0,0,0,0,0,0,0,0,709,710,0,0,0,0,0,0,0,0,0,0,0,0,0,0,0,0,0,0,0,0,0,0,1610613229,
2684355053,0,0,0,0,0,0,0,0,0,0,0,0,0,0,0,0,0,0,0,0,0,0,0,0,0,0,0,0,0,0,0,0,0,0,0,0,0,0,0,0,0,0,0,0,0,0,0,0,0,0,0,0,0,0,0,0,0,0,0,0,0,0,0,0,0,0,0,0,0,0,0,0,0,0,741,742,0,0,0,0,0,0,0,0,0,0,0,0,0,0,0,0,0,0,0,0,0,0,1610613229,
2684355053,0,0,0,0,0,0,0,0,0,0,0,0,0,0,0,0,0,0,0,0,0,0,0,0,0,0,0,0,0,0,0,0,0,0,0,0,0,0,0,0,0,0,0,0,0,0,0,0,0,0,0,0,0,0,0,0,0,0,0,0,0,0,0,0,0,0,0,0,0,0,0,0,0,0,0,0,0,0,0,0,0,0,0,0,0,0,0,0,0,0,0,0,0,0,0,0,0,0,1610613229,
2684355053,0,0,0,0,0,0,0,0,0,0,0,0,0,0,0,0,0,0,0,0,0,0,0,0,0,0,0,0,0,0,0,0,0,0,0,0,0,0,0,0,0,0,0,0,0,0,0,0,0,0,0,0,0,0,0,0,0,0,0,0,0,0,0,0,0,0,0,0,0,0,0,0,0,0,0,0,0,0,0,0,0,0,0,0,0,0,0,0,0,0,0,0,0,0,0,0,0,0,1610613229,
2684355053,0,0,0,0,0,0,0,0,0,0,0,0,0,0,0,0,0,0,0,0,0,0,0,0,0,0,0,0,0,0,0,0,0,0,0,0,0,0,0,0,0,0,0,0,0,0,0,0,0,0,0,0,0,0,0,0,0,0,0,0,0,0,0,0,0,0,0,0,0,0,0,0,0,0,0,0,0,0,0,0,0,0,0,0,0,0,0,0,0,0,0,0,0,0,0,0,0,0,1610613229,
2684355053,0,0,0,0,0,0,0,0,0,0,0,0,0,0,0,0,0,0,0,0,0,0,0,0,0,0,0,0,0,0,0,0,0,0,0,0,0,0,0,0,0,0,0,0,0,0,0,0,0,0,0,0,0,0,0,0,0,0,0,0,0,0,0,0,0,0,0,0,0,0,0,0,0,0,0,0,0,0,0,0,0,0,0,0,0,0,0,0,0,0,0,0,0,0,0,0,0,0,1610613229,
2684355053,0,0,0,0,0,0,0,0,0,0,0,0,0,0,0,0,0,0,0,0,0,0,0,0,0,0,0,0,0,0,0,0,0,0,0,0,0,0,0,0,0,0,0,0,0,0,0,0,0,0,0,0,0,0,0,0,0,0,0,0,0,0,0,0,0,0,0,0,0,0,0,0,0,0,0,0,0,0,0,0,0,0,0,0,0,0,0,0,0,0,0,0,0,0,0,0,0,0,1610613229,
2684355053,0,0,0,0,0,0,0,0,0,0,0,0,0,0,0,0,0,0,0,0,0,0,0,0,0,0,0,0,0,0,0,0,0,0,0,0,0,0,0,0,0,0,0,0,0,0,0,0,0,0,0,0,0,0,0,0,0,0,0,0,0,0,0,0,0,0,0,0,0,0,0,0,0,0,0,0,0,0,0,0,0,0,0,0,0,0,0,0,0,0,0,0,0,0,0,0,0,0,1610613229,
2684355053,0,0,0,0,0,0,0,0,0,0,0,0,0,0,0,0,0,0,0,0,0,0,0,0,0,0,0,0,0,0,0,0,0,0,0,0,0,0,0,0,0,0,0,0,0,0,0,0,0,0,0,0,0,0,0,0,0,0,0,0,0,0,0,0,0,0,0,0,0,0,0,0,0,0,0,0,0,0,0,0,0,0,0,0,0,0,0,0,0,0,0,0,0,0,0,0,0,0,1610613229,
2684355053,0,0,0,0,0,0,0,0,0,0,0,0,0,0,0,0,0,0,0,0,0,0,0,0,0,0,0,0,0,0,0,0,0,0,0,0,0,0,0,0,0,0,0,0,0,0,0,0,0,0,0,0,709,710,0,0,0,0,0,0,0,0,0,0,0,0,0,0,0,0,0,0,0,0,0,0,0,0,0,0,0,0,0,0,0,0,0,0,0,0,0,0,0,0,0,0,0,0,1610613229,
2684355053,0,0,0,0,0,0,0,0,0,0,0,0,0,0,0,0,0,0,0,0,0,0,0,0,0,0,0,0,0,0,0,0,0,0,0,0,0,709,710,0,0,0,0,0,0,0,0,0,0,0,0,0,741,742,0,0,0,0,0,0,0,0,0,0,0,0,0,0,0,0,0,0,0,0,0,0,0,0,0,0,0,0,0,0,0,0,0,0,0,0,0,0,0,0,0,0,0,0,1610613229,
2684355053,0,0,0,0,0,0,0,0,0,0,0,0,0,0,0,0,0,0,0,0,0,0,0,0,0,0,0,0,0,0,0,0,0,0,0,0,0,741,742,0,0,0,0,0,0,0,0,0,0,0,0,0,0,0,0,0,0,0,0,0,0,0,0,0,0,0,0,0,0,0,0,0,0,0,0,0,0,0,0,0,0,0,0,0,0,0,0,0,0,0,0,0,0,0,0,0,0,0,1610613229,
2684355053,0,0,0,0,0,0,0,0,0,0,0,0,0,0,0,0,0,0,0,0,0,0,0,0,0,0,0,0,0,0,0,0,0,0,0,0,0,0,0,0,0,0,0,0,0,0,0,0,0,0,0,0,0,0,0,0,0,0,0,0,0,0,0,0,0,0,0,0,0,0,0,0,0,0,0,0,0,0,0,0,0,0,0,0,0,0,0,0,0,0,0,0,0,0,0,0,0,0,1610613229,
2684355053,0,0,0,0,0,0,0,0,0,0,0,0,0,0,0,0,0,0,0,0,0,0,0,0,0,0,0,0,0,0,0,0,0,0,0,0,0,0,0,0,0,0,0,0,0,0,0,0,0,0,0,0,0,0,0,0,0,0,0,0,0,0,0,0,0,0,0,0,0,0,0,0,0,0,0,0,0,0,0,0,709,710,0,0,0,0,0,0,0,0,0,0,0,0,0,0,0,0,1610613229,
2684355053,0,0,0,0,0,0,0,0,0,0,0,0,0,0,0,0,0,0,0,0,0,0,0,0,0,0,0,0,0,0,0,0,0,0,0,0,0,0,0,0,0,0,0,0,0,0,0,0,0,0,0,0,0,0,0,0,0,0,0,0,0,0,0,0,0,0,0,0,0,0,0,0,0,0,0,0,0,0,0,0,741,742,0,0,0,0,0,0,0,0,0,0,0,0,0,0,0,0,1610613229,
2684355053,0,0,0,0,0,0,0,0,0,0,0,0,0,0,0,0,0,0,0,0,0,0,0,0,0,0,0,0,0,0,0,0,0,0,0,0,0,0,0,0,0,0,0,0,0,0,0,0,0,0,0,0,0,0,0,0,0,0,0,0,0,0,0,0,0,0,0,0,0,0,0,0,0,0,0,0,0,0,0,0,0,0,0,0,0,0,0,0,0,0,0,0,0,0,0,0,0,0,1610613229,
2684355053,0,0,0,0,0,0,0,0,0,0,0,0,0,0,0,0,0,0,0,0,0,0,0,0,0,0,0,0,0,0,0,0,0,0,0,0,0,0,0,0,0,0,0,0,0,0,0,0,0,0,0,0,0,0,0,0,0,0,0,0,0,0,0,0,0,0,0,0,0,0,0,0,0,0,0,0,0,0,0,0,0,0,0,0,0,0,0,0,0,0,0,0,0,0,0,0,0,0,1610613229,
2684355053,0,0,0,0,0,0,0,0,0,0,0,0,0,0,0,0,0,0,0,0,0,0,0,0,0,0,0,0,0,0,0,0,0,0,0,0,0,0,0,0,0,0,0,0,0,0,0,0,0,0,0,0,0,0,0,0,0,0,0,0,709,710,0,0,0,0,0,0,0,0,0,0,0,0,0,0,0,0,0,0,0,0,0,0,0,0,0,0,0,0,0,0,0,0,0,0,0,0,1610613229,
2684355053,0,0,0,0,0,0,0,0,0,0,0,0,0,0,0,0,0,0,0,0,0,0,0,0,0,0,0,0,0,0,0,0,0,0,0,0,0,0,0,0,0,0,0,0,0,0,0,0,0,0,0,0,0,0,0,0,0,0,0,0,741,742,0,0,0,0,0,0,0,0,0,0,0,0,0,0,0,0,0,0,0,0,0,0,0,0,0,0,0,0,0,0,0,0,0,0,0,0,1610613229,
2684355053,0,0,0,0,0,0,0,0,0,0,0,0,0,0,0,0,0,0,0,0,0,0,0,0,0,0,0,0,0,0,0,0,0,0,0,0,0,0,0,0,0,0,0,0,0,0,0,0,0,0,0,0,0,0,0,0,0,0,0,0,0,0,0,0,0,0,0,0,0,0,0,0,0,0,0,0,0,0,0,0,0,0,0,0,0,0,0,0,0,0,0,0,0,0,0,0,0,0,1610613229,
2684355053,0,0,0,0,0,0,0,0,0,0,0,0,0,0,0,0,0,0,0,0,0,0,0,0,0,0,0,0,0,0,0,0,0,0,0,0,0,0,0,0,0,0,0,0,0,0,0,0,0,0,0,0,0,0,0,0,0,0,0,0,0,0,0,0,0,0,0,0,0,0,0,0,0,0,0,0,0,0,0,0,0,0,0,0,0,0,0,0,0,0,0,0,0,0,0,0,0,0,1610613229,
2684355053,0,0,0,0,0,0,0,0,0,0,0,0,0,0,0,0,0,0,0,0,0,0,0,0,0,0,0,0,0,0,0,0,0,0,0,0,0,0,0,0,0,0,0,0,0,0,0,0,0,0,0,0,0,0,0,0,0,0,0,0,0,0,0,0,0,0,0,0,0,0,0,0,0,0,0,0,0,0,0,0,0,0,0,0,0,0,0,0,0,0,0,0,0,0,0,0,0,0,1610613229,
2684355053,0,0,0,0,0,0,0,0,0,0,0,0,0,0,0,0,0,0,0,0,0,0,0,0,0,0,0,0,0,0,0,0,0,0,0,0,0,0,0,0,0,0,0,0,0,0,0,0,0,0,0,0,0,0,0,0,0,0,0,0,0,0,0,0,0,0,0,0,0,0,0,0,0,0,0,0,0,0,0,0,0,0,0,0,0,0,0,0,0,0,0,0,0,0,0,0,0,0,1610613229,
2684355053,0,0,0,0,0,0,0,0,0,0,0,0,0,0,0,0,0,0,0,0,0,0,0,0,0,0,0,0,0,0,0,0,0,0,0,0,0,0,0,0,0,0,0,0,0,0,0,0,0,0,0,0,0,0,0,0,0,0,0,0,0,0,0,0,0,0,0,0,0,0,0,0,0,0,0,0,0,0,0,0,0,0,0,0,0,0,0,0,0,0,0,0,0,0,0,0,0,0,1610613229,
2684355053,0,0,0,0,0,0,0,0,0,0,0,0,0,0,0,0,0,0,0,0,0,0,0,0,0,0,0,0,0,0,0,0,0,0,0,0,0,0,0,0,0,0,0,0,0,0,0,0,0,0,0,0,0,0,0,0,0,0,0,0,0,0,0,0,0,0,0,0,0,0,0,0,0,0,0,0,0,0,0,0,0,0,0,0,0,0,0,0,0,0,0,0,0,0,0,0,0,0,1610613229,
2684355053,0,0,0,0,0,0,0,0,0,0,0,0,0,0,0,0,0,0,0,0,0,0,0,0,0,0,0,0,0,0,0,0,0,0,0,0,0,0,0,0,0,0,0,0,0,0,0,0,0,0,0,0,0,0,0,0,0,0,0,0,0,0,0,0,0,0,0,0,0,0,0,0,0,0,0,0,0,0,0,0,0,0,0,0,0,0,0,0,0,0,0,0,0,0,0,0,0,0,1610613229,
2684355053,0,0,0,0,0,0,0,0,0,0,0,0,0,0,0,0,0,0,0,0,0,0,0,0,0,0,0,0,0,0,0,0,0,0,0,0,0,0,0,0,0,0,0,0,0,0,709,710,0,0,0,0,0,0,0,0,0,0,0,0,0,0,0,0,0,0,0,0,0,0,0,0,0,0,0,0,0,0,0,0,0,0,0,0,0,0,0,0,0,0,0,0,0,0,0,0,0,0,1610613229,
2684355053,0,0,0,0,0,0,0,0,0,0,0,0,0,0,0,0,0,0,0,0,0,0,0,0,0,0,0,0,0,0,0,0,0,0,0,0,0,0,0,0,0,0,0,0,0,0,741,742,0,0,0,0,0,0,0,0,0,0,0,0,0,0,0,0,0,0,0,0,0,0,0,0,0,0,0,0,0,0,0,0,0,0,0,0,0,0,0,0,0,0,0,0,0,0,0,0,0,0,1610613229,
2684355053,0,0,0,0,0,0,0,0,0,0,0,0,0,0,0,0,0,0,0,0,0,0,0,0,0,0,0,0,0,0,0,0,0,0,0,0,0,0,0,0,0,0,0,0,0,0,0,0,0,0,0,0,0,0,0,0,0,0,0,0,0,0,0,0,0,0,0,0,0,0,0,0,0,0,0,0,0,0,0,0,0,0,0,0,0,0,0,0,0,0,0,0,0,0,0,0,0,0,1610613229,
2684355053,0,0,0,0,0,0,0,0,0,0,0,0,0,0,0,0,0,0,0,0,0,0,0,0,0,0,0,0,0,0,0,0,0,0,0,0,0,0,0,0,0,0,0,0,0,0,0,0,0,0,0,0,0,0,0,0,0,0,0,0,0,0,0,0,0,0,0,0,0,0,0,0,0,0,0,0,0,0,0,0,0,0,0,0,0,0,0,0,0,0,0,0,0,0,0,0,0,0,1610613229,
2684355053,0,0,0,0,0,0,0,0,0,0,0,0,0,0,0,0,0,0,0,0,0,0,0,0,0,0,0,0,0,0,0,0,0,0,0,0,0,0,0,0,0,0,0,0,0,0,0,0,0,0,0,0,0,0,0,0,0,0,0,0,0,0,0,0,0,0,0,0,0,0,0,0,0,0,0,0,0,0,0,0,0,0,0,0,0,0,0,0,0,0,0,0,0,0,0,0,0,0,1610613229,
2684355053,0,0,0,0,0,0,0,0,0,0,0,0,0,0,0,0,0,0,0,0,0,0,0,0,0,0,0,0,0,0,0,0,0,0,0,0,0,0,0,0,0,0,0,0,0,0,0,0,0,0,0,0,0,0,0,0,0,0,0,0,0,0,0,0,0,0,0,0,0,0,0,0,0,0,0,0,0,0,0,0,0,0,0,0,0,0,0,0,0,0,0,0,0,0,0,0,0,0,1610613229,
2684355053,0,0,0,0,0,0,0,0,0,0,0,0,0,0,0,0,0,0,0,0,0,0,0,0,0,0,0,0,0,0,0,0,0,0,0,0,0,0,0,0,0,0,0,0,0,0,0,0,0,0,0,0,0,0,0,0,0,0,0,0,0,0,0,0,0,0,0,0,0,0,0,0,0,0,0,0,0,0,0,0,0,0,0,0,0,0,0,0,0,0,0,0,0,0,0,0,0,0,1610613229,
2684355053,0,0,0,0,0,0,0,0,0,0,0,0,0,0,0,0,0,0,0,0,0,0,0,0,0,0,0,0,0,0,0,0,0,0,0,0,0,0,0,0,0,0,0,0,0,0,0,0,0,0,0,0,0,0,0,0,0,0,0,0,0,0,0,0,0,0,0,0,0,0,0,0,0,0,0,0,0,0,0,0,0,0,0,0,0,0,0,0,0,0,0,0,0,0,0,0,0,0,1610613229,
2684355053,0,0,0,0,0,0,0,0,0,0,0,0,0,0,0,0,0,0,0,0,0,0,0,0,0,0,0,0,0,0,0,0,0,0,0,0,0,0,0,0,0,0,0,0,0,0,0,0,0,0,0,0,0,0,0,0,0,0,0,0,0,0,709,710,0,0,0,0,0,0,0,0,0,0,0,0,0,0,0,0,0,0,0,0,0,0,0,0,0,0,0,0,0,0,0,0,0,0,1610613229,
2684355053,0,0,0,0,0,0,0,0,0,0,0,0,0,0,0,0,0,0,0,0,0,0,0,0,0,0,0,0,0,0,0,0,0,0,0,0,0,0,0,0,0,0,0,0,0,0,0,0,0,0,0,0,0,0,0,0,0,0,0,0,0,0,741,742,0,0,0,0,0,0,0,0,0,0,0,0,0,0,0,0,0,0,0,0,0,0,0,0,0,0,0,0,0,0,0,0,0,0,1610613229,
2684355053,0,0,0,0,0,0,0,0,0,0,0,0,0,0,0,0,0,0,0,0,0,0,0,0,0,0,0,0,0,0,0,0,0,0,0,0,0,0,0,0,0,0,0,0,0,0,0,0,0,0,0,0,0,0,0,0,0,0,0,0,0,0,0,0,0,0,0,0,0,0,0,0,0,0,0,0,0,0,0,0,0,0,0,0,0,0,0,0,0,0,0,0,0,0,0,0,0,0,1610613229,
2684355053,0,0,0,0,0,0,0,0,0,0,0,0,0,0,0,0,0,0,0,0,0,0,0,0,0,0,0,0,0,0,0,0,0,0,0,0,0,0,0,0,0,0,0,0,0,0,0,0,0,0,0,0,0,0,0,0,0,0,0,0,0,0,0,0,0,0,0,0,0,0,0,0,0,0,0,0,0,0,0,0,0,0,0,0,0,0,0,0,0,0,0,0,0,0,0,0,0,0,1610613229,
2684355053,0,0,0,0,0,0,0,0,0,0,0,0,0,0,0,0,0,0,0,0,0,0,0,0,0,0,0,0,0,0,0,0,0,0,0,0,0,0,0,0,0,0,0,0,0,0,0,0,0,0,0,0,0,0,0,0,0,0,0,0,0,0,0,0,0,0,0,0,0,0,0,0,0,0,0,0,0,0,0,0,709,710,0,0,0,0,0,0,0,0,0,0,0,0,0,0,0,0,1610613229,
2684355053,0,0,0,0,0,0,0,0,0,0,0,0,0,0,0,0,0,0,0,0,0,0,0,0,0,0,0,0,0,0,0,0,0,0,0,0,0,0,0,0,0,0,0,0,0,0,0,0,0,0,0,0,0,0,0,0,0,0,0,0,0,0,0,0,0,0,0,0,0,0,0,0,0,0,0,0,0,0,0,0,741,742,0,0,0,0,0,0,0,0,0,0,0,0,0,0,0,0,1610613229,
2684355053,0,0,0,0,0,0,0,0,0,0,0,0,0,0,0,0,0,0,0,0,0,0,0,0,0,0,0,0,0,0,0,0,0,0,0,0,0,0,0,0,0,0,0,0,0,0,0,0,0,0,0,0,0,0,0,0,0,0,0,0,0,0,0,0,0,0,0,0,0,0,0,0,0,0,0,0,0,0,0,0,0,0,0,0,0,0,0,0,0,0,0,0,0,0,0,0,0,0,1610613229,
2684355053,0,0,0,0,0,0,0,0,0,0,0,0,0,0,0,0,0,0,0,0,0,0,0,0,0,0,0,0,0,0,0,0,0,0,0,0,0,0,0,0,0,0,0,0,0,0,0,0,0,0,0,0,0,0,0,0,0,0,0,0,0,0,0,0,0,0,0,0,0,0,0,0,0,0,0,0,0,0,0,0,0,0,0,0,0,0,0,0,0,0,0,0,0,0,0,0,0,0,1610613229,
2684355053,0,0,0,0,0,0,0,0,0,0,0,0,0,0,0,0,0,0,0,0,0,0,0,0,0,0,0,0,0,0,0,0,0,0,0,0,0,0,0,0,0,0,0,0,0,0,0,0,0,0,0,0,0,0,0,0,0,0,0,0,0,0,0,0,0,0,0,0,0,0,0,0,0,0,0,0,0,0,0,0,0,0,0,0,0,0,0,0,0,0,0,0,0,0,0,0,0,0,1610613229,
2684355053,0,0,0,0,0,0,0,0,0,0,0,0,0,0,0,0,0,0,0,0,0,0,0,0,0,0,0,0,0,0,0,0,0,0,0,0,0,0,0,0,0,0,0,0,0,0,0,0,0,0,0,0,0,0,0,0,0,0,0,0,0,0,0,0,0,0,0,0,0,0,0,0,0,0,0,0,0,0,0,0,0,0,0,0,0,0,0,0,0,0,0,0,0,0,0,0,0,0,1610613229,
2684355053,0,0,0,0,0,0,0,0,0,0,0,0,0,0,0,0,0,0,0,0,0,0,0,0,0,0,0,0,0,0,0,0,0,0,0,0,0,0,0,0,0,0,0,0,0,0,0,0,0,0,0,0,0,0,0,0,0,0,0,0,0,0,0,0,0,0,0,0,0,0,0,0,0,0,0,0,0,0,0,0,0,0,0,0,0,0,0,0,0,0,0,0,0,0,0,0,0,0,1610613229,
2684355053,0,0,0,0,0,0,0,0,0,0,0,0,0,0,0,0,0,0,0,0,0,0,0,0,0,0,0,0,0,0,0,0,0,0,0,0,0,0,0,0,0,0,0,0,0,0,0,0,0,0,0,0,0,0,0,0,0,0,0,0,0,0,0,0,0,0,0,0,0,0,0,0,0,0,0,0,0,0,0,0,0,0,0,0,0,0,0,0,0,0,0,0,0,0,0,0,0,0,1610613229,
2684355053,0,0,0,0,0,0,0,0,0,0,0,0,0,0,0,0,0,0,0,0,0,0,0,0,0,0,0,0,0,0,0,0,0,0,0,0,0,0,0,0,0,0,0,0,0,0,0,0,0,0,0,0,0,0,0,0,0,0,0,0,0,0,0,0,0,0,0,0,0,0,0,0,0,0,0,0,0,0,0,0,0,0,0,0,0,0,0,0,0,0,0,0,0,0,0,0,0,0,1610613229,
2684355053,0,0,0,0,0,0,0,0,0,0,0,0,0,0,0,0,0,0,0,0,0,0,0,0,0,0,0,0,0,0,0,0,0,0,0,0,0,0,0,0,0,0,0,0,0,0,0,0,0,0,0,0,0,0,0,0,0,0,0,0,0,0,0,0,0,0,0,0,0,0,0,0,0,0,0,0,0,0,0,0,0,0,0,0,0,0,0,0,0,0,0,0,0,0,0,0,0,0,1610613229,
2684355053,0,0,0,0,0,0,0,0,0,0,0,0,0,0,0,0,0,0,0,0,0,0,0,0,0,0,0,0,0,0,0,0,0,0,0,0,0,0,0,0,0,0,0,0,0,0,0,0,0,0,0,0,0,0,0,0,0,0,0,0,0,0,0,0,0,0,0,0,0,0,0,0,0,0,0,0,0,0,0,0,0,0,0,0,0,0,0,0,0,0,0,0,0,0,0,0,0,0,1610613229,
2684355053,0,0,0,0,0,0,0,0,0,0,0,0,0,0,0,0,0,0,0,0,0,0,0,0,0,0,0,0,0,0,0,0,0,0,0,0,0,0,0,0,0,0,0,0,0,0,0,0,0,0,0,0,0,0,0,0,0,0,0,0,0,0,0,0,0,0,0,0,0,0,0,0,0,0,0,0,0,0,0,0,0,0,0,0,0,0,0,0,0,0,0,0,0,0,0,0,0,0,1610613229,
2684355053,0,0,0,0,0,0,0,0,0,0,0,0,0,0,0,0,0,0,0,0,0,0,0,0,0,0,0,0,0,0,0,0,0,0,0,0,0,0,0,0,0,0,0,0,0,0,0,0,0,0,0,0,0,0,0,0,0,0,0,0,0,0,0,0,0,0,0,0,0,0,0,0,0,0,0,0,0,0,0,0,0,0,0,0,0,0,0,0,0,0,0,0,0,0,0,0,0,0,1610613229,
2684355053,0,0,0,0,0,0,0,0,0,0,0,0,0,0,0,0,0,0,0,0,0,0,0,0,0,0,0,0,0,0,0,0,0,0,0,0,0,0,0,0,0,0,0,0,0,0,0,0,0,0,0,0,0,0,0,0,0,0,0,0,0,0,0,0,0,0,0,0,0,0,0,0,0,0,0,0,0,0,0,0,0,0,0,0,0,0,0,0,0,0,0,0,0,0,0,0,0,0,1610613229,
2684355053,0,0,0,0,0,0,0,0,0,0,0,0,0,0,0,0,0,0,0,0,0,0,0,0,0,0,0,0,0,0,0,0,0,0,0,0,0,0,0,0,0,0,0,0,0,0,0,0,0,0,0,0,0,0,0,0,0,0,0,0,0,0,0,0,0,0,0,0,0,0,0,0,0,0,0,0,0,0,0,0,0,0,0,0,0,0,0,0,0,0,0,0,0,0,0,0,0,0,1610613229,
2684355053,0,0,0,0,0,0,0,0,0,0,0,0,0,0,0,0,0,0,0,0,0,0,0,0,0,0,0,0,0,0,0,0,0,0,0,0,0,0,0,0,0,0,0,0,0,0,0,0,0,0,0,0,0,0,0,0,0,0,0,0,0,0,0,0,0,0,0,0,0,0,0,0,0,0,0,0,0,0,0,0,0,0,0,0,0,0,0,0,0,0,0,0,0,0,0,0,0,0,1610613229,
2684355053,0,0,0,0,0,0,0,0,0,0,0,0,0,0,0,0,0,0,0,0,0,0,0,0,0,0,0,0,0,0,0,0,0,0,0,0,0,0,0,0,0,0,0,0,0,0,0,0,0,0,0,0,0,0,0,0,0,0,0,0,0,0,0,0,0,0,0,0,0,0,0,0,0,0,0,0,0,0,0,0,0,0,0,0,0,0,0,0,0,0,0,0,0,0,0,0,0,0,1610613229,
2684355053,0,0,0,0,0,0,0,0,0,0,0,0,0,0,0,0,0,0,0,0,0,0,0,0,0,0,0,0,0,0,0,0,0,0,0,0,0,0,0,0,0,0,0,0,0,0,0,0,0,0,0,0,0,0,0,0,0,0,0,0,0,0,0,0,0,0,0,0,0,0,0,0,0,0,0,0,0,0,0,0,0,0,0,0,0,0,0,0,0,0,0,0,0,0,0,0,0,0,1610613229,
2684355053,0,0,0,0,0,0,0,0,0,0,0,0,0,0,0,0,0,0,0,0,0,0,0,0,0,0,0,0,0,0,0,0,0,0,0,0,0,0,0,0,0,0,0,0,0,0,0,0,0,0,0,0,0,0,0,0,0,0,0,0,0,0,0,0,0,0,0,0,0,0,0,0,0,0,0,0,0,0,0,0,0,0,0,0,0,0,0,0,0,0,0,0,0,0,0,0,0,0,1610613229,
2684355053,0,0,0,0,0,0,0,0,0,0,0,0,0,0,0,0,0,0,0,0,0,0,0,0,0,0,0,0,0,0,0,0,0,0,0,0,0,0,0,0,0,0,0,0,0,0,0,0,0,0,0,0,0,0,0,0,0,0,0,0,0,0,0,0,0,0,0,0,0,0,0,0,0,0,0,0,0,0,0,0,0,0,0,0,0,0,0,0,0,0,0,0,0,0,0,0,0,0,1610613229,
2684355053,0,0,0,0,0,0,0,0,0,0,0,0,0,0,0,0,0,0,0,0,0,0,0,0,0,0,0,0,0,0,0,0,0,0,0,0,0,0,0,0,0,0,0,0,0,0,0,0,0,0,0,0,0,0,0,0,0,0,0,0,0,0,0,0,0,0,0,0,0,0,0,0,0,0,0,0,0,0,0,0,0,0,0,0,0,0,0,0,0,0,0,0,0,0,0,0,0,0,1610613229,
2684355053,0,0,0,0,0,0,0,0,0,0,0,0,0,0,0,0,0,0,0,0,0,0,0,0,0,0,0,0,0,0,0,0,0,0,0,0,0,0,0,0,0,0,0,0,0,0,0,0,0,0,0,0,0,0,0,0,0,0,0,0,0,0,0,0,0,0,0,0,0,0,0,0,0,0,0,0,0,0,0,0,0,0,0,0,0,0,0,0,0,0,0,0,0,0,0,0,0,0,1610613229,
2684355053,0,0,0,0,0,0,0,0,0,0,0,0,0,0,0,0,0,0,0,0,0,0,0,0,0,0,0,0,0,0,0,0,0,0,0,0,0,0,0,0,0,0,0,0,0,0,0,0,0,0,0,0,0,0,0,0,0,0,0,0,0,0,0,0,0,0,0,0,0,0,0,0,0,0,0,0,0,0,0,0,0,0,0,0,0,0,0,0,0,0,0,0,0,0,0,0,0,0,1610613229,
2684355053,0,0,0,0,0,0,0,0,0,0,0,0,0,0,0,0,0,0,0,0,0,0,0,0,0,0,0,0,0,0,0,0,0,0,0,0,0,0,0,0,0,0,0,0,0,0,0,0,0,0,0,0,0,0,0,0,0,0,0,0,0,0,0,0,0,0,0,0,0,0,0,0,0,0,0,0,0,0,0,0,0,0,0,0,0,0,0,0,0,0,0,0,0,0,0,0,0,0,1610613229,
2684355053,0,0,0,0,0,0,0,0,0,0,0,0,0,0,0,0,0,0,0,0,0,0,0,0,0,0,0,0,0,0,0,0,0,0,0,0,0,0,0,0,0,0,0,0,0,0,0,0,0,0,0,0,0,0,0,0,0,0,0,0,0,0,0,0,0,0,0,0,0,0,0,0,0,0,0,0,0,0,0,0,0,0,0,0,0,0,0,0,0,0,0,0,0,0,0,0,0,0,1610613229,
495,301,301,301,301,301,301,301,301,301,301,301,301,301,301,301,301,301,301,301,301,301,301,301,301,301,301,301,301,301,301,301,301,301,301,301,301,301,301,301,301,301,301,301,301,301,301,301,301,301,301,301,301,301,301,301,301,301,301,301,301,301,301,301,301,301,301,301,301,301,301,301,301,301,301,301,301,301,301,301,301,301,301,301,301,301,301,301,301,301,301,301,301,301,301,301,301,301,301,496
</data>
 </layer>
 <layer id="6" name="pont" width="100" height="100">
  <data encoding="csv">
0,0,0,0,0,0,0,0,0,0,0,0,0,0,0,0,0,0,0,0,0,0,0,0,0,0,0,0,0,0,0,0,0,0,0,0,0,0,0,0,0,0,0,0,0,0,0,0,0,0,0,0,0,0,0,0,0,0,0,0,0,0,0,0,0,0,0,0,0,0,0,0,0,0,0,0,0,0,0,0,0,0,0,0,0,0,0,0,0,0,0,0,0,0,0,0,0,0,0,0,
0,0,0,0,0,0,0,0,0,0,0,0,0,0,0,0,0,0,0,0,0,0,0,0,0,0,0,0,0,0,0,0,0,0,0,0,0,0,0,0,0,0,0,0,0,0,0,0,0,0,0,0,0,0,0,0,0,0,0,0,0,0,0,0,0,0,0,0,0,0,0,0,0,0,0,0,0,0,0,0,0,0,0,0,0,0,0,0,0,0,0,0,0,0,0,0,0,0,0,0,
0,0,0,0,0,0,0,0,0,0,0,0,0,0,0,0,0,0,0,0,0,0,0,0,0,0,0,0,0,0,0,0,0,0,0,0,0,0,0,0,0,0,0,0,0,0,0,0,0,0,0,0,0,0,0,0,0,0,0,0,0,0,0,0,0,0,0,0,0,0,0,0,0,0,0,0,0,0,0,0,0,0,0,0,0,0,0,0,0,0,0,0,0,0,0,0,0,0,0,0,
0,0,0,0,0,0,0,0,0,0,0,0,0,0,0,0,0,0,0,0,0,0,0,0,0,0,0,0,0,0,0,0,0,0,0,0,0,0,0,0,0,0,0,0,0,0,0,0,0,0,0,0,0,0,0,0,0,0,0,0,0,0,0,0,0,0,0,0,0,0,0,0,0,0,0,0,0,0,0,0,0,0,0,0,0,0,0,0,0,0,0,0,0,0,0,0,0,0,0,0,
0,0,0,0,0,0,0,0,0,0,0,0,0,0,0,0,0,0,0,0,0,0,0,0,0,0,0,0,0,0,0,0,0,0,0,0,0,0,0,0,0,0,0,0,0,0,0,0,0,0,0,0,0,0,0,0,0,0,0,0,0,0,0,0,0,0,0,0,0,0,0,0,0,0,0,0,0,0,0,0,0,0,0,0,0,0,0,0,0,0,0,0,0,0,0,0,0,0,0,0,
0,0,0,0,0,0,0,0,0,0,0,0,0,0,0,0,0,0,0,0,0,0,0,0,0,0,0,0,0,0,0,0,0,0,0,0,0,0,0,0,0,0,0,0,0,0,0,0,0,0,0,0,0,0,0,0,0,0,0,0,0,0,0,0,0,0,0,0,0,0,0,0,0,0,0,0,0,0,0,0,0,0,0,0,0,0,0,0,0,0,0,0,0,0,0,0,0,0,0,0,
0,0,0,0,0,0,0,0,0,0,0,0,0,0,0,0,0,0,0,0,0,0,0,0,0,0,0,0,0,0,0,0,0,0,0,0,0,0,0,0,0,0,0,0,0,0,0,0,0,0,0,0,0,0,0,0,0,0,0,0,0,0,0,0,0,0,0,0,0,0,0,0,0,0,0,0,0,0,0,0,0,0,0,0,0,0,0,0,0,0,0,0,0,0,0,0,0,0,0,0,
0,0,0,0,0,0,0,0,0,0,0,0,0,0,0,0,0,0,0,0,0,0,0,0,0,0,0,0,0,0,0,0,0,0,0,0,0,0,0,0,0,0,0,0,0,0,0,0,0,0,0,0,0,0,0,0,0,0,0,0,0,0,0,0,0,0,0,0,0,0,0,0,0,0,0,0,0,0,0,0,0,0,0,0,0,0,0,0,0,0,0,0,0,0,0,0,0,0,0,0,
0,0,0,0,0,0,0,0,0,0,0,0,0,0,0,0,0,0,0,0,0,0,0,0,0,0,0,0,0,0,0,0,0,0,0,0,0,0,0,0,0,0,0,0,0,0,0,0,0,0,0,0,0,0,0,0,0,0,0,0,0,0,0,0,0,0,0,0,0,0,0,0,0,0,0,0,0,0,0,0,0,0,0,0,0,0,0,0,0,0,0,0,0,0,0,0,0,0,0,0,
0,0,0,0,0,0,0,0,0,0,0,0,0,0,0,0,0,0,0,0,0,0,0,0,0,0,0,0,0,0,0,0,0,0,0,0,0,0,0,0,0,0,0,0,0,0,0,0,0,0,0,0,0,0,0,0,0,0,0,0,0,0,0,0,0,0,0,0,0,0,0,0,0,0,0,0,0,0,0,0,0,0,0,0,0,0,0,0,0,0,0,0,0,0,0,0,0,0,0,0,
0,0,0,0,0,0,0,0,0,0,0,0,0,0,0,0,0,0,0,0,0,0,0,0,0,0,0,0,0,0,0,0,0,0,0,0,0,0,0,0,0,0,0,0,0,0,0,0,0,0,0,0,0,0,0,0,0,0,0,0,0,0,0,0,0,0,0,0,0,0,0,0,0,0,0,0,0,0,0,0,0,0,0,0,0,0,0,0,0,0,0,0,0,0,0,0,0,0,0,0,
0,0,0,0,0,0,0,0,0,0,0,0,0,0,0,0,0,0,0,0,0,0,0,0,0,0,0,0,0,0,0,0,0,0,0,0,0,0,0,0,0,0,0,0,0,0,0,0,0,0,0,0,0,0,0,0,0,0,0,0,0,0,0,0,0,0,0,0,0,0,0,0,0,0,0,0,0,0,0,0,0,0,0,0,0,0,0,0,0,0,0,0,0,0,0,0,0,0,0,0,
0,0,0,0,0,0,0,0,0,0,0,0,0,0,0,0,0,0,0,0,0,0,0,0,0,0,0,0,0,0,0,0,0,0,0,0,0,0,0,0,0,0,0,0,0,0,0,0,0,0,0,0,0,0,0,0,0,0,0,0,0,0,0,0,0,0,0,0,0,0,0,0,0,0,0,0,0,0,0,0,0,0,0,0,0,0,0,0,0,0,0,0,0,0,0,0,0,0,0,0,
0,0,0,0,0,0,0,0,0,0,0,0,0,0,0,0,0,0,0,0,0,0,0,0,0,0,0,0,0,0,0,0,0,0,0,0,0,0,0,0,0,0,0,0,0,0,0,0,0,0,0,0,0,0,0,0,0,0,0,0,0,0,0,0,0,0,0,0,0,0,0,0,0,0,0,0,0,0,0,0,0,0,0,0,0,0,0,0,0,0,0,0,0,0,0,0,0,0,0,0,
0,0,0,0,0,0,0,0,0,0,0,0,0,0,0,0,0,0,0,0,0,0,0,0,0,0,0,0,0,0,0,0,0,0,0,0,0,0,0,0,0,0,0,0,0,0,0,0,0,0,0,0,0,0,0,0,0,0,0,0,0,0,0,0,0,0,0,0,0,0,0,0,0,0,0,0,0,0,0,0,0,0,0,0,0,0,0,0,0,0,0,0,0,0,0,0,0,0,0,0,
0,0,0,0,0,0,0,0,0,0,0,0,0,0,0,0,0,0,0,0,0,0,0,0,0,0,0,0,0,0,0,0,0,0,0,0,0,0,0,0,0,0,0,0,0,0,0,0,0,0,0,0,0,0,0,0,0,0,0,0,0,0,0,0,0,0,0,0,0,0,0,0,0,0,0,0,0,0,0,0,0,0,0,0,0,0,0,0,0,0,0,0,0,0,0,0,0,0,0,0,
0,0,0,0,0,0,0,0,0,0,0,0,0,0,0,0,0,0,0,0,0,0,0,0,0,0,0,0,0,0,0,0,0,0,0,0,0,0,0,0,0,0,0,0,0,0,0,0,0,0,0,0,0,0,0,0,0,0,0,0,0,0,0,0,0,0,0,0,0,0,0,0,0,0,0,0,0,0,0,0,0,0,0,0,0,0,0,0,0,0,0,0,0,0,0,0,0,0,0,0,
0,0,0,0,0,0,0,0,0,0,0,0,0,0,0,0,0,0,0,0,0,0,0,0,0,0,0,0,0,0,0,0,0,0,0,0,0,0,0,0,0,0,0,0,0,0,0,0,0,0,0,0,0,0,0,0,0,0,0,0,0,0,0,0,0,0,0,0,0,0,0,0,0,0,0,0,0,0,0,0,0,0,0,0,0,0,0,0,0,0,0,0,0,0,0,0,0,0,0,0,
0,0,0,0,0,0,0,0,0,0,0,0,0,0,0,0,0,0,0,0,0,0,0,0,0,0,0,0,0,0,0,0,0,0,0,0,0,0,0,0,0,0,0,0,0,0,0,0,0,0,0,0,0,0,0,0,0,0,0,0,0,0,0,0,0,0,0,0,0,0,0,0,0,0,0,0,0,0,0,0,0,0,0,0,0,0,0,0,0,0,0,0,0,0,0,0,0,0,0,0,
0,0,0,0,0,0,0,0,0,0,0,0,0,0,0,0,0,0,0,0,0,0,0,0,0,0,0,0,0,0,0,0,0,0,0,0,0,0,0,0,0,0,0,0,0,0,0,0,0,0,0,0,0,0,0,0,0,0,0,0,0,0,0,0,0,0,0,0,0,0,0,0,0,0,0,0,0,0,0,0,0,0,0,0,0,0,0,0,0,0,0,0,0,0,0,0,0,0,0,0,
0,0,0,0,0,0,0,0,0,0,0,0,0,0,0,0,0,0,0,0,0,0,0,0,0,0,0,0,0,0,0,0,0,0,0,0,0,0,0,0,0,0,0,0,0,0,0,0,0,0,0,0,0,0,0,0,0,0,0,0,0,0,0,0,0,0,0,0,0,0,0,0,0,0,0,0,0,0,0,0,0,0,0,0,0,0,0,0,0,0,0,0,0,0,0,0,0,0,0,0,
0,0,0,0,0,0,0,0,0,0,0,0,0,0,0,0,0,0,0,0,0,0,0,0,0,0,0,0,0,0,0,0,0,0,0,0,0,0,0,0,0,0,0,0,0,0,0,0,0,0,0,0,0,0,0,0,0,0,0,0,0,0,0,0,0,0,0,0,0,0,0,0,0,0,0,0,0,0,0,0,0,0,0,0,0,0,0,0,0,0,0,0,0,0,0,0,0,0,0,0,
0,0,0,0,0,0,0,0,0,0,0,0,0,0,0,0,0,0,0,0,0,0,0,0,0,0,0,0,0,0,0,0,0,0,0,0,0,0,0,0,0,0,0,0,0,0,0,0,0,0,0,0,0,0,0,0,0,0,0,0,0,0,0,0,0,0,0,0,0,0,0,0,0,0,0,0,0,0,0,0,0,0,0,0,0,0,0,0,0,0,0,0,0,0,0,0,0,0,0,0,
0,0,0,0,0,0,0,0,0,0,0,0,0,0,0,0,0,0,0,0,0,0,0,0,0,0,0,0,0,0,0,0,0,0,0,0,0,0,0,0,0,0,0,0,0,0,0,0,0,0,0,0,0,0,0,0,0,0,0,0,0,0,0,0,0,0,0,0,0,0,0,0,0,0,0,0,0,0,0,0,0,0,0,0,0,0,0,0,0,0,0,0,0,0,0,0,0,0,0,0,
0,0,0,0,0,0,0,0,0,0,0,0,0,0,0,0,0,0,0,0,0,0,0,0,0,0,0,0,0,0,0,0,0,0,0,0,0,0,0,0,0,0,0,0,0,0,0,0,0,0,0,0,0,0,0,0,0,0,0,0,0,0,0,0,0,0,0,0,0,0,0,0,0,0,0,0,0,0,0,0,0,0,0,0,0,0,0,0,0,0,0,0,0,0,0,0,0,0,0,0,
0,0,0,0,0,0,0,0,0,0,0,0,0,0,0,0,0,0,0,0,0,0,0,0,0,0,0,0,0,0,0,0,0,0,0,0,0,0,0,0,0,0,0,0,0,0,0,0,0,0,0,0,0,0,0,0,0,0,0,0,0,0,0,0,0,0,0,0,0,0,0,0,0,0,0,0,0,0,0,0,0,0,0,0,0,0,0,0,0,0,0,0,0,0,0,0,0,0,0,0,
0,0,0,0,0,0,0,0,0,0,0,0,0,0,0,0,0,0,0,0,0,0,0,0,0,0,0,0,0,0,0,0,0,0,0,0,0,0,0,0,0,0,0,0,0,0,0,0,0,0,0,0,0,0,0,0,0,0,0,0,0,0,0,0,0,0,0,0,0,0,0,0,0,0,0,0,0,0,0,0,0,0,0,0,0,0,0,0,0,0,0,0,0,0,0,0,0,0,0,0,
0,0,0,0,0,0,0,0,0,0,0,0,0,0,0,0,0,0,0,0,0,0,0,0,0,0,0,0,0,0,0,0,0,0,0,0,0,0,0,0,0,0,0,0,0,0,0,0,0,0,0,0,0,0,0,0,0,0,0,0,0,0,0,0,0,0,0,0,0,0,0,0,0,0,0,0,0,0,0,0,0,0,0,0,0,0,0,0,0,0,0,0,0,0,0,0,0,0,0,0,
0,0,0,0,0,0,0,0,0,0,0,0,0,0,0,0,0,0,0,0,0,0,0,0,0,0,0,0,0,0,0,0,0,0,0,0,0,0,0,0,0,0,0,0,0,0,0,0,0,0,0,0,0,0,0,0,0,0,0,0,0,0,0,0,0,0,0,0,0,0,0,0,0,0,0,0,0,0,0,0,0,0,0,0,0,0,0,0,0,0,0,0,0,0,0,0,0,0,0,0,
0,0,0,0,0,0,0,0,0,0,0,0,0,0,0,0,0,0,0,0,0,0,0,0,0,0,0,0,0,0,0,0,0,0,0,0,0,0,0,0,0,0,0,0,0,0,0,0,0,0,0,0,0,0,0,0,0,0,0,0,0,0,0,0,0,0,0,0,0,0,0,0,0,0,0,0,0,0,0,0,0,0,0,0,0,0,0,0,0,0,0,0,0,0,0,0,0,0,0,0,
0,0,0,0,0,0,0,0,0,0,0,0,0,0,0,0,0,0,0,0,0,0,0,0,0,0,0,0,0,0,0,0,0,0,0,0,0,0,0,0,0,0,0,0,0,0,0,0,0,0,0,0,0,0,0,0,0,0,0,0,0,0,0,0,0,0,0,0,0,0,0,0,0,0,0,0,0,0,0,0,0,0,0,0,0,0,0,0,0,0,0,0,0,0,0,0,0,0,0,0,
0,0,0,0,0,0,0,0,0,0,0,0,0,0,0,0,0,0,0,0,0,0,0,0,0,0,0,0,0,0,0,0,0,0,0,0,0,0,0,0,0,0,0,0,0,0,0,0,0,0,0,0,0,0,0,0,0,0,0,0,0,0,0,0,0,0,0,0,0,0,0,0,0,0,0,0,0,0,0,0,0,0,0,0,0,0,0,0,0,0,0,0,0,0,0,0,0,0,0,0,
0,0,0,0,0,0,0,0,0,0,0,0,0,0,0,0,0,0,0,0,0,0,0,0,0,0,0,0,0,0,0,0,0,0,0,0,0,0,0,0,0,0,0,0,0,0,0,0,0,0,0,0,0,0,0,0,0,0,0,0,0,0,0,0,0,0,0,0,0,0,0,0,0,0,0,0,0,0,0,0,0,0,0,0,0,0,0,0,0,0,0,0,0,0,0,0,0,0,0,0,
0,0,0,0,0,0,0,0,0,0,0,0,0,0,0,0,0,0,0,0,0,0,0,0,0,0,0,0,0,0,0,0,0,0,0,0,0,0,0,0,0,0,0,0,0,0,0,0,0,0,0,0,0,0,0,0,0,0,0,0,0,0,0,0,0,0,0,0,0,0,0,0,0,0,0,0,0,0,0,0,0,0,0,0,0,0,0,0,0,0,0,0,0,0,0,0,0,0,0,0,
0,0,0,0,0,0,0,0,0,0,0,0,0,0,0,0,0,0,0,0,0,0,0,0,0,0,0,0,0,0,0,0,0,0,0,0,0,0,0,0,0,0,0,0,0,0,0,0,0,0,0,0,0,0,0,0,0,0,0,0,0,0,0,0,0,0,0,0,0,0,0,0,0,0,0,0,0,0,0,0,0,0,0,0,0,0,0,0,0,0,0,0,0,0,0,0,0,0,0,0,
0,0,0,0,0,0,0,0,0,0,0,0,0,0,0,0,0,0,0,0,0,0,0,0,0,0,0,0,0,0,0,0,0,0,0,0,0,0,0,0,0,0,0,0,0,0,0,0,0,0,0,0,0,0,0,0,0,0,0,0,0,0,0,0,0,0,0,0,0,0,0,0,0,0,0,0,0,0,0,0,0,0,0,0,0,0,0,0,0,0,0,0,0,0,0,0,0,0,0,0,
0,0,0,0,0,0,0,0,0,0,0,0,0,0,0,0,0,0,0,0,0,0,0,0,0,0,0,0,0,0,0,0,0,0,0,0,0,0,0,0,0,0,0,0,0,0,0,0,0,0,0,0,0,0,0,0,0,0,0,0,0,0,0,0,0,0,0,0,0,0,0,0,0,0,0,0,0,0,0,0,0,0,0,0,0,0,0,0,0,0,0,0,0,0,0,0,0,0,0,0,
0,0,0,0,0,0,0,0,0,0,0,0,0,0,0,0,0,0,0,0,0,0,0,0,0,0,0,0,0,0,0,0,0,0,0,0,0,0,0,0,0,0,0,0,0,0,0,0,0,0,0,0,0,0,0,0,0,0,0,0,0,0,0,0,0,0,0,0,0,0,0,0,0,0,0,0,0,0,0,0,0,0,0,0,0,0,0,0,0,0,0,0,0,0,0,0,0,0,0,0,
0,0,0,0,0,0,0,0,0,0,0,0,0,0,0,0,0,0,0,0,0,0,0,0,0,0,0,0,0,0,0,0,0,0,0,0,0,0,0,0,0,0,0,0,0,0,0,0,0,0,0,0,0,0,0,0,0,0,0,0,0,0,0,0,0,0,0,0,0,0,0,0,0,0,0,0,0,0,0,0,0,0,0,0,0,0,0,0,0,0,0,0,0,0,0,0,0,0,0,0,
0,0,0,0,0,0,0,0,0,0,0,0,0,0,0,0,0,0,0,0,0,0,0,0,0,0,0,0,0,0,0,0,0,0,0,0,0,0,0,0,0,0,0,0,0,0,0,0,0,0,0,0,0,0,0,0,0,0,0,0,0,0,0,0,0,0,0,0,0,0,0,0,0,0,0,0,0,0,0,0,0,0,0,0,0,0,0,0,0,0,0,0,0,0,0,0,0,0,0,0,
0,0,0,0,0,0,0,0,0,0,0,0,0,0,0,0,0,0,0,0,0,0,0,0,0,0,0,0,0,0,0,0,0,0,0,0,0,0,0,0,0,0,0,0,0,0,0,0,0,0,0,0,0,0,0,0,0,0,0,0,0,0,0,0,0,0,0,0,0,0,0,0,0,0,0,0,0,0,0,0,0,0,0,0,0,0,0,0,0,0,0,0,0,0,0,0,0,0,0,0,
0,0,0,0,0,0,0,0,0,0,0,0,0,0,0,0,0,0,0,0,0,0,0,0,0,0,0,0,0,0,0,0,0,0,0,0,0,0,0,0,0,0,0,0,0,0,0,0,0,0,0,0,0,0,0,0,0,0,0,0,0,0,0,0,0,0,0,0,0,0,0,0,0,0,0,0,0,0,0,0,0,0,0,0,0,0,0,0,0,0,0,0,0,0,0,0,0,0,0,0,
0,0,0,0,0,0,0,0,0,0,0,0,0,0,0,0,0,0,0,0,0,0,0,0,0,0,0,0,0,0,0,0,0,0,0,0,0,0,0,0,0,0,0,0,0,0,0,0,0,0,0,0,0,0,0,0,0,0,0,0,0,0,0,0,0,0,0,0,0,0,0,0,0,0,0,0,0,0,0,0,0,0,0,0,0,0,0,0,0,0,0,0,0,0,0,0,0,0,0,0,
0,0,0,0,0,0,0,0,0,0,0,0,0,0,0,0,0,0,0,0,0,0,0,0,0,0,0,0,0,0,0,0,0,0,0,0,0,0,0,0,0,0,0,0,0,0,0,0,0,0,0,0,0,0,0,0,0,0,0,0,0,0,0,0,0,0,0,0,0,0,0,0,0,0,0,0,0,0,0,0,0,0,0,0,0,0,0,0,0,0,0,0,0,0,0,0,0,0,0,0,
0,0,0,0,0,0,0,0,0,0,0,0,0,0,0,0,0,0,0,0,0,0,0,0,0,0,0,0,0,0,0,0,0,0,0,0,0,0,0,0,0,0,0,0,0,0,0,0,0,0,0,0,0,0,0,0,0,0,0,0,0,0,0,0,0,0,0,0,0,0,0,0,0,0,0,0,0,0,0,0,0,0,0,0,0,0,0,0,0,0,0,0,0,0,0,0,0,0,0,0,
0,0,0,0,0,0,0,0,0,0,0,0,0,0,0,0,0,0,0,0,0,0,0,0,0,0,0,0,0,0,0,0,0,0,0,0,0,0,0,0,0,0,0,0,0,0,0,0,0,0,0,0,0,0,0,0,0,0,0,0,0,0,0,0,0,0,0,0,0,0,0,0,0,0,0,0,0,0,0,0,0,0,0,0,0,0,0,0,0,0,0,0,0,0,0,0,0,0,0,0,
0,0,0,0,0,0,0,0,0,0,0,0,0,0,0,0,0,0,0,0,0,0,0,0,0,0,0,0,0,0,0,0,0,0,0,0,0,0,0,0,0,0,0,0,0,0,0,0,0,0,0,0,0,0,0,0,0,0,0,0,0,0,0,0,0,0,0,0,0,0,0,0,0,0,0,0,0,0,0,0,0,0,0,0,0,0,0,0,0,0,0,0,0,0,0,0,0,0,0,0,
0,0,0,0,0,0,0,0,0,0,0,0,0,0,0,0,0,0,0,0,0,0,0,0,0,0,0,0,0,0,0,0,0,0,0,0,0,0,0,0,0,0,0,0,0,0,0,0,0,0,0,0,0,0,0,0,0,0,0,0,0,0,0,0,0,0,0,0,0,0,0,0,0,0,0,0,0,0,0,0,0,0,0,0,0,0,0,0,0,0,0,0,0,0,0,0,0,0,0,0,
0,0,0,0,0,0,0,0,0,0,0,0,0,0,0,0,0,0,0,0,0,0,0,0,0,0,0,0,0,0,0,0,0,0,0,0,0,0,0,0,0,0,0,0,0,0,0,0,0,0,0,0,0,0,0,0,0,0,0,0,0,0,0,0,0,0,0,0,0,0,0,0,0,0,0,0,0,0,0,0,0,0,0,0,0,0,0,0,0,0,0,0,0,0,0,0,0,0,0,0,
0,0,0,0,0,0,0,0,0,0,0,0,0,0,0,0,0,0,0,0,0,0,0,0,0,0,0,0,0,0,0,0,0,0,0,0,0,0,0,0,0,0,0,0,0,0,0,0,0,0,0,0,0,0,0,0,0,0,0,0,0,0,0,0,0,0,0,0,0,0,0,0,0,0,0,0,0,0,0,0,0,0,0,0,0,0,0,0,0,0,0,0,0,0,0,0,0,0,0,0,
0,0,0,0,0,0,0,0,0,0,0,0,0,0,0,0,0,0,0,0,0,0,0,0,0,0,0,0,0,0,0,0,0,0,0,0,0,0,0,0,0,0,0,0,0,0,0,0,0,0,0,0,0,0,0,0,0,0,0,0,0,0,0,0,0,0,0,0,0,0,0,0,0,0,0,0,0,0,0,0,0,0,0,0,0,0,0,0,0,0,0,0,0,0,0,0,0,0,0,0,
0,0,0,0,0,0,0,0,0,0,0,0,0,0,0,0,0,0,0,0,0,0,0,0,0,0,0,0,0,0,0,0,0,0,0,0,0,0,0,0,0,0,0,0,0,0,0,0,0,0,0,0,0,0,0,0,0,0,0,0,0,0,0,0,0,0,0,0,0,0,0,0,0,0,0,0,0,0,0,0,0,0,0,0,0,0,0,0,0,0,0,0,0,0,0,0,0,0,0,0,
0,0,0,0,0,0,0,0,0,0,0,0,0,0,0,0,0,0,0,0,0,0,0,0,0,0,0,0,0,0,0,0,0,0,0,0,0,0,0,0,0,0,0,0,0,0,0,0,0,0,0,0,0,0,0,0,0,0,0,0,0,0,0,0,0,0,0,0,0,0,0,0,0,0,0,0,0,0,0,0,0,0,0,0,0,0,0,0,0,0,0,0,0,0,0,0,0,0,0,0,
0,0,0,0,0,0,0,0,0,0,0,0,0,0,0,0,0,0,0,0,0,0,0,0,0,0,0,0,0,0,0,0,0,0,0,0,0,0,0,0,0,0,0,0,0,0,0,0,0,0,0,0,0,0,0,0,0,0,0,0,0,0,0,0,0,0,0,0,0,0,0,0,0,0,0,0,0,0,0,0,0,0,0,0,0,0,0,0,0,0,0,0,0,0,0,0,0,0,0,0,
0,0,0,0,0,0,0,0,0,0,0,0,0,0,0,0,0,0,0,0,0,0,0,0,0,0,0,0,0,0,0,0,0,0,0,0,0,0,0,0,0,0,0,0,0,0,0,0,0,0,0,0,0,0,0,0,0,0,0,0,0,0,0,0,0,0,0,0,0,0,0,0,0,0,0,0,0,0,0,0,0,0,0,0,0,0,0,0,0,0,0,0,0,0,0,0,0,0,0,0,
0,0,0,0,0,0,0,0,0,0,0,0,0,0,0,0,0,0,0,0,0,0,0,0,0,0,0,0,0,0,0,0,0,0,0,0,0,0,0,0,0,0,0,0,0,0,0,0,0,0,0,0,0,0,0,0,0,0,0,0,0,0,0,0,0,0,0,0,0,0,0,0,0,0,0,0,0,0,0,0,0,0,0,0,0,0,0,0,0,0,0,0,0,0,0,0,0,0,0,0,
0,0,0,0,0,0,0,0,0,0,0,0,0,0,0,0,0,0,0,0,0,0,0,0,0,0,0,0,0,0,0,0,0,0,0,0,0,0,0,0,0,0,0,0,0,0,0,0,0,0,0,0,0,0,0,0,0,0,0,0,0,0,0,0,0,0,0,0,0,0,0,0,0,0,0,0,0,0,0,0,0,0,0,0,0,0,0,0,0,0,0,0,0,0,0,0,0,0,0,0,
0,0,0,0,0,0,0,0,0,0,0,0,0,0,0,0,0,0,0,0,0,0,0,0,0,0,0,0,0,0,0,0,0,0,0,0,0,0,0,0,0,0,0,0,0,0,0,0,0,0,0,0,0,0,0,0,0,0,0,0,0,0,0,0,0,0,0,0,0,0,0,0,0,0,0,0,0,0,0,0,0,0,0,0,0,0,0,0,0,0,0,0,0,0,0,0,0,0,0,0,
0,0,0,0,0,0,0,0,0,0,0,0,0,0,0,0,0,0,0,0,0,0,0,0,0,0,0,0,0,0,0,0,0,0,0,0,0,0,0,0,0,0,0,0,0,0,0,0,0,0,0,0,0,0,0,0,0,0,0,0,0,0,0,0,0,0,0,0,0,0,0,0,0,0,0,0,0,0,0,0,0,0,0,0,0,0,0,0,0,0,0,0,0,0,0,0,0,0,0,0,
0,0,0,0,0,0,0,0,0,0,0,0,0,0,0,0,0,0,0,0,0,0,0,0,0,0,0,0,0,0,0,0,0,0,0,0,0,0,0,0,0,0,0,0,0,0,0,0,0,0,0,0,0,0,0,0,0,0,0,0,0,0,0,0,0,0,0,0,0,0,0,0,0,0,0,0,0,0,0,0,0,0,0,0,0,0,0,0,0,0,0,0,0,0,0,0,0,0,0,0,
0,0,0,0,0,0,0,0,0,0,0,0,0,0,0,0,0,0,0,0,0,0,0,0,0,0,0,0,0,0,0,0,0,0,0,0,0,0,0,0,0,0,0,0,0,0,0,0,0,0,0,0,0,0,0,0,0,0,0,0,0,0,0,0,0,0,0,0,0,0,0,0,0,0,0,0,0,0,0,0,0,0,0,0,0,0,0,0,0,0,0,0,0,0,0,0,0,0,0,0,
0,0,0,0,0,0,0,0,0,0,0,0,0,0,0,0,0,0,0,0,0,0,0,0,0,0,0,0,0,0,0,0,0,0,0,0,0,0,0,0,0,0,0,0,0,0,0,0,0,0,0,0,0,0,0,0,0,0,0,0,0,0,0,0,0,0,0,0,0,0,0,0,0,0,0,0,0,0,0,0,0,0,0,0,0,0,0,0,0,0,0,0,0,0,0,0,0,0,0,0,
0,0,0,0,0,0,0,0,0,0,0,0,0,0,0,0,0,0,0,0,0,0,0,0,0,0,0,0,0,0,0,0,0,0,0,0,0,0,0,0,0,0,0,0,0,0,0,0,0,0,0,0,0,0,0,0,0,0,0,0,0,0,0,0,0,0,0,0,0,0,0,0,0,0,0,0,0,0,0,0,0,0,0,0,0,0,0,0,0,0,0,0,0,0,0,0,0,0,0,0,
0,0,0,0,0,0,0,0,0,0,0,0,0,0,0,0,0,0,0,0,0,0,0,0,0,0,0,0,0,0,0,0,0,0,0,1512,1513,1513,1513,1513,1513,1513,1514,0,0,0,0,0,0,0,0,0,0,0,0,0,0,0,0,0,0,0,0,0,0,0,0,0,0,0,0,0,0,0,0,0,0,0,0,0,0,0,0,0,0,0,0,0,0,0,0,0,0,0,0,0,0,0,0,0,
0,0,0,0,0,0,0,0,0,0,0,0,0,0,0,0,0,0,0,0,0,0,0,0,0,0,0,0,0,0,0,0,0,0,0,1523,1524,1524,1524,1524,1524,1524,1525,0,0,0,0,0,0,0,0,0,0,0,0,0,0,0,0,0,0,0,0,0,0,0,0,0,0,0,0,0,0,0,0,0,0,0,0,0,0,0,0,0,0,0,0,0,0,0,0,0,0,0,0,0,0,0,0,0,
0,0,0,0,0,0,0,0,0,0,0,0,0,0,0,0,0,0,0,0,0,0,0,0,0,0,0,0,0,0,0,0,0,0,0,1534,0,0,0,0,0,0,1536,0,0,0,0,0,0,0,0,0,0,0,0,0,0,0,0,0,0,0,0,0,0,0,0,0,0,0,0,0,0,0,0,0,0,0,0,0,0,0,0,0,0,0,0,0,0,0,0,0,0,0,0,0,0,0,0,0,
0,0,0,0,0,0,0,0,0,0,0,0,0,0,0,0,0,0,0,0,0,0,0,0,0,0,0,0,0,0,0,0,0,0,0,0,0,0,0,0,0,0,0,0,0,0,0,0,0,0,0,0,0,0,0,0,0,0,0,0,0,0,0,0,0,0,0,0,0,0,0,0,0,0,0,0,0,0,0,0,0,0,0,0,0,0,0,0,0,0,0,0,0,0,0,0,0,0,0,0,
0,0,0,0,0,0,0,0,0,0,0,0,0,0,0,0,0,0,0,0,0,0,0,0,0,0,0,0,0,0,0,0,0,0,0,0,0,0,0,0,0,0,0,0,0,0,0,0,0,0,0,0,0,0,0,0,0,0,0,0,0,0,0,0,0,0,0,0,0,0,0,0,0,0,0,0,0,0,0,0,0,0,0,0,0,0,0,0,0,0,0,0,0,0,0,0,0,0,0,0,
0,0,0,0,0,0,0,0,0,0,0,0,0,0,0,0,0,0,0,0,0,0,0,0,0,0,0,0,0,0,0,0,0,0,0,0,0,0,0,0,0,0,0,0,0,0,0,0,0,0,0,0,0,0,0,0,0,0,0,0,0,0,0,0,0,0,0,0,0,0,0,0,0,0,0,0,0,0,0,0,0,0,0,0,0,0,0,0,0,0,0,0,0,0,0,0,0,0,0,0,
0,0,0,0,0,0,0,0,0,0,0,0,0,0,0,0,0,0,0,0,0,0,0,0,0,0,0,0,0,0,0,0,0,0,0,0,0,0,0,0,0,0,0,0,0,0,0,0,0,0,0,0,0,0,0,0,0,0,0,0,0,0,0,0,0,0,0,0,0,0,0,0,0,0,0,0,0,0,0,0,0,0,0,0,0,0,0,0,0,0,0,0,0,0,0,0,0,0,0,0,
0,0,0,0,0,0,0,0,0,0,0,0,0,0,0,0,0,0,0,0,0,0,0,0,0,0,0,0,0,0,0,0,0,0,0,0,0,0,0,0,0,0,0,0,0,0,0,0,0,0,0,0,0,0,0,0,0,0,0,0,0,0,0,0,0,0,0,0,0,0,0,0,0,0,0,0,0,0,0,0,0,0,0,0,0,0,0,0,0,0,0,0,0,0,0,0,0,0,0,0,
0,0,0,0,0,0,0,0,0,0,0,0,0,0,0,0,0,0,0,0,0,0,0,0,0,0,0,0,0,0,0,0,0,0,0,0,0,0,0,0,0,0,0,0,0,0,0,0,0,0,0,0,0,0,0,0,0,0,0,0,0,0,0,0,0,0,0,0,0,0,0,0,0,0,0,0,0,0,0,0,0,0,0,0,0,0,0,0,0,0,0,0,0,0,0,0,0,0,0,0,
0,0,0,0,0,0,0,0,0,0,0,0,0,0,0,0,0,0,0,0,0,0,0,0,0,0,0,0,0,0,0,0,0,0,0,0,0,0,0,0,0,0,0,0,0,0,0,0,0,0,0,0,0,0,0,0,0,0,0,0,0,0,0,0,0,0,0,0,0,0,0,0,0,0,0,0,0,0,0,0,0,0,0,0,0,0,0,0,0,0,0,0,0,0,0,0,0,0,0,0,
0,0,0,0,0,0,0,0,0,0,0,0,0,0,0,0,0,0,0,0,0,0,0,0,0,0,0,0,0,0,0,0,0,0,0,0,0,0,0,0,0,0,0,0,0,0,0,0,0,0,0,0,0,0,0,0,0,0,0,0,0,0,0,0,0,0,0,0,0,0,0,0,0,0,0,0,0,0,0,0,0,0,0,0,0,0,0,0,0,0,0,0,0,0,0,0,0,0,0,0,
0,0,0,0,0,0,0,0,0,0,0,0,0,0,0,0,0,0,0,0,0,0,0,0,0,0,0,0,0,0,0,0,0,0,0,0,0,0,0,0,0,0,0,0,0,0,0,0,0,0,0,0,0,0,0,0,0,0,0,0,0,0,0,0,0,0,0,0,0,0,0,0,0,0,0,0,0,0,0,0,0,0,0,0,0,0,0,0,0,0,0,0,0,0,0,0,0,0,0,0,
0,0,0,0,0,0,0,0,0,0,0,0,0,0,0,0,0,0,0,0,0,0,0,0,0,0,0,0,0,0,0,0,0,0,0,0,0,0,0,0,0,0,0,0,0,0,0,0,0,0,0,0,0,0,0,0,0,0,0,0,0,0,0,0,0,0,0,0,0,0,0,0,0,0,0,0,0,0,0,0,0,0,0,0,0,0,0,0,0,0,0,0,0,0,0,0,0,0,0,0,
0,0,0,0,0,0,0,0,0,0,0,0,0,0,0,0,0,0,0,0,0,0,0,0,0,0,0,0,0,0,0,0,0,0,0,0,0,0,0,0,0,0,0,0,0,0,0,0,0,0,0,0,0,0,0,0,0,0,0,0,0,0,0,0,0,0,0,0,0,0,0,0,0,0,0,0,0,0,0,0,0,0,0,0,0,0,0,0,0,0,0,0,0,0,0,0,0,0,0,0,
0,0,0,0,0,0,0,0,0,0,0,0,0,0,0,0,0,0,0,0,0,0,0,0,0,0,0,0,0,0,0,0,0,0,0,0,0,0,0,0,0,0,0,0,0,0,0,0,0,0,0,0,0,0,0,0,0,0,0,0,0,0,0,0,0,0,0,0,0,0,0,0,0,0,0,0,0,0,0,0,0,0,0,0,0,0,0,0,0,0,0,0,0,0,0,0,0,0,0,0,
0,0,0,0,0,0,0,0,0,0,0,0,0,0,0,0,0,0,0,0,0,0,0,0,0,0,0,0,0,0,0,0,0,0,0,0,0,0,0,0,0,0,0,0,0,0,0,0,0,0,0,0,0,0,0,0,0,0,0,0,0,0,0,0,0,0,0,0,0,0,0,0,0,0,0,0,0,0,0,0,0,0,0,0,0,0,0,0,0,0,0,0,0,0,0,0,0,0,0,0,
0,0,0,0,0,0,0,0,0,0,0,0,0,0,0,0,0,0,0,0,0,0,0,0,0,0,0,0,0,0,0,0,0,0,0,0,0,0,0,0,0,0,0,0,0,0,0,0,0,0,0,0,0,0,0,0,0,0,0,0,0,0,0,0,0,0,0,0,0,0,0,0,0,0,0,0,0,0,0,0,0,0,0,0,0,0,0,0,0,0,0,0,0,0,0,0,0,0,0,0,
0,0,0,0,0,0,0,0,0,0,0,0,0,0,0,0,0,0,0,0,0,0,0,0,0,0,0,0,0,0,0,0,0,0,0,0,0,0,0,0,0,0,0,0,0,0,0,0,0,0,0,0,0,0,0,0,0,0,0,0,0,0,0,0,0,0,0,0,0,0,0,0,0,0,0,0,0,0,0,0,0,0,0,0,0,0,0,0,0,0,0,0,0,0,0,0,0,0,0,0,
0,0,0,0,0,0,0,0,0,0,0,0,0,0,0,0,0,0,0,0,0,0,0,0,0,0,0,0,0,0,0,0,0,0,0,0,0,0,0,0,0,0,0,0,0,0,0,0,0,0,0,0,0,0,0,0,0,0,0,0,0,0,0,0,0,0,0,0,0,0,0,0,0,0,0,0,0,0,0,0,0,0,0,0,0,0,0,0,0,0,0,0,0,0,0,0,0,0,0,0,
0,0,0,0,0,0,0,0,0,0,0,0,0,0,0,0,0,0,0,0,0,0,0,0,0,0,0,0,0,0,0,0,0,0,0,0,0,0,0,0,0,0,0,0,0,0,0,0,0,0,0,0,0,0,0,0,0,0,0,0,0,0,0,0,0,0,0,0,0,0,0,0,0,0,0,0,0,0,0,0,0,0,0,0,0,0,0,0,0,0,0,0,0,0,0,0,0,0,0,0,
0,0,0,0,0,0,0,0,0,0,0,0,0,0,0,0,0,0,0,0,0,0,0,0,0,0,0,0,0,0,0,0,0,0,0,0,0,0,0,0,0,0,0,0,0,0,0,0,0,0,0,0,0,0,0,0,0,0,0,0,0,0,0,0,0,0,0,0,0,0,0,0,0,0,0,0,0,0,0,0,0,0,0,0,0,0,0,0,0,0,0,0,0,0,0,0,0,0,0,0,
0,0,0,0,0,0,0,0,0,0,0,0,0,0,0,0,0,0,0,0,0,0,0,0,0,0,0,0,0,0,0,0,0,0,0,0,0,0,0,0,0,0,0,0,0,0,0,0,0,0,0,0,0,0,0,0,0,0,0,0,0,0,0,0,0,0,0,0,0,0,0,0,0,0,0,0,0,0,0,0,0,0,0,0,0,0,0,0,0,0,0,0,0,0,0,0,0,0,0,0,
0,0,0,0,0,0,0,0,0,0,0,0,0,0,0,0,0,0,0,0,0,0,0,0,0,0,0,0,0,0,0,0,0,0,0,0,0,0,0,0,0,0,0,0,0,0,0,0,0,0,0,0,0,0,0,0,0,0,0,0,0,0,0,0,0,0,0,0,0,0,0,0,0,0,0,0,0,0,0,0,0,0,0,0,0,0,0,0,0,0,0,0,0,0,0,0,0,0,0,0,
0,0,0,0,0,0,0,0,0,0,0,0,0,0,0,0,0,0,0,0,0,0,0,0,0,0,0,0,0,0,0,0,0,0,0,0,0,0,0,0,0,0,0,0,0,0,0,0,0,0,0,0,0,0,0,0,0,0,0,0,0,0,0,0,0,0,0,0,0,0,0,0,0,0,0,0,0,0,0,0,0,0,0,0,0,0,0,0,0,0,0,0,0,0,0,0,0,0,0,0,
0,0,0,0,0,0,0,0,0,0,0,0,0,0,0,0,0,0,0,0,0,0,0,0,0,0,0,0,0,0,0,0,0,0,0,0,0,0,0,0,0,0,0,0,0,0,0,0,0,0,0,0,0,0,0,0,0,0,0,0,0,0,0,0,0,0,0,0,0,0,0,0,0,0,0,0,0,0,0,0,0,0,0,0,0,0,0,0,0,0,0,0,0,0,0,0,0,0,0,0,
0,0,0,0,0,0,0,0,0,0,0,0,0,0,0,0,0,0,0,0,0,0,0,0,0,0,0,0,0,0,0,0,0,0,0,0,0,0,0,0,0,0,0,0,0,0,0,0,0,0,0,0,0,0,0,0,0,0,0,0,0,0,0,0,0,0,0,0,0,0,0,0,0,0,0,0,0,0,0,0,0,0,0,0,0,0,0,0,0,0,0,0,0,0,0,0,0,0,0,0,
0,0,0,0,0,0,0,0,0,0,0,0,0,0,0,0,0,0,0,0,0,0,0,0,0,0,0,0,0,0,0,0,0,0,0,0,0,0,0,0,0,0,0,0,0,0,0,0,0,0,0,0,0,0,0,0,0,0,0,0,0,0,0,0,0,0,0,0,0,0,0,0,0,0,0,0,0,0,0,0,0,0,0,0,0,0,0,0,0,0,0,0,0,0,0,0,0,0,0,0,
0,0,0,0,0,0,0,0,0,0,0,0,0,0,0,0,0,0,0,0,0,0,0,0,0,0,0,0,0,0,0,0,0,0,0,0,0,0,0,0,0,0,0,0,0,0,0,0,0,0,0,0,0,0,0,0,0,0,0,0,0,0,0,0,0,0,0,0,0,0,0,0,0,0,0,0,0,0,0,0,0,0,0,0,0,0,0,0,0,0,0,0,0,0,0,0,0,0,0,0,
0,0,0,0,0,0,0,0,0,0,0,0,0,0,0,0,0,0,0,0,0,0,0,0,0,0,0,0,0,0,0,0,0,0,0,0,0,0,0,0,0,0,0,0,0,0,0,0,0,0,0,0,0,0,0,0,0,0,0,0,0,0,0,0,0,0,0,0,0,0,0,0,0,0,0,0,0,0,0,0,0,0,0,0,0,0,0,0,0,0,0,0,0,0,0,0,0,0,0,0,
0,0,0,0,0,0,0,0,0,0,0,0,0,0,0,0,0,0,0,0,0,0,0,0,0,0,0,0,0,0,0,0,0,0,0,0,0,0,0,0,0,0,0,0,0,0,0,0,0,0,0,0,0,0,0,0,0,0,0,0,0,0,0,0,0,0,0,0,0,0,0,0,0,0,0,0,0,0,0,0,0,0,0,0,0,0,0,0,0,0,0,0,0,0,0,0,0,0,0,0,
0,0,0,0,0,0,0,0,0,0,0,0,0,0,0,0,0,0,0,0,0,0,0,0,0,0,0,0,0,0,0,0,0,0,0,0,0,0,0,0,0,0,0,0,0,0,0,0,0,0,0,0,0,0,0,0,0,0,0,0,0,0,0,0,0,0,0,0,0,0,0,0,0,0,0,0,0,0,0,0,0,0,0,0,0,0,0,0,0,0,0,0,0,0,0,0,0,0,0,0,
0,0,0,0,0,0,0,0,0,0,0,0,0,0,0,0,0,0,0,0,0,0,0,0,0,0,0,0,0,0,0,0,0,0,0,0,0,0,0,0,0,0,0,0,0,0,0,0,0,0,0,0,0,0,0,0,0,0,0,0,0,0,0,0,0,0,0,0,0,0,0,0,0,0,0,0,0,0,0,0,0,0,0,0,0,0,0,0,0,0,0,0,0,0,0,0,0,0,0,0,
0,0,0,0,0,0,0,0,0,0,0,0,0,0,0,0,0,0,0,0,0,0,0,0,0,0,0,0,0,0,0,0,0,0,0,0,0,0,0,0,0,0,0,0,0,0,0,0,0,0,0,0,0,0,0,0,0,0,0,0,0,0,0,0,0,0,0,0,0,0,0,0,0,0,0,0,0,0,0,0,0,0,0,0,0,0,0,0,0,0,0,0,0,0,0,0,0,0,0,0,
0,0,0,0,0,0,0,0,0,0,0,0,0,0,0,0,0,0,0,0,0,0,0,0,0,0,0,0,0,0,0,0,0,0,0,0,0,0,0,0,0,0,0,0,0,0,0,0,0,0,0,0,0,0,0,0,0,0,0,0,0,0,0,0,0,0,0,0,0,0,0,0,0,0,0,0,0,0,0,0,0,0,0,0,0,0,0,0,0,0,0,0,0,0,0,0,0,0,0,0,
0,0,0,0,0,0,0,0,0,0,0,0,0,0,0,0,0,0,0,0,0,0,0,0,0,0,0,0,0,0,0,0,0,0,0,0,0,0,0,0,0,0,0,0,0,0,0,0,0,0,0,0,0,0,0,0,0,0,0,0,0,0,0,0,0,0,0,0,0,0,0,0,0,0,0,0,0,0,0,0,0,0,0,0,0,0,0,0,0,0,0,0,0,0,0,0,0,0,0,0,
0,0,0,0,0,0,0,0,0,0,0,0,0,0,0,0,0,0,0,0,0,0,0,0,0,0,0,0,0,0,0,0,0,0,0,0,0,0,0,0,0,0,0,0,0,0,0,0,0,0,0,0,0,0,0,0,0,0,0,0,0,0,0,0,0,0,0,0,0,0,0,0,0,0,0,0,0,0,0,0,0,0,0,0,0,0,0,0,0,0,0,0,0,0,0,0,0,0,0,0,
0,0,0,0,0,0,0,0,0,0,0,0,0,0,0,0,0,0,0,0,0,0,0,0,0,0,0,0,0,0,0,0,0,0,0,0,0,0,0,0,0,0,0,0,0,0,0,0,0,0,0,0,0,0,0,0,0,0,0,0,0,0,0,0,0,0,0,0,0,0,0,0,0,0,0,0,0,0,0,0,0,0,0,0,0,0,0,0,0,0,0,0,0,0,0,0,0,0,0,0
</data>
 </layer>
</map>
