<?xml version="1.0" encoding="UTF-8"?>
<map version="1.10" tiledversion="1.11.2" orientation="orthogonal" renderorder="right-down" width="40" height="40" tilewidth="16" tileheight="16" infinite="0" nextlayerid="8" nextobjectid="28">
 <tileset firstgid="1" source="Tilemap Dungeon original size.tsx"/>
 <tileset firstgid="601" source="Death animation.tsx"/>
 <tileset firstgid="617" source="../tileset/garden.tsx"/>
 <group id="5" name="object">
  <objectgroup id="6" name="collisions">
   <object id="1" name="collision" x="16" y="16" width="304" height="48"/>
   <object id="2" name="collision" x="288" y="0" width="32" height="32"/>
   <object id="4" name="collision" x="352" y="0" width="16" height="64"/>
   <object id="5" name="collision" x="336" y="16" width="288" height="48"/>
   <object id="6" name="collision" x="560" y="64" width="16" height="16"/>
   <object id="8" name="collision" x="608" y="16" width="16" height="608"/>
   <object id="9" name="collision" x="560" y="336" width="64" height="64"/>
   <object id="10" name="collision" x="16" y="608" width="608" height="16"/>
   <object id="11" name="collision" x="16" y="16" width="16" height="592"/>
   <object id="15" name="collision" x="16" y="224" width="64" height="64"/>
   <object id="16" name="collision" x="80" y="160" width="16" height="32"/>
   <object id="17" name="collision" x="144" y="96" width="16" height="32"/>
   <object id="18" name="collision" x="512" y="432" width="16" height="32"/>
   <object id="19" name="collision" x="576" y="496" width="16" height="16"/>
   <object id="20" name="collision" x="544" y="512" width="16" height="16"/>
   <object id="22" name="collision1" x="464" y="528" width="64" height="64"/>
   <object id="23" name="collision1" x="528" y="544" width="64" height="48"/>
   <object id="26" name="collision1" x="560" y="528" width="32" height="64"/>
  </objectgroup>
  <objectgroup id="7" name="Interface">
   <object id="27" name="spawn map2 1" x="336" y="16">
    <point/>
   </object>
  </objectgroup>
 </group>
 <group id="4" name="tiled">
  <layer id="1" name="sol" width="40" height="40">
   <data encoding="csv">
0,0,0,0,0,0,0,0,0,0,0,0,0,0,0,0,0,0,0,0,0,0,0,0,0,0,0,0,0,0,0,0,0,0,0,0,0,22,23,24,
0,0,0,0,0,0,0,0,0,0,0,0,0,0,0,0,0,0,0,0,0,0,0,0,0,0,0,0,0,0,0,0,0,0,0,0,0,0,0,40,
0,0,0,0,0,0,0,0,0,0,0,0,0,0,0,0,0,0,0,0,0,0,0,0,0,0,0,0,0,0,0,0,0,0,0,0,0,0,0,70,
0,0,0,0,0,0,0,0,0,0,0,0,0,0,0,0,0,0,0,0,0,0,0,0,0,0,0,0,0,0,0,0,0,0,0,0,0,0,0,100,
0,0,0,0,0,0,0,0,0,0,0,0,0,0,0,0,0,0,0,0,0,0,0,0,0,0,0,0,0,0,0,0,0,0,0,0,0,0,0,130,
0,0,0,196,197,198,199,200,201,202,203,204,196,197,198,199,200,201,202,203,204,196,197,198,199,200,201,202,203,204,196,197,198,199,200,201,202,0,0,160,
0,0,0,196,197,198,199,200,201,202,203,204,196,197,198,199,200,201,202,203,204,196,197,198,199,200,201,202,203,204,196,197,198,199,200,201,202,0,0,190,
0,0,0,196,197,198,199,200,201,202,203,204,196,197,198,199,200,201,202,203,204,196,197,198,199,200,201,202,203,204,196,197,198,199,200,201,202,0,0,220,
0,0,0,196,197,198,199,195,201,202,203,204,196,197,198,199,200,201,202,203,195,196,197,198,199,200,201,202,203,204,196,197,198,199,200,201,202,0,0,250,
0,0,0,196,197,198,199,200,201,202,203,204,196,197,198,199,200,201,202,203,204,196,197,198,199,200,201,202,203,204,196,197,198,199,195,201,202,0,0,280,
0,0,0,196,197,198,199,200,201,202,203,204,196,197,198,199,200,201,202,203,204,196,197,198,199,200,201,202,203,204,196,197,198,199,200,201,202,0,0,310,
0,0,0,196,197,198,199,200,201,202,203,204,196,197,198,199,200,201,202,203,204,196,197,198,199,200,201,202,203,204,196,197,198,199,200,201,202,0,0,340,
0,0,0,196,197,198,199,200,201,202,203,204,196,197,198,199,200,201,202,203,204,196,197,198,199,200,201,202,203,204,196,197,198,199,200,201,202,0,0,370,
0,0,0,196,197,198,199,200,201,202,203,204,196,197,198,199,200,201,202,203,204,196,197,198,199,200,201,202,203,204,196,197,198,199,200,201,202,0,0,40,
0,0,0,196,197,198,199,200,201,202,203,204,196,197,198,199,195,201,202,203,204,196,197,198,199,200,201,202,203,204,196,197,198,199,200,201,202,0,0,70,
0,0,0,196,197,198,199,200,201,202,203,204,196,197,198,199,200,201,202,203,204,196,197,198,199,200,201,195,203,204,196,197,198,199,200,201,202,0,0,100,
0,0,0,196,197,198,199,200,436,437,437,438,437,438,437,438,437,437,437,437,437,437,437,437,437,437,437,438,437,437,438,436,198,199,200,201,202,0,0,130,
0,0,0,196,197,198,199,200,495,498,498,498,498,498,498,498,498,498,498,498,498,498,498,498,498,498,498,498,498,498,498,501,198,199,200,201,202,0,0,160,
0,0,0,196,197,198,199,195,525,526,498,498,498,498,498,498,498,498,498,498,498,498,498,498,498,498,498,498,498,498,529,531,198,199,200,201,202,0,0,190,
0,0,0,196,197,198,199,200,201,525,526,498,498,498,498,498,498,498,498,498,498,498,498,498,498,498,498,498,498,529,559,197,198,199,200,201,202,0,0,220,
0,0,0,196,197,198,199,200,201,202,525,526,498,498,498,498,498,498,498,498,498,498,498,498,498,498,498,498,529,559,196,197,198,199,200,201,202,0,0,250,
0,0,0,196,197,198,199,200,201,202,203,525,526,498,498,498,498,498,498,498,498,498,498,498,498,498,498,529,559,204,196,197,198,199,200,201,202,0,0,280,
0,0,0,196,197,198,199,200,201,202,203,204,525,526,498,498,498,498,498,498,498,498,498,498,498,498,529,559,203,195,196,197,198,199,200,201,202,0,0,310,
0,0,0,196,197,198,199,200,201,202,203,204,196,525,526,498,498,498,498,498,498,498,498,498,498,529,559,202,203,204,196,197,198,199,200,201,202,0,0,340,
0,0,0,196,197,198,199,200,201,202,203,204,196,197,525,526,498,498,498,498,498,498,498,498,529,559,201,202,203,204,196,197,198,199,200,201,202,0,0,370,
0,0,0,196,197,198,199,200,201,202,203,204,196,197,198,525,526,498,498,498,498,498,498,529,559,200,201,202,203,204,196,197,198,199,200,201,202,0,0,40,
0,0,0,196,197,195,199,200,201,202,203,204,196,197,198,199,525,526,498,498,498,498,529,559,199,200,201,202,203,204,196,197,198,199,200,201,202,0,0,70,
0,0,0,196,197,198,199,200,201,202,203,204,196,197,198,199,200,525,526,498,498,529,559,198,199,200,201,202,203,204,196,197,198,199,200,201,202,0,0,100,
0,0,0,196,197,198,199,200,201,202,203,204,196,197,198,199,200,201,557,558,558,559,197,198,199,200,201,202,203,204,196,197,198,199,200,201,202,0,0,40,
0,0,0,196,197,198,199,200,201,202,203,204,196,197,198,199,200,201,202,203,204,196,197,198,199,200,201,202,203,204,196,197,198,199,200,201,202,0,0,70,
0,0,0,196,197,198,199,436,437,438,438,204,196,197,198,199,200,201,202,203,204,196,197,198,199,200,201,202,203,204,196,197,198,199,200,201,202,0,0,100,
0,0,0,196,197,198,436,466,467,498,498,501,196,197,198,199,200,201,202,203,204,196,197,198,199,200,201,202,203,204,196,197,198,199,200,201,202,0,0,130,
0,0,0,196,197,198,466,467,498,498,498,501,196,197,198,199,200,201,202,203,204,196,197,198,199,200,201,202,203,204,196,197,198,199,200,201,202,0,0,160,
0,0,0,196,197,198,526,527,527,528,529,531,196,197,198,199,200,201,202,203,204,196,197,198,199,200,201,202,203,0,0,0,0,199,200,0,0,0,0,190,
0,0,0,196,197,198,199,558,558,558,203,204,196,197,198,199,200,201,202,203,204,196,197,198,199,200,201,202,203,0,0,0,0,0,0,0,0,0,0,220,
0,0,0,196,197,198,199,200,195,202,203,204,196,197,198,199,200,201,202,203,204,196,197,198,199,200,201,202,203,0,0,0,0,0,0,0,0,0,0,250,
0,0,0,196,197,198,199,200,201,202,203,204,196,197,198,199,200,201,202,203,204,196,197,198,199,200,201,202,203,0,0,0,0,0,0,0,0,0,0,280,
0,0,0,196,197,198,199,200,201,202,203,204,196,197,198,199,200,201,202,203,204,196,197,198,199,200,201,202,203,204,196,197,198,199,200,201,202,0,0,310,
0,0,0,0,0,0,0,0,0,0,0,0,0,0,0,0,0,0,0,0,0,0,0,0,0,0,0,0,0,0,0,0,0,0,0,0,0,0,0,340,
0,0,0,0,0,0,0,0,0,0,0,0,0,0,0,0,0,0,0,0,0,0,0,0,0,0,0,0,0,0,0,0,0,0,0,0,0,24,25,370
</data>
  </layer>
  <layer id="2" name="mur" width="40" height="40">
   <data encoding="csv">
10,11,12,13,14,15,16,17,18,19,20,21,22,23,24,22,23,24,52,53,54,55,48,10,11,10,11,12,13,14,15,16,17,18,19,20,21,0,0,0,
40,71,72,152,7,8,9,155,155,155,74,7,8,9,78,152,152,73,82,83,84,85,78,79,80,81,82,155,155,155,7,8,9,155,155,86,87,88,89,0,
70,101,102,182,37,38,39,185,185,185,104,37,38,39,108,182,182,103,112,113,114,115,108,109,110,111,112,185,185,185,37,38,39,185,185,116,117,118,119,0,
100,131,132,212,67,68,69,215,215,215,134,67,68,69,138,212,212,133,142,143,144,145,138,139,140,141,142,215,215,215,67,68,69,215,215,146,147,148,149,0,
130,161,162,242,97,98,99,245,245,245,164,97,98,99,168,242,242,163,172,173,174,175,168,169,170,171,172,245,245,245,97,98,99,245,245,176,177,178,179,0,
160,191,192,0,0,0,0,0,0,0,0,0,0,0,0,0,0,0,0,0,0,0,0,0,0,0,0,0,0,0,0,0,0,0,0,0,0,178,179,0,
190,431,432,0,0,0,0,0,0,263,0,0,0,0,0,0,0,0,0,0,0,0,0,0,0,0,0,0,0,0,346,347,0,0,0,0,0,208,209,0,
220,461,462,0,0,0,0,0,0,293,0,0,0,0,0,0,0,0,0,0,0,0,0,0,0,0,0,0,0,0,0,346,347,0,0,0,0,444,445,0,
250,221,222,0,0,0,0,0,0,0,0,0,0,0,0,0,0,0,0,0,0,0,0,0,0,0,0,0,0,0,0,0,0,0,0,0,0,474,475,0,
280,191,192,0,0,0,0,0,0,0,0,0,0,0,0,0,0,0,0,0,0,0,0,0,0,0,0,0,346,347,0,0,0,0,0,0,0,504,505,0,
310,221,222,0,0,263,0,0,0,0,0,0,0,0,0,0,0,0,0,0,0,0,0,0,0,0,0,0,0,0,0,0,0,0,0,0,0,268,269,0,
340,191,192,0,0,293,0,0,0,0,0,0,0,0,0,0,0,0,0,0,0,0,0,0,0,0,0,0,0,0,0,0,0,0,0,0,0,178,179,0,
370,221,222,0,0,0,0,0,0,0,0,0,0,0,0,0,0,0,0,0,0,0,0,0,0,0,0,0,0,0,0,0,0,0,0,0,0,208,209,0,
40,191,192,0,0,0,0,0,0,0,0,0,0,0,0,0,0,0,0,0,0,0,0,0,0,0,0,0,0,0,0,0,0,0,0,0,0,238,239,0,
70,251,252,253,254,255,0,0,0,0,0,0,0,0,0,0,0,0,0,0,0,0,0,0,0,0,0,0,0,0,0,0,0,0,0,0,0,268,269,0,
100,281,282,283,284,216,0,0,0,0,0,0,0,0,0,0,0,0,0,0,0,0,0,0,0,0,0,0,0,0,0,0,0,0,0,0,0,178,179,0,
130,311,312,313,314,216,0,0,0,0,0,0,0,0,0,0,0,0,0,0,0,0,0,0,0,0,0,0,0,0,0,0,0,0,0,0,0,444,445,0,
160,461,462,314,313,216,0,0,0,0,0,0,0,0,0,0,0,0,0,0,0,0,0,0,0,0,0,0,0,0,0,0,0,0,0,0,0,474,475,0,
190,221,222,242,245,375,0,0,0,0,0,0,0,0,0,0,0,0,0,0,0,0,0,0,0,0,0,0,0,0,0,0,0,0,0,0,0,504,505,0,
220,191,192,0,0,0,0,0,0,0,0,0,0,0,0,0,0,0,0,0,0,0,0,0,0,0,0,0,0,0,0,0,0,0,0,0,0,178,179,0,
250,221,222,0,0,0,0,0,0,0,0,0,0,0,0,0,0,0,0,0,0,0,0,0,0,0,0,0,0,0,0,0,0,0,0,0,0,208,209,0,
280,191,192,0,0,0,0,0,0,0,0,0,0,0,0,0,0,0,0,0,0,0,0,0,0,0,0,0,0,0,0,0,0,0,121,122,123,124,239,0,
310,221,222,0,0,0,0,0,0,0,0,0,0,0,0,0,0,0,0,0,0,0,0,0,0,0,0,0,0,0,0,0,0,0,151,152,153,154,269,0,
340,191,192,0,0,0,0,0,0,0,0,0,0,0,0,0,0,0,0,0,0,0,0,0,0,0,0,0,0,0,0,0,0,0,181,182,183,184,179,0,
370,221,222,0,0,0,0,0,0,0,0,0,0,0,0,0,0,0,0,0,0,0,0,0,0,0,0,0,0,0,0,0,0,0,211,212,213,214,209,0,
40,191,192,0,0,0,0,0,0,0,0,0,0,0,0,0,0,0,0,0,0,0,0,0,0,0,0,0,0,0,0,0,0,0,241,177,177,178,239,0,
70,431,432,0,0,0,0,0,0,0,0,0,0,0,0,0,0,0,0,0,0,0,0,0,0,0,0,0,0,0,0,0,0,0,0,0,0,444,445,0,
100,461,462,0,0,0,0,0,0,0,0,0,0,0,0,0,0,0,0,0,0,0,0,0,0,0,0,0,0,0,0,0,263,0,0,0,0,474,475,0,
40,221,222,0,0,0,0,0,0,0,0,0,0,0,0,0,0,0,0,0,0,0,0,0,0,0,0,0,0,0,0,0,293,0,0,0,0,504,505,0,
70,191,192,0,0,0,0,0,0,0,0,0,0,0,0,0,0,0,0,0,0,0,0,0,0,0,0,0,0,0,0,0,0,0,0,0,0,238,239,0,
100,221,222,0,0,0,0,0,0,0,0,0,0,0,0,0,0,0,0,0,0,0,0,0,0,0,0,0,0,0,0,0,0,0,0,0,0,268,269,0,
130,191,192,0,0,0,0,0,0,0,0,0,0,0,0,0,0,0,0,0,346,347,0,0,0,0,0,0,0,0,0,0,0,0,0,0,0,208,209,0,
160,221,222,0,0,0,0,0,0,0,0,0,0,0,0,0,0,0,0,0,0,0,0,0,0,0,0,0,0,0,0,0,0,0,0,0,0,238,239,0,
190,191,192,0,0,0,0,0,0,0,0,0,0,0,0,0,0,0,0,0,0,0,0,0,0,0,0,0,0,0,0,0,0,0,0,0,0,268,269,0,
220,221,222,0,0,0,0,0,0,0,0,0,0,0,0,0,0,0,0,0,0,0,0,0,0,0,0,0,0,0,0,0,0,0,0,0,0,178,179,0,
250,191,192,0,0,0,0,0,0,0,0,0,0,0,0,0,0,0,0,0,0,0,0,0,346,347,0,0,0,0,0,0,0,0,0,0,0,208,209,0,
280,221,222,0,0,0,0,0,0,0,0,0,0,0,0,0,0,0,0,0,0,0,0,0,0,0,0,0,0,0,0,0,0,0,0,0,0,238,239,0,
310,221,222,0,0,0,0,0,0,0,0,0,0,0,0,0,0,0,0,0,0,0,0,0,0,0,0,0,0,0,0,0,0,0,0,0,0,268,269,0,
340,251,252,253,252,253,252,253,252,252,253,252,253,252,253,252,253,252,253,252,253,252,253,252,253,252,253,252,253,252,253,252,253,252,253,296,297,298,299,0,
370,10,11,12,13,14,15,16,17,18,19,20,21,22,23,24,25,10,11,12,13,14,15,10,11,12,13,14,15,16,17,18,19,20,21,22,23,0,0,0
</data>
  </layer>
  <layer id="3" name="eau" width="40" height="40">
   <data encoding="csv">
0,0,0,0,0,0,0,0,0,0,0,0,0,0,0,0,0,0,0,0,0,0,0,0,0,0,0,0,0,0,0,0,0,0,0,0,0,0,0,0,
0,0,0,0,0,0,0,0,0,0,0,0,0,0,0,0,0,0,0,0,0,0,0,0,0,0,0,0,0,0,0,0,0,0,0,0,0,0,0,0,
0,0,0,0,0,0,0,0,0,0,0,0,0,0,0,0,0,0,0,0,0,0,0,0,0,0,0,0,0,0,0,0,0,0,0,0,0,0,0,0,
0,0,0,0,0,0,603,604,0,0,0,0,0,0,0,0,0,0,0,0,0,0,0,0,0,0,0,0,0,0,0,0,0,0,0,0,0,0,0,0,
0,0,0,0,0,0,611,612,0,0,0,0,0,0,0,0,0,0,0,0,0,0,0,0,0,0,0,0,0,0,0,0,0,0,0,0,0,0,0,0,
0,0,0,0,0,0,0,0,0,0,0,0,0,0,0,0,0,0,0,0,0,0,0,0,0,0,607,608,0,0,0,0,0,0,0,0,0,0,0,0,
0,0,0,0,0,0,0,0,0,0,0,0,0,0,0,0,0,0,0,0,0,0,0,0,0,0,615,616,0,0,0,0,0,0,0,0,0,0,0,0,
0,0,0,0,0,0,0,0,0,0,0,0,0,0,607,608,0,0,0,0,0,0,0,0,0,0,0,0,0,0,0,0,0,0,0,0,0,0,0,0,
0,0,0,0,0,0,0,0,0,0,0,0,0,0,615,616,0,0,0,0,0,0,0,0,0,0,0,0,0,0,0,0,0,0,0,0,0,0,0,0,
0,0,0,0,0,0,0,0,0,0,0,0,0,0,0,0,0,0,0,0,0,0,0,0,0,0,0,0,0,0,0,0,0,0,0,0,0,0,0,0,
0,0,0,0,0,0,0,0,0,0,0,0,0,0,0,0,0,0,0,0,0,0,0,0,0,0,0,0,0,0,0,0,0,0,0,0,0,0,0,0,
0,0,0,0,0,0,0,0,0,0,0,0,0,0,0,0,0,0,0,0,0,0,0,0,0,0,0,0,0,0,0,0,0,0,0,0,0,0,0,0,
0,0,0,0,0,0,0,0,0,0,0,0,0,0,0,0,0,0,0,0,0,0,0,0,0,0,0,0,0,0,0,0,0,607,608,0,0,0,0,0,
0,0,0,0,0,0,0,0,0,0,0,0,0,0,0,0,0,0,0,0,0,0,0,0,0,0,0,0,0,0,0,0,0,615,616,0,0,0,0,0,
0,0,0,0,0,0,0,0,0,0,0,0,0,0,0,0,0,0,0,0,0,0,0,0,0,0,0,0,0,0,0,0,0,0,0,0,0,0,0,0,
0,0,0,0,0,0,0,0,0,0,0,0,0,0,0,0,0,0,0,0,0,0,0,0,0,0,0,0,0,0,0,0,0,0,0,0,0,0,0,0,
0,0,0,0,0,0,0,0,0,0,0,0,0,0,0,0,0,0,0,0,0,0,0,0,0,0,0,0,0,0,0,0,0,0,0,0,0,0,0,0,
0,0,0,603,604,0,0,0,0,0,0,0,0,0,0,0,0,0,0,0,0,0,0,0,0,0,0,0,0,0,0,0,0,0,0,0,0,0,0,0,
0,0,0,611,612,0,0,0,0,0,0,0,0,0,0,0,0,0,0,0,0,0,0,0,0,0,0,0,0,0,0,0,0,0,0,0,0,0,0,0,
0,0,0,0,0,0,0,0,0,0,0,0,0,0,0,0,0,0,0,0,0,0,0,0,0,0,0,0,0,0,0,0,0,0,0,0,0,0,0,0,
0,0,0,0,0,0,0,0,0,0,0,0,0,0,0,0,0,0,0,0,0,0,0,0,0,0,0,0,0,0,0,0,0,0,0,0,0,0,0,0,
0,0,0,0,0,0,0,0,0,0,0,0,0,0,0,0,0,0,0,0,0,0,0,0,0,0,0,0,0,0,0,0,0,0,0,0,0,0,0,0,
0,0,0,0,0,0,0,0,0,0,0,0,0,0,0,0,0,0,0,0,0,0,0,0,0,0,0,0,0,0,0,0,0,0,0,0,0,0,0,0,
0,0,0,0,0,0,0,0,0,0,0,0,0,0,0,0,0,0,0,0,0,0,0,0,0,0,0,0,0,0,0,0,0,0,0,0,0,0,0,0,
0,0,0,0,0,0,0,607,608,0,0,0,0,0,0,0,0,0,0,0,0,0,0,0,0,0,0,0,0,0,0,0,0,0,0,603,604,0,0,0,
0,0,0,0,0,0,0,615,616,0,0,0,0,0,0,0,0,0,0,0,0,0,0,0,0,0,0,0,0,0,0,0,0,0,0,611,612,0,0,0,
0,0,0,0,0,0,0,0,0,0,0,0,0,0,0,0,0,0,0,0,0,0,0,0,0,0,0,0,0,0,0,0,0,0,0,0,0,0,0,0,
0,0,0,0,0,0,0,0,0,0,0,0,0,0,0,0,0,0,0,0,0,0,0,0,0,0,0,0,0,0,0,0,0,0,0,0,0,0,0,0,
0,0,0,0,0,0,0,0,0,0,0,0,0,0,0,0,0,0,0,0,0,0,0,0,0,0,0,0,0,0,0,0,0,0,0,0,0,0,0,0,
0,0,0,0,0,0,0,0,0,0,0,0,0,0,0,0,0,0,0,0,0,0,0,0,0,0,0,0,0,0,0,0,0,0,0,0,0,0,0,0,
0,0,0,0,0,0,0,0,0,0,0,0,0,0,0,0,0,0,0,0,0,0,0,0,0,0,0,0,0,0,0,0,0,0,0,0,0,0,0,0,
0,0,0,0,0,0,0,0,607,608,0,0,0,0,0,0,0,0,0,0,0,0,0,0,0,0,0,607,608,0,0,0,0,0,0,0,914,0,0,0,
0,0,0,0,0,0,0,0,615,616,0,0,0,0,0,0,0,0,0,0,0,0,0,0,0,0,0,615,616,0,0,0,0,0,915,0,0,0,0,0,
0,0,0,0,0,0,0,0,0,0,0,0,0,0,0,0,0,0,0,0,0,0,0,0,0,0,0,0,0,228,230,231,232,0,0,352,353,0,0,0,
0,0,0,0,0,0,0,0,0,0,0,0,0,0,0,0,0,0,0,0,0,0,0,0,0,0,0,0,0,258,412,412,379,380,381,382,383,0,0,0,
0,0,0,0,607,608,0,0,0,0,0,0,0,0,0,0,0,0,0,0,0,0,0,0,0,0,0,0,0,288,412,412,412,412,412,412,413,0,0,0,
0,0,0,0,615,616,0,0,0,0,0,0,0,0,0,0,0,0,0,0,0,0,0,0,0,0,0,0,0,408,442,442,442,442,442,442,443,0,0,0,
0,0,0,0,0,0,0,0,0,0,0,0,0,0,0,0,0,0,0,0,0,0,0,0,0,0,0,0,0,0,0,0,0,0,0,0,0,0,0,0,
0,0,0,0,0,0,0,0,0,0,0,0,0,0,0,0,0,0,0,0,0,0,0,0,0,0,0,0,0,0,0,0,0,0,0,0,0,0,0,0,
0,0,0,0,0,0,0,0,0,0,0,0,0,0,0,0,0,0,0,0,0,0,0,0,0,0,0,0,0,0,0,0,0,0,0,0,0,0,0,0
</data>
  </layer>
 </group>
</map>
