<?xml version="1.0" encoding="UTF-8"?>
<map version="1.10" tiledversion="1.11.2" orientation="orthogonal" renderorder="right-down" width="40" height="40" tilewidth="16" tileheight="16" infinite="0" nextlayerid="7" nextobjectid="188">
 <tileset firstgid="1" source="../tileset/garden.tsx"/>
 <tileset firstgid="474" source="jsp.tsx"/>
 <tileset firstgid="1242" source="Death animation.tsx"/>
 <tileset firstgid="1258" source="2Crate.tsx"/>
 <tileset firstgid="1330" source="Tilemap Dungeon original size.tsx"/>
 <group id="5" name="collisions">
  <objectgroup id="6" name="collisions">
   <object id="163" name="collision" x="17" y="16" width="346" height="31.3333"/>
   <object id="164" name="collision" x="289" y="0" width="32" height="32"/>
   <object id="165" name="collision" x="353" y="0" width="16" height="64"/>
   <object id="166" name="collision" x="337" y="16" width="288" height="31.3333"/>
   <object id="167" name="collision" x="561" y="64" width="16" height="16"/>
   <object id="168" name="collision" x="609" y="16" width="16" height="608"/>
   <object id="169" name="collision" x="561" y="336" width="64" height="49.3333"/>
   <object id="170" name="collision" x="17" y="608" width="608" height="16"/>
   <object id="171" name="collision" x="17" y="16" width="16" height="592"/>
   <object id="172" name="collision" x="17" y="224" width="64" height="47.5"/>
   <object id="173" name="collision" x="81" y="160" width="16" height="32"/>
   <object id="174" name="collision" x="145" y="96" width="16" height="32"/>
   <object id="175" name="collision" x="513" y="432" width="16" height="32"/>
   <object id="176" name="collision" x="577" y="496" width="16" height="16"/>
   <object id="177" name="collision" x="545" y="512" width="16" height="16"/>
   <object id="178" name="collision1" x="465" y="528" width="64" height="64"/>
   <object id="179" name="collision1" x="529" y="544" width="64" height="48"/>
   <object id="180" name="collision1" x="561" y="528" width="32" height="64"/>
   <object id="185" x="320" y="320">
    <point/>
   </object>
  </objectgroup>
 </group>
 <group id="4" name="tiled">
  <layer id="1" name="sol" width="40" height="40">
   <data encoding="csv">
0,0,0,0,0,0,0,0,0,0,0,0,0,0,0,0,0,0,0,0,0,0,0,0,0,0,0,0,0,0,0,0,0,0,0,0,0,1351,1352,1353,
0,0,0,0,0,0,0,0,0,0,0,0,0,0,0,0,0,0,0,0,0,0,0,0,0,0,0,0,0,0,0,0,0,0,0,0,0,0,0,1369,
0,0,0,0,0,0,0,0,0,0,0,0,0,0,0,0,0,0,0,0,0,0,0,0,0,0,0,0,0,0,0,0,0,0,0,0,0,0,0,1399,
0,0,0,0,0,0,0,0,0,0,0,0,0,0,0,0,0,0,0,0,0,0,0,0,0,0,0,0,0,0,0,0,0,0,0,0,0,0,0,1429,
0,0,0,0,0,0,0,0,0,0,0,0,0,0,0,0,0,0,0,0,0,0,0,0,0,0,0,0,0,0,0,0,0,0,0,0,0,0,0,1459,
0,0,0,1525,1526,1527,1528,1529,1530,1531,1532,1533,1525,1526,1527,1528,1529,1530,1531,1532,1533,1525,1526,1527,1528,1529,1530,1531,1532,1533,1525,1526,1527,1528,1529,1530,1531,0,0,1489,
0,0,0,1525,1526,1527,1528,1529,1530,1531,1532,1533,1525,1526,1527,1528,1529,1530,1531,1532,1533,1525,1526,1527,1528,1529,1530,1531,1532,1533,1525,1526,1527,1528,1529,1530,1531,0,0,1519,
0,0,0,1525,1526,1527,1528,1529,1530,1531,1532,1533,1525,1526,1527,1528,1529,1530,1531,1532,1533,1525,1526,1527,1528,1529,1530,1531,1532,1533,1525,1526,1527,1528,1529,1530,1531,0,0,1549,
0,0,0,1525,1526,1527,1528,1524,1530,1531,1532,1533,1525,1526,1527,1528,1529,1530,1531,1532,1524,1525,1526,1527,1528,1529,1530,1531,1532,1533,1525,1526,1527,1528,1529,1530,1531,0,0,1579,
0,0,0,1525,1526,1527,1528,1529,1530,1531,1532,1533,1525,1526,1527,1528,1529,1530,1531,1532,1533,1525,1526,1527,1528,1529,1530,1531,1532,1533,1525,1526,1527,1528,1524,1530,1531,0,0,1609,
0,0,0,1525,1526,1527,1528,1529,1530,1531,1532,1533,1525,1526,1527,1528,1529,1530,1531,1532,1533,1525,1526,1527,1528,1529,1530,1531,1532,1533,1525,1526,1527,1528,1529,1530,1531,0,0,1639,
0,0,0,1525,1526,1527,1528,1529,1530,1531,1532,1533,1525,1526,1527,1528,1529,1530,1531,1532,1533,1525,1526,1527,1528,1529,1530,1531,1532,1533,1525,1526,1527,1528,1529,1530,1531,0,0,1669,
0,0,0,1525,1526,1527,1528,1529,1530,1531,1532,1533,1525,1526,1527,1528,1529,1530,1531,1532,1533,1525,1526,1527,1528,1529,1530,1531,1532,1533,1525,1526,1527,1528,1529,1530,1531,0,0,1699,
0,0,0,1525,1526,1527,1528,1529,1530,1531,1532,1533,1525,1526,1527,1528,1529,1530,1531,1532,1533,1525,1526,1527,1528,1529,1530,1531,1532,1533,1525,1526,1527,1528,1529,1530,1531,0,0,1369,
0,0,0,1525,1526,1527,1528,1529,1530,1531,1532,1533,1525,1526,1527,1528,1524,1530,1531,1532,1533,1525,1526,1527,1528,1529,1530,1531,1532,1533,1525,1526,1527,1528,1529,1530,1531,0,0,1399,
0,0,0,1525,1526,1527,1528,1529,1530,1531,1532,1533,1525,1526,1527,1528,1529,1530,1531,1532,1533,1525,1526,1527,1528,1529,1530,1524,1532,1533,1525,1526,1527,1528,1529,1530,1531,0,0,1429,
0,0,0,1525,1526,1527,1528,1529,1765,1766,1766,1767,1766,1767,1766,1767,1766,1766,1766,1766,1766,1766,1766,1766,1766,1766,1766,1767,1766,1766,1767,1765,1527,1528,1529,1530,1531,0,0,1459,
0,0,0,1525,1526,1527,1528,1529,1824,1827,1827,1827,1827,1827,1827,1827,1827,1827,1827,1827,1827,1827,1827,1827,1827,1827,1827,1827,1827,1827,1827,1830,1527,1528,1529,1530,1531,0,0,1489,
0,0,0,1525,1526,1527,1528,1524,1854,1855,1827,1827,1827,1827,1827,1827,1827,1827,1827,1827,1827,1827,1827,1827,1827,1827,1827,1827,1827,1827,1858,1860,1527,1528,1529,1530,1531,0,0,1519,
0,0,0,1525,1526,1527,1528,1529,1530,1854,1855,1827,1827,1827,1827,1827,1827,1827,1827,1827,1827,1827,1827,1827,1827,1827,1827,1827,1827,1858,1888,1526,1527,1528,1529,1530,1531,0,0,1549,
0,0,0,1525,1526,1527,1528,1529,1530,1531,1854,1855,1827,1827,1827,1827,1827,1827,1827,1827,1827,1827,1827,1827,1827,1827,1827,1827,1858,1888,1525,1526,1527,1528,1529,1530,1531,0,0,1579,
0,0,0,1525,1526,1527,1528,1529,1530,1531,1532,1854,1855,1827,1827,1827,1827,1827,1827,1827,1827,1827,1827,1827,1827,1827,1827,1858,1888,1533,1525,1526,1527,1528,1529,1530,1531,0,0,1609,
0,0,0,1525,1526,1527,1528,1529,1530,1531,1532,1533,1854,1855,1827,1827,1827,1827,1827,1827,1827,1827,1827,1827,1827,1827,1858,1888,1532,1524,1525,1526,1527,1528,1529,1530,1531,0,0,1639,
0,0,0,1525,1526,1527,1528,1529,1530,1531,1532,1533,1525,1854,1855,1827,1827,1827,1827,1827,1827,1827,1827,1827,1827,1858,1888,1531,1532,1533,1525,1526,1527,1528,1529,1530,1531,0,0,1669,
0,0,0,1525,1526,1527,1528,1529,1530,1531,1532,1533,1525,1526,1854,1855,1827,1827,1827,1827,1827,1827,1827,1827,1858,1888,1530,1531,1532,1533,1525,1526,1527,1528,1529,1530,1531,0,0,1699,
0,0,0,1525,1526,1527,1528,1529,1530,1531,1532,1533,1525,1526,1527,1854,1855,1827,1827,1827,1827,1827,1827,1858,1888,1529,1530,1531,1532,1533,1525,1526,1527,1528,1529,1530,1531,0,0,1369,
0,0,0,1525,1526,1524,1528,1529,1530,1531,1532,1533,1525,1526,1527,1528,1854,1855,1827,1827,1827,1827,1858,1888,1528,1529,1530,1531,1532,1533,1525,1526,1527,1528,1529,1530,1531,0,0,1399,
0,0,0,1525,1526,1527,1528,1529,1530,1531,1532,1533,1525,1526,1527,1528,1529,1854,1855,1827,1827,1858,1888,1527,1528,1529,1530,1531,1532,1533,1525,1526,1527,1528,1529,1530,1531,0,0,1429,
0,0,0,1525,1526,1527,1528,1529,1530,1531,1532,1533,1525,1526,1527,1528,1529,1530,1886,1887,1887,1888,1526,1527,1528,1529,1530,1531,1532,1533,1525,1526,1527,1528,1529,1530,1531,0,0,1369,
0,0,0,1525,1526,1527,1528,1529,1530,1531,1532,1533,1525,1526,1527,1528,1529,1530,1531,1532,1533,1525,1526,1527,1528,1529,1530,1531,1532,1533,1525,1526,1527,1528,1529,1530,1531,0,0,1399,
0,0,0,1525,1526,1527,1528,1765,1766,1767,1767,1533,1525,1526,1527,1528,1529,1530,1531,1532,1533,1525,1526,1527,1528,1529,1530,1531,1532,1533,1525,1526,1527,1528,1529,1530,1531,0,0,1429,
0,0,0,1525,1526,1527,1765,1795,1796,1827,1827,1830,1525,1526,1527,1528,1529,1530,1531,1532,1533,1525,1526,1527,1528,1529,1530,1531,1532,1533,1525,1526,1527,1528,1529,1530,1531,0,0,1459,
0,0,0,1525,1526,1527,1795,1796,1827,1827,1827,1830,1525,1526,1527,1528,1529,1530,1531,1532,1533,1525,1526,1527,1528,1529,1530,1531,1532,1533,1525,1526,1527,1528,1529,1530,1531,0,0,1489,
0,0,0,1525,1526,1527,1855,1856,1856,1857,1858,1860,1525,1526,1527,1528,1529,1530,1531,1532,1533,1525,1526,1527,1528,1529,1530,1531,1532,0,0,0,0,1528,1529,0,0,0,0,1519,
0,0,0,1525,1526,1527,1528,1887,1887,1887,1532,1533,1525,1526,1527,1528,1529,1530,1531,1532,1533,1525,1526,1527,1528,1529,1530,1531,1532,0,0,0,0,0,0,0,0,0,0,1549,
0,0,0,1525,1526,1527,1528,1529,1524,1531,1532,1533,1525,1526,1527,1528,1529,1530,1531,1532,1533,1525,1526,1527,1528,1529,1530,1531,1532,0,0,0,0,0,0,0,0,0,0,1579,
0,0,0,1525,1526,1527,1528,1529,1530,1531,1532,1533,1525,1526,1527,1528,1529,1530,1531,1532,1533,1525,1526,1527,1528,1529,1530,1531,1532,0,0,0,0,0,0,0,0,0,0,1609,
0,0,0,1525,1526,1527,1528,1529,1530,1531,1532,1533,1525,1526,1527,1528,1529,1530,1531,1532,1533,1525,1526,1527,1528,1529,1530,1531,1532,1533,1525,1526,1527,1528,1529,1530,1531,0,0,1639,
0,0,0,0,0,0,0,0,0,0,0,0,0,0,0,0,0,0,0,0,0,0,0,0,0,0,0,0,0,0,0,0,0,0,0,0,0,0,0,1669,
0,0,0,0,0,0,0,0,0,0,0,0,0,0,0,0,0,0,0,0,0,0,0,0,0,0,0,0,0,0,0,0,0,0,0,0,0,1353,1354,1699
</data>
  </layer>
  <layer id="2" name="mur" width="40" height="40">
   <data encoding="csv">
1339,1340,1341,1342,1343,1344,1345,1346,1347,1348,1349,1350,1351,1352,1353,1351,1352,1353,1373,1374,1375,1376,1377,1339,1340,1339,1340,1341,1342,1343,1344,1345,1346,1347,1348,1349,1350,0,0,0,
1369,1400,1401,1481,1336,1337,1338,1484,1484,1484,1403,1336,1337,1338,1407,1481,1481,1402,1403,1404,1405,1406,1407,1408,1409,1410,1411,1484,1484,1484,1336,1337,1338,1484,1484,1415,1416,1417,1418,0,
1399,1430,1431,1511,1366,1367,1368,1514,1514,1514,1433,1366,1367,1368,1437,1511,1511,1432,1433,1434,1435,1436,1437,1438,1439,1440,1441,1514,1514,1514,1366,1367,1368,1514,1514,1445,1446,1447,1448,0,
1429,1460,1461,1541,1396,1397,1398,1544,1544,1544,1463,1396,1397,1398,1467,1541,1541,1462,1463,1464,1465,1466,1467,1468,1469,1470,1471,1544,1544,1544,1396,1397,1398,1544,1544,1475,1476,1477,1478,0,
1459,1490,1491,1571,1426,1427,1428,1574,1574,1574,1493,1426,1427,1428,1497,1571,1571,1492,1493,1494,1495,1496,1497,1498,1499,1500,1501,1574,1574,1574,1426,1427,1428,1574,1574,1505,1506,1507,1508,0,
1489,1520,1521,0,0,0,0,0,0,0,0,0,0,0,0,0,0,0,0,0,0,0,0,0,0,0,0,0,0,0,0,0,0,0,0,0,0,1507,1508,0,
1519,1760,1761,0,0,0,0,0,0,1592,0,0,0,0,0,0,0,0,0,0,0,0,0,0,0,0,0,0,0,0,1675,1676,0,0,0,0,0,1537,1538,0,
1549,1790,1791,0,0,0,0,0,0,1622,0,0,0,0,0,0,0,0,0,0,0,0,0,0,0,0,0,0,0,0,0,1675,1676,0,0,0,0,1773,1774,0,
1579,1550,1551,0,0,0,0,0,0,0,0,0,0,0,0,0,0,0,0,0,0,0,0,0,0,0,0,0,0,0,0,0,0,0,0,0,0,1803,1804,0,
1609,1520,1521,0,0,0,0,0,0,0,0,0,0,0,0,0,0,0,0,0,0,0,0,0,0,0,0,0,1675,1676,0,0,0,0,0,0,0,1833,1834,0,
1639,1550,1551,0,0,1592,0,0,0,0,0,0,0,0,0,0,0,0,0,0,0,0,0,0,0,0,0,0,0,0,0,0,0,0,0,0,0,1597,1598,0,
1669,1520,1521,0,0,1622,0,0,0,0,0,0,0,0,0,0,0,0,0,0,0,0,0,0,0,0,0,0,0,0,0,0,0,0,0,0,0,1507,1508,0,
1699,1550,1551,0,0,0,0,0,0,0,0,0,0,0,0,0,0,0,0,0,0,0,0,0,0,0,0,0,0,0,0,0,0,0,0,0,0,1537,1538,0,
1369,1520,1521,0,0,0,0,0,0,0,0,0,0,0,0,0,0,0,0,0,0,0,0,0,0,0,0,0,0,0,0,0,0,0,0,0,0,1567,1568,0,
1399,1580,1581,1582,1583,1584,0,0,0,0,0,0,0,0,0,0,0,0,0,0,0,0,0,0,0,0,0,0,0,0,0,0,0,0,0,0,0,1597,1598,0,
1429,1610,1611,1612,1613,1545,0,0,0,0,0,0,0,0,0,0,0,0,0,0,0,0,0,0,0,0,0,0,0,0,0,0,0,0,0,0,0,1507,1508,0,
1459,1640,1641,1642,1643,1545,0,0,0,0,0,0,0,0,0,0,0,0,0,0,0,0,0,0,0,0,0,0,0,0,0,0,0,0,0,0,0,1773,1774,0,
1489,1790,1791,1643,1642,1545,0,0,0,0,0,0,0,0,0,0,0,0,0,0,0,0,0,0,0,0,0,0,0,0,0,0,0,0,0,0,0,1803,1804,0,
1519,1550,1551,1571,1574,1704,0,0,0,0,0,0,0,0,0,0,0,0,0,0,0,0,0,0,0,0,0,0,0,0,0,0,0,0,0,0,0,1833,1834,0,
1549,1520,1521,0,0,0,0,0,0,0,0,0,0,0,0,0,0,0,0,0,0,0,0,0,0,0,0,0,0,0,0,0,0,0,0,0,0,1507,1508,0,
1579,1550,1551,0,0,0,0,0,0,0,0,0,0,0,0,0,0,0,0,0,0,0,0,0,0,0,0,0,0,0,0,0,0,0,0,0,0,1537,1538,0,
1609,1520,1521,0,0,0,0,0,0,0,0,0,0,0,0,0,0,0,0,0,0,0,0,0,0,0,0,0,0,0,0,0,0,0,1450,1451,1452,1453,1568,0,
1639,1550,1551,0,0,0,0,0,0,0,0,0,0,0,0,0,0,0,0,0,0,0,0,0,0,0,0,0,0,0,0,0,0,0,1480,1481,1482,1483,1598,0,
1669,1520,1521,0,0,0,0,0,0,0,0,0,0,0,0,0,0,0,0,0,0,0,0,0,0,0,0,0,0,0,0,0,0,0,1510,1511,1512,1513,1508,0,
1699,1550,1551,0,0,0,0,0,0,0,0,0,0,0,0,0,0,0,0,0,0,0,0,0,0,0,0,0,0,0,0,0,0,0,1540,1541,1542,1543,1538,0,
1369,1520,1521,0,0,0,0,0,0,0,0,0,0,0,0,0,0,0,0,0,0,0,0,0,0,0,0,0,0,0,0,0,0,0,1570,1506,1506,1507,1568,0,
1399,1760,1761,0,0,0,0,0,0,0,0,0,0,0,0,0,0,0,0,0,0,0,0,0,0,0,0,0,0,0,0,0,0,0,0,0,0,1773,1774,0,
1429,1790,1791,0,0,0,0,0,0,0,0,0,0,0,0,0,0,0,0,0,0,0,0,0,0,0,0,0,0,0,0,0,1592,0,0,0,0,1803,1804,0,
1369,1550,1551,0,0,0,0,0,0,0,0,0,0,0,0,0,0,0,0,0,0,0,0,0,0,0,0,0,0,0,0,0,1622,0,0,0,0,1833,1834,0,
1399,1520,1521,0,0,0,0,0,0,0,0,0,0,0,0,0,0,0,0,0,0,0,0,0,0,0,0,0,0,0,0,0,0,0,0,0,0,1567,1568,0,
1429,1550,1551,0,0,0,0,0,0,0,0,0,0,0,0,0,0,0,0,0,0,0,0,0,0,0,0,0,0,0,0,0,0,0,0,0,0,1597,1598,0,
1459,1520,1521,0,0,0,0,0,0,0,0,0,0,0,0,0,0,0,0,0,1675,1676,0,0,0,0,0,0,0,0,0,0,0,0,0,0,0,1537,1538,0,
1489,1550,1551,0,0,0,0,0,0,0,0,0,0,0,0,0,0,0,0,0,0,0,0,0,0,0,0,0,0,0,0,0,0,0,0,0,0,1567,1568,0,
1519,1520,1521,0,0,0,0,0,0,0,0,0,0,0,0,0,0,0,0,0,0,0,0,0,0,0,0,0,0,0,0,0,0,0,0,0,0,1597,1598,0,
1549,1550,1551,0,0,0,0,0,0,0,0,0,0,0,0,0,0,0,0,0,0,0,0,0,0,0,0,0,0,0,0,0,0,0,0,0,0,1507,1508,0,
1579,1520,1521,0,0,0,0,0,0,0,0,0,0,0,0,0,0,0,0,0,0,0,0,0,1675,1676,0,0,0,0,0,0,0,0,0,0,0,1537,1538,0,
1609,1550,1551,0,0,0,0,0,0,0,0,0,0,0,0,0,0,0,0,0,0,0,0,0,0,0,0,0,0,0,0,0,0,0,0,0,0,1567,1568,0,
1639,1550,1551,0,0,0,0,0,0,0,0,0,0,0,0,0,0,0,0,0,0,0,0,0,0,0,0,0,0,0,0,0,0,0,0,0,0,1597,1598,0,
1669,1580,1581,1582,1581,1582,1581,1582,1581,1581,1582,1581,1582,1581,1582,1581,1582,1581,1582,1581,1582,1581,1582,1581,1582,1581,1582,1581,1582,1581,1582,1581,1582,1581,1582,1625,1626,1627,1628,0,
1699,1339,1340,1341,1342,1343,1344,1345,1346,1347,1348,1349,1350,1351,1352,1353,1354,1339,1340,1341,1342,1343,1344,1339,1340,1341,1342,1343,1344,1345,1346,1347,1348,1349,1350,1351,1352,0,0,0
</data>
  </layer>
  <layer id="3" name="eau" width="40" height="40">
   <data encoding="csv">
0,0,0,0,0,0,0,0,0,0,0,0,0,0,0,0,0,0,0,0,0,0,0,0,0,0,0,0,0,0,0,0,0,0,0,0,0,0,0,0,
0,0,0,0,0,0,0,0,0,0,0,0,0,0,0,0,0,0,0,0,0,0,0,0,0,0,0,0,0,0,0,0,0,0,0,0,0,0,0,0,
0,0,0,0,0,0,0,0,0,0,0,0,0,0,0,0,0,0,0,0,0,0,0,0,0,0,0,0,0,0,0,0,0,0,0,0,0,0,0,0,
0,0,0,0,0,0,1244,1245,0,0,0,0,0,0,0,0,0,0,0,0,0,0,0,0,0,0,0,0,0,0,0,0,0,0,0,0,0,0,0,0,
0,0,0,0,0,0,1252,1253,0,0,0,0,0,0,0,0,0,0,0,0,0,0,0,0,0,0,0,0,0,0,0,0,0,0,0,0,0,0,0,0,
0,0,0,0,0,0,0,0,0,0,0,0,0,0,0,0,0,0,0,0,0,0,0,0,0,0,1248,1249,0,0,0,0,0,0,0,0,0,0,0,0,
0,0,0,0,0,0,0,0,0,0,0,0,0,0,0,0,0,0,0,0,0,0,0,0,0,0,1256,1257,0,0,0,0,0,0,0,0,0,0,0,0,
0,0,0,0,0,0,0,0,0,0,0,0,0,0,1248,1249,0,0,0,0,0,0,0,0,0,0,0,0,0,0,0,0,0,0,0,0,0,0,0,0,
0,0,0,0,0,0,0,0,0,0,0,0,0,0,1256,1257,0,0,0,0,0,0,0,0,0,0,0,0,0,0,0,0,0,0,0,0,0,0,0,0,
0,0,0,0,0,0,0,0,0,0,0,0,0,0,0,0,0,0,0,0,0,0,0,0,0,0,0,0,0,0,0,0,0,0,0,0,0,0,0,0,
0,0,0,0,0,0,0,0,0,0,0,0,0,0,0,0,0,0,0,0,0,0,0,0,0,0,0,0,0,0,0,0,0,0,0,0,0,0,0,0,
0,0,0,0,0,0,0,0,0,0,0,0,0,0,0,0,0,0,0,0,0,0,0,0,0,0,0,0,0,0,0,0,0,0,0,0,0,0,0,0,
0,0,0,0,0,0,0,0,0,0,0,0,0,0,0,0,0,0,0,0,0,0,0,0,0,0,0,0,0,0,0,0,0,1248,1249,0,0,0,0,0,
0,0,0,0,0,0,0,0,0,0,0,0,0,0,0,0,0,0,0,0,0,0,0,0,0,0,0,0,0,0,0,0,0,1256,1257,0,0,0,0,0,
0,0,0,0,0,0,0,0,0,0,0,0,0,0,0,0,0,0,0,0,0,0,0,0,0,0,0,0,0,0,0,0,0,0,0,0,0,0,0,0,
0,0,0,0,0,0,0,0,0,0,0,0,0,0,0,0,0,0,0,0,0,0,0,0,0,0,0,0,0,0,0,0,0,0,0,0,0,0,0,0,
0,0,0,0,0,0,0,0,0,0,0,0,0,0,0,0,0,0,0,0,0,0,0,0,0,0,0,0,0,0,0,0,0,0,0,0,0,0,0,0,
0,0,0,1244,1245,0,0,0,0,0,0,0,0,0,0,0,0,0,0,0,0,0,0,0,0,0,0,0,0,0,0,0,0,0,0,0,0,0,0,0,
0,0,0,1252,1253,0,0,0,0,0,0,0,0,0,0,0,0,0,0,0,0,0,0,0,0,0,0,0,0,0,0,0,0,0,0,0,0,0,0,0,
0,0,0,0,0,0,0,0,0,0,0,0,0,0,0,0,0,0,0,0,0,0,0,0,0,0,0,0,0,0,0,0,0,0,0,0,0,0,0,0,
0,0,0,0,0,0,0,0,0,0,0,0,0,0,0,0,0,0,0,0,0,0,0,0,0,0,0,0,0,0,0,0,0,0,0,0,0,0,0,0,
0,0,0,0,0,0,0,0,0,0,0,0,0,0,0,0,0,0,0,0,0,0,0,0,0,0,0,0,0,0,0,0,0,0,0,0,0,0,0,0,
0,0,0,0,0,0,0,0,0,0,0,0,0,0,0,0,0,0,0,0,0,0,0,0,0,0,0,0,0,0,0,0,0,0,0,0,0,0,0,0,
0,0,0,0,0,0,0,0,0,0,0,0,0,0,0,0,0,0,0,0,0,0,0,0,0,0,0,0,0,0,0,0,0,0,0,0,0,0,0,0,
0,0,0,0,0,0,0,1248,1249,0,0,0,0,0,0,0,0,0,0,0,0,0,0,0,0,0,0,0,0,0,0,0,0,0,0,1244,1245,0,0,0,
0,0,0,0,0,0,0,1256,1257,0,0,0,0,0,0,0,0,0,0,0,0,0,0,0,0,0,0,0,0,0,0,0,0,0,0,1252,1253,0,0,0,
0,0,0,0,0,0,0,0,0,0,0,0,0,0,0,0,0,0,0,0,0,0,0,0,0,0,0,0,0,0,0,0,0,0,0,0,0,0,0,0,
0,0,0,0,0,0,0,0,0,0,0,0,0,0,0,0,0,0,0,0,0,0,0,0,0,0,0,0,0,0,0,0,0,0,0,0,0,0,0,0,
0,0,0,0,0,0,0,0,0,0,0,0,0,0,0,0,0,0,0,0,0,0,0,0,0,0,0,0,0,0,0,0,0,0,0,0,0,0,0,0,
0,0,0,0,0,0,0,0,0,0,0,0,0,0,0,0,0,0,0,0,0,0,0,0,0,0,0,0,0,0,0,0,0,0,0,0,0,0,0,0,
0,0,0,0,0,0,0,0,0,0,0,0,0,0,0,0,0,0,0,0,0,0,0,0,0,0,0,0,0,0,0,0,0,0,0,0,0,0,0,0,
0,0,0,0,0,0,0,0,1248,1249,0,0,0,0,0,0,0,0,0,0,0,0,0,0,0,0,0,1248,1249,0,0,0,0,0,0,0,298,0,0,0,
0,0,0,0,0,0,0,0,1256,1257,0,0,0,0,0,0,0,0,0,0,0,0,0,0,0,0,0,1256,1257,0,0,0,0,0,299,0,0,0,0,0,
0,0,0,0,0,0,0,0,0,0,0,0,0,0,0,0,0,0,0,0,0,0,0,0,0,0,0,0,0,1557,1559,1560,1561,0,0,1681,1682,0,0,0,
0,0,0,0,0,0,0,0,0,0,0,0,0,0,0,0,0,0,0,0,0,0,0,0,0,0,0,0,0,1587,1741,1741,1708,1709,1710,1711,1712,0,0,0,
0,0,0,0,1248,1249,0,0,0,0,0,0,0,0,0,0,0,0,0,0,0,0,0,0,0,0,0,0,0,1617,1741,1741,1741,1741,1741,1741,1742,0,0,0,
0,0,0,0,1256,1257,0,0,0,0,0,0,0,0,0,0,0,0,0,0,0,0,0,0,0,0,0,0,0,1737,1771,1771,1771,1771,1771,1771,1772,0,0,0,
0,0,0,0,0,0,0,0,0,0,0,0,0,0,0,0,0,0,0,0,0,0,0,0,0,0,0,0,0,0,0,0,0,0,0,0,0,0,0,0,
0,0,0,0,0,0,0,0,0,0,0,0,0,0,0,0,0,0,0,0,0,0,0,0,0,0,0,0,0,0,0,0,0,0,0,0,0,0,0,0,
0,0,0,0,0,0,0,0,0,0,0,0,0,0,0,0,0,0,0,0,0,0,0,0,0,0,0,0,0,0,0,0,0,0,0,0,0,0,0,0
</data>
  </layer>
 </group>
</map>
